; generated by PrusaSlicer 2.3.1+win64 on 2023-05-16 at 17:40:43 UTC

; 

; external perimeters extrusion width = 0.45mm
; perimeters extrusion width = 0.45mm
; infill extrusion width = 0.45mm
; solid infill extrusion width = 0.45mm
; top infill extrusion width = 0.40mm
; first layer extrusion width = 0.42mm

M73 P0 R11
M73 Q0 S11
M201 X1000 Y1000 Z200 E5000 ; sets maximum accelerations, mm/sec^2
M203 X200 Y200 Z12 E120 ; sets maximum feedrates, mm/sec
M204 P1250 R1250 T1250 ; sets acceleration (P, T) and retract acceleration (R), mm/sec^2
M205 X8.00 Y8.00 Z0.40 E4.50 ; sets the jerk limits, mm/sec
M205 S0 T0 ; sets the minimum extruding and travel feed rate, mm/sec
M107
;TYPE:Custom
M862.3 P "MK3S" ; printer model check
M862.1 P0.4 ; nozzle diameter check
M115 U3.9.3 ; tell printer latest fw version
G90 ; use absolute coordinates
M83 ; extruder relative mode
M104 S205 ; set extruder temp
M140 S67 ; set bed temp
M190 S67 ; wait for bed temp
M109 S205 ; wait for extruder temp
G28 W ; home all without mesh bed level
G80 ; mesh bed leveling
G1 Y-3.0 F1000.0 ; go outside print area
G92 E0.0
G1 X60.0 E9.0 F1000.0 ; intro line
G1 X100.0 E12.5 F1000.0 ; intro line
G92 E0.0
M221 S95

; Don't change E values below. Excessive value can damage the printer.
M907 E430 ; set extruder motor current
G21 ; set units to millimeters
G90 ; use absolute coordinates
M83 ; use relative distances for extrusion
M900 K0.05 ; Filament gcode LA 1.5
M900 K30 ; Filament gcode LA 1.0
;LAYER_CHANGE
;Z:0.2
;HEIGHT:0.2
;BEFORE_LAYER_CHANGE
G92 E0.0
;0.2


G1 E-0.80000 F2100.000
G1 Z0.400 F10800.000
;AFTER_LAYER_CHANGE
;0.2
; printing object 15x13_bearing_adapter.stl id:0 copy 0
G1 X205.839 Y41.366
M73 P1 R11
M73 Q1 S11
G1 Z0.200
G1 E0.80000 F2100.000
M204 S1000
;TYPE:Perimeter
;WIDTH:0.42
G1 F900
G1 X205.974 Y40.796 E0.01837
G1 X206.242 Y40.007 E0.02613
G1 X206.604 Y39.246 E0.02641
G1 X206.900 Y38.751 E0.01809
G1 X207.397 Y38.078 E0.02624
G1 X207.779 Y37.653 E0.01791
G1 X208.193 Y37.259 E0.01791
G1 X208.851 Y36.743 E0.02625
G1 X209.345 Y36.428 E0.01837
G1 X210.083 Y36.052 E0.02595
G1 X210.619 Y35.840 E0.01808
G1 X211.429 Y35.608 E0.02641
G1 X212.260 Y35.470 E0.02642
G1 X212.845 Y35.431 E0.01837
G1 X213.678 Y35.456 E0.02613
G1 X214.517 Y35.578 E0.02659
G1 X215.331 Y35.795 E0.02641
G1 X215.867 Y35.994 E0.01792
G1 X216.393 Y36.238 E0.01819
G1 X217.107 Y36.657 E0.02596
G1 X217.581 Y37.001 E0.01837
G1 X218.202 Y37.549 E0.02596
G1 X218.601 Y37.977 E0.01837
G1 X219.109 Y38.638 E0.02613
G1 X219.542 Y39.361 E0.02641
G1 X219.789 Y39.882 E0.01809
G1 X220.074 Y40.669 E0.02624
G1 X220.215 Y41.222 E0.01791
G1 X220.314 Y41.785 E0.01791
G1 X220.378 Y42.619 E0.02624
G1 X220.367 Y43.196 E0.01809
G1 X220.270 Y44.033 E0.02641
G1 X220.076 Y44.858 E0.02659
G1 X219.789 Y45.651 E0.02641
G1 X219.542 Y46.172 E0.01809
G1 X219.109 Y46.894 E0.02641
G1 X218.595 Y47.562 E0.02641
G1 X218.205 Y47.980 E0.01791
G1 X217.784 Y48.366 E0.01791
G1 X217.111 Y48.873 E0.02641
G1 X216.385 Y49.298 E0.02641
G1 X215.866 Y49.539 E0.01791
G1 X215.331 Y49.738 E0.01791
G1 X214.522 Y49.953 E0.02624
G1 X213.953 Y50.047 E0.01809
G1 X213.118 Y50.104 E0.02625
G1 X212.532 Y50.086 E0.01837
G1 X211.711 Y49.982 E0.02595
G1 X211.149 Y49.856 E0.01808
G1 X210.349 Y49.592 E0.02641
G1 X209.584 Y49.238 E0.02641
G1 X209.086 Y48.947 E0.01809
G1 X208.408 Y48.456 E0.02625
G1 X207.969 Y48.068 E0.01837
G1 X207.400 Y47.459 E0.02613
G1 X206.900 Y46.781 E0.02641
G1 X206.604 Y46.286 E0.01809
G1 X206.245 Y45.530 E0.02625
G1 X206.046 Y44.979 E0.01837
G1 X205.840 Y44.172 E0.02613
G1 X205.726 Y43.337 E0.02641
G1 X205.704 Y42.766 E0.01791
G1 X205.726 Y42.195 E0.01791
G1 X205.831 Y41.425 E0.02436
G1 X206.205 Y41.476 F10800.000
;TYPE:External perimeter
G1 F900
G1 X206.337 Y40.900 E0.01853
G1 X206.592 Y40.149 E0.02488
G1 X206.937 Y39.424 E0.02516
G1 X207.214 Y38.961 E0.01695
G1 X207.690 Y38.317 E0.02510
G1 X208.050 Y37.916 E0.01688
G1 X208.440 Y37.545 E0.01688
G1 X209.070 Y37.051 E0.02510
G1 X209.533 Y36.756 E0.01723
G1 X210.238 Y36.396 E0.02481
G1 X210.741 Y36.198 E0.01695
G1 X211.512 Y35.976 E0.02516
G1 X212.304 Y35.845 E0.02516
G1 X212.852 Y35.809 E0.01723
G1 X213.645 Y35.832 E0.02488
G1 X214.441 Y35.948 E0.02522
G1 X215.216 Y36.154 E0.02516
G1 X215.721 Y36.342 E0.01689
G1 X216.218 Y36.573 E0.01716
G1 X216.900 Y36.973 E0.02482
G1 X217.345 Y37.296 E0.01723
G1 X217.939 Y37.820 E0.02482
G1 X218.313 Y38.221 E0.01723
G1 X218.797 Y38.851 E0.02488
G1 X219.209 Y39.539 E0.02516
G1 X219.441 Y40.027 E0.01695
G1 X219.713 Y40.780 E0.02510
G1 X219.846 Y41.302 E0.01688
G1 X219.939 Y41.832 E0.01688
G1 X220.001 Y42.630 E0.02510
G1 X219.990 Y43.171 E0.01695
G1 X219.898 Y43.968 E0.02516
G1 X219.714 Y44.751 E0.02522
G1 X219.441 Y45.505 E0.02516
G1 X219.209 Y45.994 E0.01695
G1 X218.797 Y46.682 E0.02516
G1 X218.308 Y47.318 E0.02516
G1 X217.940 Y47.712 E0.01688
G1 X217.543 Y48.075 E0.01688
G1 X216.902 Y48.558 E0.02516
G1 X216.210 Y48.964 E0.02516
G1 X215.721 Y49.190 E0.01688
G1 X215.216 Y49.378 E0.01688
G1 X214.443 Y49.584 E0.02510
G1 X213.910 Y49.672 E0.01695
G1 X213.111 Y49.726 E0.02510
G1 X212.562 Y49.710 E0.01723
G1 X211.777 Y49.611 E0.02481
G1 X211.249 Y49.492 E0.01695
G1 X210.487 Y49.241 E0.02516
G1 X209.759 Y48.904 E0.02516
G1 X209.293 Y48.630 E0.01695
G1 X208.644 Y48.161 E0.02510
G1 X208.232 Y47.797 E0.01723
G1 X207.691 Y47.217 E0.02488
G1 X207.214 Y46.572 E0.02516
G1 X206.937 Y46.108 E0.01695
G1 X206.593 Y45.385 E0.02510
G1 X206.407 Y44.868 E0.01723
G1 X206.210 Y44.099 E0.02488
G1 X206.103 Y43.304 E0.02516
G1 X206.082 Y42.766 E0.01688
M73 Q2 S11
G1 X206.103 Y42.228 E0.01688
G1 X206.197 Y41.536 E0.02191
G1 X205.900 Y41.217 F10800.000
G1 X205.489 Y41.206
;TYPE:Perimeter
G1 F900
G1 X205.688 Y40.443 E0.02471
G1 X205.901 Y39.856 E0.01957
G1 X206.185 Y39.237 E0.02135
G1 X206.580 Y38.557 E0.02468
M73 P2 R11
G1 X207.042 Y37.921 E0.02463
G1 X207.566 Y37.336 E0.02463
G1 X208.146 Y36.807 E0.02463
G1 X208.778 Y36.340 E0.02463
G1 X209.454 Y35.940 E0.02463
G1 X210.166 Y35.610 E0.02463
G1 X210.909 Y35.355 E0.02463
G1 X211.674 Y35.176 E0.02463
G1 X212.456 Y35.076 E0.02471
G1 X213.080 Y35.055 E0.01957
G1 X213.760 Y35.088 E0.02135
G1 X214.539 Y35.201 E0.02467
G1 X215.300 Y35.392 E0.02463
G1 X216.039 Y35.660 E0.02463
G1 X216.746 Y36.002 E0.02463
G1 X217.415 Y36.414 E0.02463
G1 X218.038 Y36.891 E0.02463
G1 X218.610 Y37.430 E0.02463
G1 X219.124 Y38.024 E0.02463
G1 X219.575 Y38.667 E0.02463
G1 X219.958 Y39.353 E0.02463
G1 X220.271 Y40.079 E0.02478
G1 X220.434 Y40.566 E0.01611
G1 X220.620 Y41.334 E0.02478
G1 X220.726 Y42.112 E0.02463
G1 X220.753 Y42.897 E0.02463
G1 X220.700 Y43.681 E0.02463
G1 X220.567 Y44.455 E0.02463
G1 X220.355 Y45.214 E0.02471
G1 X220.133 Y45.797 E0.01957
G1 X219.838 Y46.411 E0.02135
G1 X219.432 Y47.085 E0.02467
G1 X218.959 Y47.712 E0.02463
G1 X218.425 Y48.289 E0.02463
G1 X217.836 Y48.808 E0.02463
G1 X217.196 Y49.264 E0.02463
G1 X216.514 Y49.653 E0.02463
G1 X215.791 Y49.972 E0.02478
G1 X215.305 Y50.139 E0.01611
G1 X214.539 Y50.332 E0.02478
G1 X213.761 Y50.445 E0.02463
G1 X212.976 Y50.478 E0.02463
G1 X212.192 Y50.431 E0.02463
G1 X211.417 Y50.305 E0.02463
G1 X210.659 Y50.101 E0.02463
G1 X209.925 Y49.821 E0.02463
G1 X209.224 Y49.467 E0.02463
G1 X208.562 Y49.044 E0.02463
G1 X207.943 Y48.552 E0.02478
G1 X207.569 Y48.200 E0.01611
G1 X207.042 Y47.611 E0.02478
G1 X206.580 Y46.976 E0.02463
G1 X206.184 Y46.294 E0.02471
G1 X205.922 Y45.728 E0.01957
G1 X205.688 Y45.089 E0.02135
G1 X205.489 Y44.327 E0.02467
G1 X205.370 Y43.551 E0.02463
G1 X205.330 Y42.766 E0.02463
G1 X205.370 Y41.982 E0.02463
G1 X205.480 Y41.265 E0.02275
G1 X205.108 Y41.207 F10800.000
;TYPE:External perimeter
G1 F900
G1 X205.327 Y40.331 E0.02833
G1 X205.552 Y39.713 E0.02061
G1 X205.849 Y39.064 E0.02241
G1 X206.264 Y38.351 E0.02585
G1 X206.748 Y37.684 E0.02583
G1 X207.297 Y37.070 E0.02583
G1 X207.907 Y36.516 E0.02583
G1 X208.569 Y36.026 E0.02583
G1 X209.278 Y35.606 E0.02583
G1 X210.026 Y35.260 E0.02583
G1 X210.805 Y34.992 E0.02583
G1 X211.607 Y34.805 E0.02583
G1 X212.425 Y34.700 E0.02586
G1 X213.082 Y34.678 E0.02061
G1 X213.796 Y34.712 E0.02240
G1 X214.612 Y34.830 E0.02585
G1 X215.411 Y35.031 E0.02583
G1 X216.185 Y35.312 E0.02583
G1 X216.927 Y35.671 E0.02583
G1 X217.629 Y36.103 E0.02583
G1 X218.283 Y36.604 E0.02583
G1 X218.882 Y37.169 E0.02583
G1 X219.421 Y37.792 E0.02583
G1 X219.894 Y38.466 E0.02583
G1 X220.296 Y39.186 E0.02583
G1 X220.623 Y39.944 E0.02589
G1 X220.796 Y40.461 E0.01711
G1 X220.991 Y41.264 E0.02589
G1 X221.103 Y42.080 E0.02583
G1 X221.131 Y42.904 E0.02583
G1 X221.075 Y43.726 E0.02583
G1 X220.935 Y44.538 E0.02583
G1 X220.714 Y45.332 E0.02586
G1 X220.479 Y45.946 E0.02061
G1 X220.171 Y46.591 E0.02241
G1 X219.744 Y47.296 E0.02585
G1 X219.249 Y47.955 E0.02583
G1 X218.689 Y48.559 E0.02583
G1 X218.070 Y49.103 E0.02583
G1 X217.400 Y49.582 E0.02583
G1 X216.684 Y49.990 E0.02583
G1 X215.929 Y50.323 E0.02589
G1 X215.413 Y50.501 E0.01711
G1 X214.612 Y50.702 E0.02589
G1 X213.796 Y50.821 E0.02583
G1 X212.973 Y50.856 E0.02583
G1 X212.151 Y50.807 E0.02583
G1 X211.338 Y50.674 E0.02583
G1 X210.542 Y50.460 E0.02583
G1 X209.773 Y50.166 E0.02583
G1 X209.037 Y49.795 E0.02583
G1 X208.343 Y49.351 E0.02583
G1 X207.696 Y48.838 E0.02589
G1 X207.299 Y48.464 E0.01711
G1 X206.748 Y47.848 E0.02589
G1 X206.264 Y47.182 E0.02583
G1 X205.849 Y46.469 E0.02586
G1 X205.573 Y45.872 E0.02061
G1 X205.327 Y45.201 E0.02241
G1 X205.120 Y44.403 E0.02585
G1 X204.994 Y43.589 E0.02583
G1 X204.952 Y42.766 E0.02583
G1 X204.994 Y41.943 E0.02583
M73 Q3 S11
G1 X205.098 Y41.267 E0.02147
G1 X205.486 Y41.079 F10800.000
; stop printing object 15x13_bearing_adapter.stl id:0 copy 0
M106 S84.15
;LAYER_CHANGE
;Z:0.4
;HEIGHT:0.2
;BEFORE_LAYER_CHANGE
G92 E0.0
;0.4


;WIPE_START
G1 F8640.000
G1 X205.327 Y40.331 E-0.22245
G1 X205.552 Y39.713 E-0.15176
G1 X205.849 Y39.064 E-0.16500
G1 X206.264 Y38.351 E-0.19037
G1 X206.341 Y38.244 E-0.03042
;WIPE_END
G1 E-0.04000 F2100.000
G1 Z0.600 F10800.000
;AFTER_LAYER_CHANGE
;0.4
M104 S200 ; set temperature
M140 S64 ; set bed temperature
; printing object 15x13_bearing_adapter.stl id:0 copy 0
G1 X207.397 Y39.024
M73 P3 R11
G1 Z0.400
G1 E0.80000 F2100.000
M204 S800
;WIDTH:0.45
G1 F900
G1 X207.832 Y38.435 E0.02477
G1 X208.184 Y38.044 E0.01782
G1 X208.758 Y37.517 E0.02636
G1 X209.177 Y37.202 E0.01776
G1 X209.632 Y36.912 E0.01826
G1 X210.312 Y36.565 E0.02585
G1 X210.817 Y36.367 E0.01833
G1 X211.553 Y36.157 E0.02591
G1 X212.323 Y36.029 E0.02644
G1 X212.864 Y35.994 E0.01834
G1 X213.629 Y36.016 E0.02591
G1 X214.404 Y36.129 E0.02650
G1 X215.158 Y36.330 E0.02643
G1 X215.650 Y36.513 E0.01776
G1 X216.139 Y36.741 E0.01826
G1 X216.798 Y37.127 E0.02585
G1 X217.236 Y37.446 E0.01833
G1 X217.808 Y37.951 E0.02585
G1 X218.178 Y38.347 E0.01833
G1 X218.644 Y38.955 E0.02591
G1 X219.045 Y39.625 E0.02643
G1 X219.270 Y40.098 E0.01775
G1 X219.457 Y40.588 E0.01775
G1 X219.665 Y41.338 E0.02636
G1 X219.756 Y41.857 E0.01782
G1 X219.816 Y42.634 E0.02636
G1 X219.806 Y43.160 E0.01782
G1 X219.716 Y43.936 E0.02643
G1 X219.536 Y44.698 E0.02651
G1 X219.271 Y45.432 E0.02643
G1 X219.045 Y45.908 E0.01782
G1 X218.644 Y46.578 E0.02643
G1 X218.168 Y47.197 E0.02643
G1 X217.808 Y47.582 E0.01782
G1 X217.224 Y48.097 E0.02636
G1 X216.799 Y48.404 E0.01775
G1 X216.352 Y48.678 E0.01775
G1 X215.650 Y49.020 E0.02643
G1 X214.913 Y49.278 E0.02643
G1 X214.404 Y49.403 E0.01775
G1 X213.886 Y49.489 E0.01775
G1 X213.109 Y49.541 E0.02637
G1 X212.568 Y49.525 E0.01834
G1 X211.810 Y49.429 E0.02584
G1 X211.297 Y49.313 E0.01782
G1 X210.555 Y49.069 E0.02643
G1 X209.846 Y48.741 E0.02643
G1 X209.392 Y48.474 E0.01782
G1 X208.761 Y48.018 E0.02636
G1 X208.366 Y47.670 E0.01782
G1 X207.835 Y47.101 E0.02636
G1 X207.514 Y46.683 E0.01782
G1 X207.101 Y46.023 E0.02637
G1 X206.860 Y45.538 E0.01834
G1 X206.586 Y44.823 E0.02591
G1 X206.392 Y44.064 E0.02650
G1 X206.287 Y43.290 E0.02643
G1 X206.267 Y42.766 E0.01775
G1 X206.287 Y42.242 E0.01775
G1 X206.392 Y41.470 E0.02637
G1 X206.517 Y40.943 E0.01834
G1 X206.764 Y40.219 E0.02591
G1 X207.099 Y39.513 E0.02643
G1 X207.363 Y39.073 E0.01738
M204 S1000
G1 X207.219 Y38.666 F10800.000
G1 X206.979 Y38.840
M204 S800
G1 F900
G1 X207.470 Y38.167 E0.02821
G1 X208.003 Y37.589 E0.02663
G1 X208.598 Y37.070 E0.02670
G1 X209.022 Y36.763 E0.01772
G1 X209.698 Y36.362 E0.02661
G1 X210.416 Y36.036 E0.02670
G1 X210.910 Y35.863 E0.01772
G1 X211.673 Y35.673 E0.02661
G1 X212.454 Y35.565 E0.02670
G1 X212.977 Y35.542 E0.01772
G1 X213.762 Y35.578 E0.02661
G1 X214.540 Y35.699 E0.02663
G1 X215.301 Y35.904 E0.02670
G1 X215.790 Y36.084 E0.01762
G1 X216.502 Y36.424 E0.02670
G1 X217.173 Y36.839 E0.02670
G1 X217.589 Y37.152 E0.01762
G1 X218.174 Y37.681 E0.02670
G1 X218.696 Y38.269 E0.02663
G1 X219.152 Y38.911 E0.02663
G1 X219.536 Y39.600 E0.02670
G1 X219.747 Y40.076 E0.01762
G1 X220.000 Y40.823 E0.02670
G1 X220.171 Y41.593 E0.02670
G1 X220.237 Y42.109 E0.01762
G1 X220.265 Y42.897 E0.02670
G1 X220.208 Y43.682 E0.02663
G1 X220.066 Y44.458 E0.02670
G1 X219.926 Y44.959 E0.01762
G1 X219.646 Y45.697 E0.02670
G1 X219.287 Y46.399 E0.02670
G1 X219.008 Y46.841 E0.01769
G1 X218.698 Y47.262 E0.01769
G1 X218.174 Y47.852 E0.02670
G1 X217.589 Y48.381 E0.02670
G1 X217.170 Y48.695 E0.01772
G1 X216.502 Y49.109 E0.02661
G1 X215.792 Y49.447 E0.02663
G1 X215.047 Y49.707 E0.02670
G1 X214.539 Y49.834 E0.01772
G1 X213.762 Y49.955 E0.02661
G1 X212.974 Y49.991 E0.02670
G1 X212.454 Y49.967 E0.01762
G1 X211.673 Y49.860 E0.02670
G1 X210.909 Y49.669 E0.02663
G1 X210.172 Y49.396 E0.02663
G1 X209.466 Y49.044 E0.02670
G1 X209.023 Y48.770 E0.01762
G1 X208.391 Y48.295 E0.02677
G1 X208.003 Y47.944 E0.01772
G1 X207.470 Y47.365 E0.02661
G1 X207.002 Y46.731 E0.02670
G1 X206.731 Y46.283 E0.01772
G1 X206.385 Y45.575 E0.02668
G1 X206.200 Y45.088 E0.01762
G1 X205.988 Y44.328 E0.02670
G1 X205.860 Y43.552 E0.02663
G1 X205.817 Y42.766 E0.02663
G1 X205.860 Y41.981 E0.02663
G1 X205.988 Y41.204 E0.02663
G1 X206.200 Y40.445 E0.02670
G1 X206.385 Y39.958 E0.01762
G1 X206.732 Y39.247 E0.02677
G1 X206.948 Y38.892 E0.01408
M204 S1000
G1 X207.378 Y38.864 F10800.000
; stop printing object 15x13_bearing_adapter.stl id:0 copy 0
M106 S170.85
;LAYER_CHANGE
;Z:0.6
;HEIGHT:0.2
;BEFORE_LAYER_CHANGE
G92 E0.0
;0.6


;WIPE_START
G1 F8640.000
G1 X207.470 Y38.167 E-0.20623
G1 X208.003 Y37.589 E-0.18168
G1 X208.598 Y37.070 E-0.18214
G1 X209.022 Y36.763 E-0.12086
G1 X209.279 Y36.611 E-0.06910
;WIPE_END
G1 E-0.04000 F2100.000
G1 Z0.800 F10800.000
;AFTER_LAYER_CHANGE
;0.6
; printing object 15x13_bearing_adapter.stl id:0 copy 0
G1 X209.843 Y36.794
G1 Z0.600
G1 E0.80000 F2100.000
M204 S800
G1 F900
G1 X210.314 Y36.564 E0.01776
M73 Q4 S11
G1 X210.826 Y36.364 E0.01861
G1 X211.553 Y36.157 E0.02557
G1 X212.323 Y36.029 E0.02644
G1 X212.874 Y35.994 E0.01868
G1 X213.629 Y36.016 E0.02557
G1 X214.404 Y36.129 E0.02650
M73 P4 R11
G1 X215.158 Y36.330 E0.02643
G1 X215.650 Y36.513 E0.01776
G1 X216.148 Y36.746 E0.01861
G1 X216.798 Y37.127 E0.02551
G1 X217.244 Y37.452 E0.01868
G1 X217.808 Y37.951 E0.02551
G1 X218.184 Y38.355 E0.01868
G1 X218.644 Y38.955 E0.02557
G1 X219.045 Y39.625 E0.02643
G1 X219.270 Y40.098 E0.01775
G1 X219.457 Y40.588 E0.01775
G1 X219.665 Y41.338 E0.02636
G1 X219.756 Y41.857 E0.01782
G1 X219.816 Y42.634 E0.02636
G1 X219.806 Y43.160 E0.01782
G1 X219.716 Y43.936 E0.02643
G1 X219.536 Y44.698 E0.02651
G1 X219.271 Y45.432 E0.02643
G1 X219.045 Y45.908 E0.01782
G1 X218.644 Y46.578 E0.02643
G1 X218.168 Y47.197 E0.02643
G1 X217.808 Y47.582 E0.01782
G1 X217.224 Y48.097 E0.02636
G1 X216.799 Y48.404 E0.01775
G1 X216.352 Y48.678 E0.01775
G1 X215.650 Y49.020 E0.02643
G1 X214.913 Y49.278 E0.02643
G1 X214.404 Y49.403 E0.01775
G1 X213.886 Y49.489 E0.01775
G1 X213.109 Y49.541 E0.02636
G1 X212.583 Y49.526 E0.01782
G1 X211.810 Y49.429 E0.02637
G1 X211.272 Y49.306 E0.01868
G1 X210.555 Y49.069 E0.02557
G1 X209.846 Y48.741 E0.02643
G1 X209.392 Y48.474 E0.01782
G1 X208.761 Y48.018 E0.02636
G1 X208.368 Y47.671 E0.01776
G1 X207.986 Y47.276 E0.01861
G1 X207.515 Y46.685 E0.02557
G1 X207.101 Y46.023 E0.02644
G1 X206.856 Y45.528 E0.01868
G1 X206.586 Y44.823 E0.02557
G1 X206.392 Y44.064 E0.02650
G1 X206.287 Y43.290 E0.02643
