; generated by PrusaSlicer 2.3.1+win64 on 2023-05-08 at 17:21:24 UTC

; 

; external perimeters extrusion width = 0.45mm
; perimeters extrusion width = 0.45mm
; infill extrusion width = 0.45mm
; solid infill extrusion width = 0.45mm
; top infill extrusion width = 0.40mm
; first layer extrusion width = 0.42mm

M73 P0 R56
M73 Q0 S57
M201 X1000 Y1000 Z200 E5000 ; sets maximum accelerations, mm/sec^2
M203 X200 Y200 Z12 E120 ; sets maximum feedrates, mm/sec
M204 P1250 R1250 T1250 ; sets acceleration (P, T) and retract acceleration (R), mm/sec^2
M205 X8.00 Y8.00 Z0.40 E4.50 ; sets the jerk limits, mm/sec
M205 S0 T0 ; sets the minimum extruding and travel feed rate, mm/sec
M107
;TYPE:Custom
M862.3 P "MK3S" ; printer model check
M862.1 P0.4 ; nozzle diameter check
M115 U3.9.3 ; tell printer latest fw version
G90 ; use absolute coordinates
M83 ; extruder relative mode
M104 S205 ; set extruder temp
M140 S67 ; set bed temp
M190 S67 ; wait for bed temp
M109 S205 ; wait for extruder temp
G28 W ; home all without mesh bed level
G80 ; mesh bed leveling
G1 Y-3.0 F1000.0 ; go outside print area
G92 E0.0
G1 X60.0 E9.0 F1000.0 ; intro line
M73 Q0 S56
G1 X100.0 E12.5 F1000.0 ; intro line
G92 E0.0
M221 S95

; Don't change E values below. Excessive value can damage the printer.
M907 E430 ; set extruder motor current
G21 ; set units to millimeters
G90 ; use absolute coordinates
M83 ; use relative distances for extrusion
M900 K0.05 ; Filament gcode LA 1.5
M900 K30 ; Filament gcode LA 1.0
;LAYER_CHANGE
;Z:0.2
;HEIGHT:0.2
;BEFORE_LAYER_CHANGE
G92 E0.0
;0.2


G1 E-0.80000 F2100.000
G1 Z0.400 F10800.000
;AFTER_LAYER_CHANGE
;0.2
; printing object bobbin.stl id:0 copy 0
G1 X63.055 Y20.898
G1 Z0.200
G1 E0.80000 F2100.000
M204 S1000
;TYPE:Perimeter
;WIDTH:0.42
G1 F1200.000
G1 X69.646 Y20.898 E0.20665
G1 X69.646 Y23.317 E0.07585
G1 X69.951 Y23.879 E0.02005
G1 X70.179 Y24.621 E0.02434
G1 X70.257 Y25.393 E0.02434
G1 X70.179 Y26.165 E0.02434
G1 X69.951 Y26.907 E0.02434
G1 X69.646 Y27.469 E0.02005
G1 X69.646 Y29.888 E0.07585
G1 X63.055 Y29.888 E0.20665
G1 X63.055 Y28.384 E0.04717
G1 X62.906 Y28.403 E0.00472
G1 X62.036 Y28.301 E0.02747
G1 X61.304 Y27.972 E0.02514
G1 X60.805 Y27.601 E0.01950
G1 X60.248 Y26.925 E0.02748
G1 X59.948 Y26.181 E0.02515
G1 X59.845 Y25.568 E0.01948
G1 X59.912 Y24.694 E0.02749
G1 X60.217 Y23.937 E0.02558
G1 X60.549 Y23.465 E0.01809
G1 X60.929 Y23.080 E0.01696
G1 X61.602 Y22.643 E0.02515
G1 X62.446 Y22.410 E0.02747
G1 X63.055 Y22.394 E0.01910
G1 X63.055 Y20.958 E0.04503
G1 X63.432 Y21.275 F10800.000
G1 F1200.000
G1 X69.269 Y21.275 E0.18300
G1 X69.269 Y23.422 E0.06734
G1 X69.602 Y24.026 E0.02161
G1 X69.808 Y24.696 E0.02197
G1 X69.878 Y25.393 E0.02198
G1 X69.808 Y26.090 E0.02198
G1 X69.602 Y26.760 E0.02197
G1 X69.269 Y27.363 E0.02161
G1 X69.269 Y29.511 E0.06734
G1 X63.432 Y29.511 E0.18300
G1 X63.432 Y27.956 E0.04877
G1 X62.904 Y28.023 E0.01670
G1 X62.137 Y27.933 E0.02421
G1 X61.496 Y27.645 E0.02204
G1 X61.067 Y27.326 E0.01676
G1 X60.576 Y26.730 E0.02421
G1 X60.313 Y26.078 E0.02204
G1 X60.225 Y25.551 E0.01675
G1 X60.284 Y24.781 E0.02422
G1 X60.551 Y24.118 E0.02239
G1 X60.839 Y23.707 E0.01575
G1 X61.168 Y23.374 E0.01468
G1 X61.758 Y22.991 E0.02204
G1 X62.502 Y22.786 E0.02421
G1 X63.037 Y22.771 E0.01678
G1 X63.432 Y22.848 E0.01262
G1 X63.432 Y21.335 E0.04744
G1 X63.809 Y21.652 F10800.000
G1 F1200.000
G1 X68.892 Y21.652 E0.15936
G1 X68.892 Y23.549 E0.05948
G1 X68.970 Y23.652 E0.00407
G1 X69.253 Y24.173 E0.01856
G1 X69.437 Y24.770 E0.01961
G1 X69.499 Y25.393 E0.01961
G1 X69.437 Y26.015 E0.01961
G1 X69.253 Y26.613 E0.01961
G1 X68.970 Y27.134 E0.01856
G1 X68.892 Y27.237 E0.00407
G1 X68.892 Y29.134 E0.05948
G1 X63.809 Y29.134 E0.15936
G1 X63.809 Y27.421 E0.05372
G1 X63.346 Y27.587 E0.01542
G1 X62.902 Y27.643 E0.01404
G1 X62.239 Y27.565 E0.02094
G1 X61.688 Y27.318 E0.01893
G1 X61.329 Y27.051 E0.01403
G1 X60.904 Y26.535 E0.02095
G1 X60.678 Y25.975 E0.01894
G1 X60.604 Y25.534 E0.01402
G1 X60.656 Y24.868 E0.02096
G1 X60.884 Y24.299 E0.01921
G1 X61.130 Y23.950 E0.01340
G1 X61.408 Y23.668 E0.01241
G1 X61.914 Y23.339 E0.01893
G1 X62.558 Y23.161 E0.02094
G1 X63.006 Y23.149 E0.01404
G1 X63.599 Y23.264 E0.01892
G1 X63.809 Y23.378 E0.00751
G1 X63.809 Y21.712 E0.05224
G1 X64.186 Y22.029 F10800.000
G1 F1200.000
G1 X68.515 Y22.029 E0.13571
G1 X68.515 Y23.675 E0.05162
G1 X68.652 Y23.857 E0.00715
G1 X68.903 Y24.320 E0.01650
G1 X69.065 Y24.845 E0.01725
G1 X69.120 Y25.393 E0.01725
G1 X69.065 Y25.941 E0.01725
G1 X68.903 Y26.466 E0.01725
G1 X68.652 Y26.929 E0.01650
G1 X68.515 Y27.111 E0.00715
G1 X68.515 Y28.757 E0.05162
G1 X64.186 Y28.757 E0.13571
G1 X64.186 Y27.111 E0.05162
G1 X64.003 Y26.843 E0.01017
G1 X63.733 Y27.048 E0.01061
G1 X63.258 Y27.218 E0.01582
G1 X62.900 Y27.263 E0.01131
G1 X62.340 Y27.197 E0.01768
G1 X61.880 Y26.991 E0.01582
G1 X61.591 Y26.776 E0.01130
G1 X61.232 Y26.340 E0.01768
G1 X61.043 Y25.872 E0.01583
G1 X60.984 Y25.517 E0.01129
G1 X61.027 Y24.954 E0.01769
G1 X61.218 Y24.480 E0.01602
G1 X61.421 Y24.192 E0.01105
G1 X61.647 Y23.962 E0.01013
G1 X62.071 Y23.687 E0.01582
G1 X62.614 Y23.537 E0.01768
G1 X62.975 Y23.527 E0.01131
G1 X63.470 Y23.623 E0.01582
G1 X64.012 Y23.925 E0.01945
G1 X64.186 Y23.675 E0.00955
G1 X64.186 Y22.089 E0.04974
G1 X64.563 Y22.406 F10800.000
G1 F1200.000
G1 X68.138 Y22.406 E0.11207
G1 X68.138 Y23.814 E0.04414
G1 X68.334 Y24.062 E0.00993
G1 X68.554 Y24.466 E0.01443
G1 X68.694 Y24.920 E0.01489
G1 X68.741 Y25.393 E0.01489
G1 X68.694 Y25.866 E0.01489
G1 X68.554 Y26.320 E0.01489
G1 X68.334 Y26.724 E0.01443
G1 X68.138 Y26.972 E0.00993
G1 X68.138 Y28.380 E0.04414
G1 X64.563 Y28.380 E0.11207
G1 X64.563 Y26.972 E0.04414
G1 X64.367 Y26.724 E0.00993
G1 X64.147 Y26.320 E0.01443
G1 X64.106 Y26.187 E0.00435
G1 X63.917 Y26.435 E0.00977
G1 X63.551 Y26.712 E0.01440
G1 X63.170 Y26.849 E0.01271
G1 X62.898 Y26.883 E0.00857
G1 X62.442 Y26.830 E0.01442
G1 X62.072 Y26.664 E0.01271
G1 X61.852 Y26.501 E0.00857
G1 X61.560 Y26.146 E0.01442
G1 X61.409 Y25.769 E0.01272
G1 X61.363 Y25.500 E0.00856
G1 X61.399 Y25.041 E0.01442
G1 X61.552 Y24.662 E0.01284
G1 X61.711 Y24.434 E0.00871
G1 X61.887 Y24.256 E0.00786
G1 X62.227 Y24.035 E0.01271
G1 X62.670 Y23.913 E0.01442
G1 X62.944 Y23.906 E0.00857
G1 X63.342 Y23.982 E0.01271
G1 X63.763 Y24.210 E0.01502
G1 X64.046 Y24.503 E0.01278
G1 X64.106 Y24.601 E0.00359
G1 X64.147 Y24.466 E0.00443
G1 X64.367 Y24.062 E0.01443
G1 X64.563 Y23.814 E0.00993
G1 X64.563 Y22.466 E0.04226
G1 X64.941 Y22.783 F10800.000
;TYPE:External perimeter
G1 F1200.000
G1 X67.761 Y22.783 E0.08842
G1 X67.761 Y23.968 E0.03716
G1 X67.891 Y24.100 E0.00582
G1 X68.016 Y24.267 E0.00654
G1 X68.205 Y24.613 E0.01237
G1 X68.322 Y24.995 E0.01253
G1 X68.362 Y25.393 E0.01253
G1 X68.322 Y25.791 E0.01253
G1 X68.205 Y26.173 E0.01253
G1 X68.016 Y26.519 E0.01237
G1 X67.891 Y26.686 E0.00654
G1 X67.761 Y26.818 E0.00582
G1 X67.761 Y28.003 E0.03716
G1 X64.941 Y28.003 E0.08842
G1 X64.941 Y26.818 E0.03716
G1 X64.810 Y26.686 E0.00582
G1 X64.685 Y26.519 E0.00654
G1 X64.497 Y26.173 E0.01237
G1 X64.379 Y25.791 E0.01253
G1 X64.339 Y25.393 E0.01253
G1 X64.379 Y24.995 E0.01253
G1 X64.497 Y24.613 E0.01253
G1 X64.685 Y24.267 E0.01237
G1 X64.810 Y24.100 E0.00654
G1 X64.941 Y23.968 E0.00582
G1 X64.941 Y22.843 E0.03527
G1 X64.954 Y22.383 F10800.000
;WIPE_START
G1 F8640.000
G1 X67.761 Y22.783 E-0.65129
G1 X67.761 Y23.254 E-0.10871
;WIPE_END
G1 E-0.04000 F2100.000
G1 Z0.600 F10800.000
G1 X63.849 Y24.906
G1 Z0.200
G1 E0.80000 F2100.000
G1 F1200.000
G1 X63.914 Y25.070 E0.00553
G1 X63.960 Y25.360 E0.00921
G1 X63.949 Y25.559 E0.00626
G1 X63.901 Y25.755 E0.00632
G1 X63.769 Y26.018 E0.00922
G1 X63.653 Y26.162 E0.00580
G1 X63.370 Y26.377 E0.01115
G1 X63.081 Y26.480 E0.00961
G1 X62.896 Y26.503 E0.00584
G1 X62.543 Y26.462 E0.01115
G1 X62.264 Y26.336 E0.00961
G1 X62.114 Y26.225 E0.00584
G1 X61.888 Y25.951 E0.01115
G1 X61.774 Y25.667 E0.00961
G1 X61.743 Y25.483 E0.00584
G1 X61.770 Y25.128 E0.01115
G1 X61.885 Y24.843 E0.00965
G1 X62.002 Y24.677 E0.00636
G1 X62.127 Y24.550 E0.00558
G1 X62.384 Y24.383 E0.00961
G1 X62.727 Y24.289 E0.01115
G1 X62.913 Y24.284 E0.00584
G1 X63.214 Y24.342 E0.00961
G1 X63.533 Y24.514 E0.01137
G1 X63.746 Y24.735 E0.00962
G1 X63.818 Y24.854 E0.00438
G1 X64.025 Y24.914 F10800.000
;WIPE_START
G1 F8640.000
G1 X63.914 Y25.070 E-0.05446
G1 X63.960 Y25.360 E-0.06784
G1 X63.949 Y25.559 E-0.04613
G1 X63.901 Y25.755 E-0.04656
G1 X63.769 Y26.018 E-0.06791
G1 X63.653 Y26.162 E-0.04269
G1 X63.370 Y26.377 E-0.08209
G1 X63.081 Y26.480 E-0.07075
G1 X62.896 Y26.503 E-0.04300
G1 X62.543 Y26.462 E-0.08213
G1 X62.264 Y26.336 E-0.07075
G1 X62.114 Y26.225 E-0.04299
G1 X61.997 Y26.083 E-0.04270
;WIPE_END
G1 E-0.04000 F2100.000
G1 Z0.600 F10800.000
G1 X58.120 Y17.081
G1 Z0.200
G1 E0.80000 F2100.000
;TYPE:Perimeter
G1 F1200.000
G1 X58.596 Y17.394 E0.01783
G1 X59.385 Y17.683 E0.02636
G1 X60.307 Y17.723 E0.02892
G1 X61.198 Y17.484 E0.02892
G1 X61.975 Y16.987 E0.02893
G1 X62.566 Y16.279 E0.02893
G1 X62.916 Y15.425 E0.02892
G1 X62.985 Y14.587 E0.02636
G1 X62.928 Y14.207 E0.01205
G1 X63.445 Y14.056 E0.01689
G1 X64.225 Y13.884 E0.02503
G1 X65.014 Y13.766 E0.02503
G1 X65.826 Y13.701 E0.02552
G1 X66.222 Y13.690 E0.01242
G1 X67.025 Y13.708 E0.02518
G1 X67.406 Y13.736 E0.01198
G1 X67.785 Y13.777 E0.01196
G1 X68.608 Y13.909 E0.02615
G1 X68.964 Y13.985 E0.01140
G1 X69.770 Y14.200 E0.02615
G1 X70.116 Y14.311 E0.01140
G1 X70.896 Y14.608 E0.02615
G1 X71.228 Y14.754 E0.01140
G1 X71.958 Y15.120 E0.02559
G1 X72.660 Y15.536 E0.02559
G1 X72.962 Y15.735 E0.01134
G1 X73.644 Y16.241 E0.02662
G1 X74.242 Y16.749 E0.02461
G1 X74.520 Y17.011 E0.01198
G1 X74.788 Y17.282 E0.01196
G1 X75.333 Y17.890 E0.02559
G1 X75.834 Y18.534 E0.02559
G1 X76.043 Y18.832 E0.01140
G1 X76.476 Y19.524 E0.02559
G1 X76.861 Y20.244 E0.02559
G1 X77.174 Y20.939 E0.02391
G1 X77.457 Y21.704 E0.02559
G1 X77.683 Y22.470 E0.02503
G1 X77.860 Y23.267 E0.02559
G1 X77.974 Y24.021 E0.02391
G1 X78.041 Y24.835 E0.02559
G1 X78.052 Y25.651 E0.02559
G1 X78.038 Y26.014 E0.01140
G1 X77.966 Y26.827 E0.02559
G1 X77.841 Y27.616 E0.02503
G1 X77.659 Y28.411 E0.02559
G1 X77.559 Y28.761 E0.01140
G1 X77.291 Y29.551 E0.02615
G1 X77.151 Y29.903 E0.01188
G1 X76.984 Y30.282 E0.01298
G1 X76.632 Y30.984 E0.02462
G1 X76.227 Y31.672 E0.02505
G1 X75.765 Y32.346 E0.02559
G1 X75.534 Y32.649 E0.01196
G1 X75.293 Y32.944 E0.01196
G1 X74.732 Y33.562 E0.02615
G1 X74.474 Y33.818 E0.01140
G1 X73.867 Y34.364 E0.02559
G1 X73.224 Y34.866 E0.02559
G1 X72.912 Y35.085 E0.01196
G1 X72.592 Y35.294 E0.01196
G1 X71.871 Y35.713 E0.02615
G1 X71.548 Y35.880 E0.01140
G1 X70.804 Y36.216 E0.02559
G1 X70.039 Y36.500 E0.02559
G1 X69.675 Y36.615 E0.01196
G1 X69.308 Y36.717 E0.01196
G1 X68.511 Y36.895 E0.02559
G1 X67.704 Y37.018 E0.02559
G1 X66.300 Y37.160 E0.04426
G1 X64.575 Y36.961 E0.05446
G1 X63.770 Y36.809 E0.02569
G1 X63.416 Y36.723 E0.01142
G1 X62.597 Y36.477 E0.02681
G1 X61.856 Y36.200 E0.02478
G1 X61.520 Y36.054 E0.01150
G1 X60.784 Y35.688 E0.02578
G1 X60.074 Y35.272 E0.02578
G1 X59.768 Y35.071 E0.01148
G1 X59.091 Y34.574 E0.02634
G1 X58.807 Y34.342 E0.01148
G1 X58.185 Y33.778 E0.02634
G1 X57.927 Y33.518 E0.01148
G1 X57.377 Y32.906 E0.02578
G1 X56.872 Y32.258 E0.02578
G1 X56.442 Y31.622 E0.02409
G1 X56.029 Y30.910 E0.02578
G1 X55.675 Y30.188 E0.02521
G1 X55.364 Y29.427 E0.02578
G1 X55.243 Y29.082 E0.01148
G1 X55.012 Y28.293 E0.02578
G1 X54.836 Y27.489 E0.02578
G1 X54.773 Y27.110 E0.01205
G1 X54.723 Y26.730 E0.01205
G1 X54.659 Y25.910 E0.02578
G1 X54.651 Y25.088 E0.02578
G1 X54.696 Y24.321 E0.02409
G1 X54.800 Y23.505 E0.02578
G1 X54.961 Y22.699 E0.02578
G1 X55.051 Y22.344 E0.01148
G1 X55.299 Y21.541 E0.02634
G1 X55.424 Y21.197 E0.01148
G1 X55.754 Y20.424 E0.02634
G1 X55.914 Y20.095 E0.01148
G1 X56.320 Y19.362 E0.02627
G1 X56.532 Y19.024 E0.01251
G1 X56.984 Y18.375 E0.02480
G1 X57.500 Y17.734 E0.02580
G1 X58.078 Y17.124 E0.02635
G1 X58.074 Y16.592 F10800.000
G1 F1200.000
G1 X58.119 Y16.551 E0.00191
G1 X58.319 Y16.761 E0.00909
G1 X58.766 Y17.054 E0.01677
G1 X59.460 Y17.308 E0.02317
G1 X60.265 Y17.344 E0.02527
G1 X61.044 Y17.135 E0.02527
G1 X61.723 Y16.701 E0.02527
G1 X62.239 Y16.082 E0.02527
G1 X62.545 Y15.336 E0.02527
G1 X62.605 Y14.600 E0.02317
G1 X62.527 Y14.071 E0.01677
G1 X62.479 Y13.950 E0.00408
G1 X63.351 Y13.690 E0.02855
G1 X64.156 Y13.513 E0.02584
G1 X64.971 Y13.391 E0.02584
G1 X65.805 Y13.324 E0.02624
G1 X66.221 Y13.313 E0.01303
G1 X67.043 Y13.332 E0.02577
G1 X67.835 Y13.403 E0.02494
G1 X68.678 Y13.538 E0.02676
G1 X69.052 Y13.618 E0.01200
G1 X69.877 Y13.838 E0.02676
G1 X70.241 Y13.955 E0.01200
G1 X71.039 Y14.258 E0.02676
G1 X71.389 Y14.413 E0.01200
G1 X72.139 Y14.789 E0.02630
G1 X72.861 Y15.216 E0.02630
G1 X73.179 Y15.426 E0.01196
G1 X73.879 Y15.945 E0.02733
G1 X74.493 Y16.468 E0.02530
G1 X75.063 Y17.023 E0.02494
G1 X75.622 Y17.648 E0.02630
G1 X76.138 Y18.310 E0.02630
G1 X76.357 Y18.624 E0.01200
G1 X76.802 Y19.335 E0.02630
G1 X77.198 Y20.074 E0.02630
G1 X77.524 Y20.799 E0.02492
G1 X77.816 Y21.586 E0.02630
G1 X78.048 Y22.376 E0.02584
G1 X78.230 Y23.195 E0.02630
G1 X78.349 Y23.981 E0.02492
G1 X78.417 Y24.817 E0.02630
G1 X78.429 Y25.655 E0.02630
G1 X78.414 Y26.038 E0.01200
G1 X78.340 Y26.873 E0.02630
G1 X78.211 Y27.687 E0.02584
G1 X78.024 Y28.505 E0.02630
G1 X77.920 Y28.873 E0.01200
G1 X77.645 Y29.681 E0.02676
G1 X77.499 Y30.049 E0.01240
G1 X77.325 Y30.443 E0.01349
G1 X76.963 Y31.164 E0.02532
G1 X76.545 Y31.875 E0.02586
G1 X76.071 Y32.567 E0.02630
G1 X75.830 Y32.883 E0.01246
G1 X75.578 Y33.191 E0.01246
G1 X75.005 Y33.823 E0.02676
G1 X74.733 Y34.093 E0.01200
G1 X74.109 Y34.653 E0.02630
G1 X73.448 Y35.169 E0.02630
G1 X73.123 Y35.398 E0.01246
G1 X72.790 Y35.615 E0.01246
G1 X72.052 Y36.044 E0.02676
G1 X71.712 Y36.219 E0.01200
G1 X70.948 Y36.565 E0.02630
G1 X70.162 Y36.857 E0.02630
G1 X69.783 Y36.977 E0.01246
G1 X69.400 Y37.083 E0.01246
G1 X68.581 Y37.266 E0.02630
G1 X67.752 Y37.393 E0.02630
G1 X66.297 Y37.539 E0.04584
G1 X64.518 Y37.334 E0.05616
G1 X63.690 Y37.178 E0.02641
G1 X63.317 Y37.087 E0.01204
G1 X62.476 Y36.835 E0.02752
G1 X61.715 Y36.549 E0.02549
G1 X61.361 Y36.396 E0.01211
G1 X60.604 Y36.019 E0.02649
G1 X59.875 Y35.592 E0.02649
G1 X59.553 Y35.380 E0.01209
G1 X58.860 Y34.872 E0.02695
G1 X58.561 Y34.628 E0.01209
G1 X57.924 Y34.051 E0.02695
G1 X57.652 Y33.777 E0.01209
G1 X57.088 Y33.149 E0.02649
G1 X56.568 Y32.483 E0.02649
G1 X56.120 Y31.819 E0.02510
G1 X55.697 Y31.088 E0.02649
G1 X55.331 Y30.343 E0.02603
G1 X55.011 Y29.561 E0.02649
G1 X54.884 Y29.197 E0.01209
G1 X54.647 Y28.386 E0.02649
G1 X54.465 Y27.561 E0.02649
G1 X54.400 Y27.166 E0.01255
G1 X54.348 Y26.769 E0.01255
G1 X54.282 Y25.927 E0.02649
G1 X54.273 Y25.082 E0.02649
G1 X54.321 Y24.283 E0.02510
G1 X54.428 Y23.445 E0.02649
G1 X54.593 Y22.616 E0.02649
G1 X54.687 Y22.242 E0.01209
G1 X54.941 Y21.421 E0.02695
G1 X55.074 Y21.059 E0.01209
G1 X55.410 Y20.268 E0.02695
G1 X55.580 Y19.921 E0.01209
G1 X55.995 Y19.171 E0.02689
G1 X56.217 Y18.816 E0.01312
G1 X56.683 Y18.149 E0.02550
G1 X57.213 Y17.490 E0.02651
G1 X57.469 Y17.203 E0.01209
G1 X58.032 Y16.635 E0.02507
G1 X58.113 Y16.047 F10800.000
G1 F1200.000
G1 X58.144 Y16.021 E0.00128
G1 X58.562 Y16.470 E0.01923
G1 X58.937 Y16.715 E0.01404
G1 X59.535 Y16.934 E0.01998
G1 X60.224 Y16.965 E0.02162
G1 X60.890 Y16.786 E0.02162
G1 X61.471 Y16.415 E0.02162
G1 X61.912 Y15.885 E0.02162
G1 X62.174 Y15.247 E0.02162
G1 X62.226 Y14.612 E0.01998
G1 X62.160 Y14.169 E0.01404
G1 X61.985 Y13.727 E0.01492
G1 X62.431 Y13.567 E0.01488
G1 X63.258 Y13.325 E0.02700
G1 X64.088 Y13.142 E0.02665
G1 X64.928 Y13.016 E0.02665
G1 X65.785 Y12.948 E0.02696
G1 X66.220 Y12.936 E0.01364
G1 X67.061 Y12.955 E0.02637
G1 X67.474 Y12.985 E0.01298
G1 X67.885 Y13.029 E0.01297
G1 X68.747 Y13.167 E0.02736
G1 X69.140 Y13.251 E0.01261
G1 X69.983 Y13.476 E0.02736
G1 X70.366 Y13.599 E0.01261
G1 X71.182 Y13.909 E0.02736
G1 X71.550 Y14.071 E0.01261
G1 X72.319 Y14.458 E0.02701
G1 X73.061 Y14.896 E0.02701
G1 X73.395 Y15.118 E0.01257
G1 X74.113 Y15.650 E0.02804
G1 X74.745 Y16.187 E0.02600
G1 X75.046 Y16.471 E0.01298
G1 X75.337 Y16.765 E0.01297
G1 X75.912 Y17.407 E0.02700
G1 X76.441 Y18.086 E0.02700
G1 X76.672 Y18.415 E0.01261
