; generated by PrusaSlicer 2.3.1+win64 on 2023-06-17 at 10:48:39 UTC

; 

; external perimeters extrusion width = 0.45mm
; perimeters extrusion width = 0.45mm
; infill extrusion width = 0.45mm
; solid infill extrusion width = 0.45mm
; top infill extrusion width = 0.40mm
; first layer extrusion width = 0.42mm

M73 P0 R67
M73 Q0 S67
M201 X1000 Y1000 Z200 E5000 ; sets maximum accelerations, mm/sec^2
M203 X200 Y200 Z12 E120 ; sets maximum feedrates, mm/sec
M204 P1250 R1250 T1250 ; sets acceleration (P, T) and retract acceleration (R), mm/sec^2
M205 X8.00 Y8.00 Z0.40 E4.50 ; sets the jerk limits, mm/sec
M205 S0 T0 ; sets the minimum extruding and travel feed rate, mm/sec
M107
;TYPE:Custom
M862.3 P "MK3S" ; printer model check
M862.1 P0.4 ; nozzle diameter check
M115 U3.9.3 ; tell printer latest fw version
G90 ; use absolute coordinates
M83 ; extruder relative mode
M104 S205 ; set extruder temp
M140 S67 ; set bed temp
M190 S67 ; wait for bed temp
M109 S205 ; wait for extruder temp
G28 W ; home all without mesh bed level
G80 ; mesh bed leveling
G1 Y-3.0 F1000.0 ; go outside print area
G92 E0.0
G1 X60.0 E9.0 F1000.0 ; intro line
G1 X100.0 E12.5 F1000.0 ; intro line
G92 E0.0
M221 S95

; Don't change E values below. Excessive value can damage the printer.
M907 E430 ; set extruder motor current
G21 ; set units to millimeters
G90 ; use absolute coordinates
M83 ; use relative distances for extrusion
M900 K0.05 ; Filament gcode LA 1.5
M900 K30 ; Filament gcode LA 1.0
;LAYER_CHANGE
;Z:0.2
;HEIGHT:0.2
;BEFORE_LAYER_CHANGE
G92 E0.0
;0.2


G1 E-0.80000 F2100.000
G1 Z0.400 F10800.000
;AFTER_LAYER_CHANGE
;0.2
; printing object bobbin.stl id:0 copy 0
G1 X141.577 Y105.893
G1 Z0.200
G1 E0.80000 F2100.000
M204 S1000
;TYPE:Perimeter
;WIDTH:0.42
G1 F1200.000
G1 X148.168 Y105.893 E0.20665
G1 X148.168 Y108.313 E0.07585
G1 X148.473 Y108.875 E0.02005
G1 X148.702 Y109.616 E0.02434
G1 X148.779 Y110.389 E0.02434
G1 X148.702 Y111.161 E0.02434
G1 X148.473 Y111.903 E0.02434
G1 X148.168 Y112.465 E0.02005
G1 X148.168 Y114.884 E0.07585
G1 X141.577 Y114.884 E0.20665
G1 X141.577 Y113.380 E0.04717
G1 X141.428 Y113.399 E0.00472
G1 X140.558 Y113.297 E0.02747
G1 X139.826 Y112.968 E0.02514
G1 X139.327 Y112.597 E0.01950
G1 X138.770 Y111.921 E0.02748
G1 X138.470 Y111.177 E0.02515
G1 X138.368 Y110.564 E0.01948
G1 X138.435 Y109.690 E0.02749
G1 X138.739 Y108.933 E0.02558
G1 X139.071 Y108.461 E0.01809
G1 X139.451 Y108.076 E0.01696
G1 X140.124 Y107.639 E0.02515
G1 X140.968 Y107.406 E0.02747
G1 X141.577 Y107.390 E0.01910
G1 X141.577 Y105.953 E0.04503
G1 X141.954 Y106.271 F10800.000
G1 F1200.000
G1 X147.791 Y106.271 E0.18300
G1 X147.791 Y108.418 E0.06734
G1 X148.124 Y109.022 E0.02161
G1 X148.330 Y109.691 E0.02197
G1 X148.400 Y110.389 E0.02198
G1 X148.330 Y111.086 E0.02198
G1 X148.124 Y111.756 E0.02197
G1 X147.791 Y112.359 E0.02161
G1 X147.791 Y114.507 E0.06734
G1 X141.954 Y114.507 E0.18300
G1 X141.954 Y112.952 E0.04877
G1 X141.426 Y113.019 E0.01670
G1 X140.659 Y112.929 E0.02421
G1 X140.018 Y112.641 E0.02204
G1 X139.589 Y112.322 E0.01676
G1 X139.098 Y111.726 E0.02421
G1 X138.835 Y111.074 E0.02204
G1 X138.747 Y110.547 E0.01675
G1 X138.806 Y109.777 E0.02422
G1 X139.073 Y109.114 E0.02239
G1 X139.362 Y108.703 E0.01575
G1 X139.690 Y108.370 E0.01468
G1 X140.280 Y107.987 E0.02204
G1 X141.024 Y107.782 E0.02421
G1 X141.559 Y107.767 E0.01678
G1 X141.954 Y107.844 E0.01262
G1 X141.954 Y106.331 E0.04744
G1 X142.331 Y106.648 F10800.000
G1 F1200.000
G1 X147.414 Y106.648 E0.15936
G1 X147.414 Y108.545 E0.05948
G1 X147.492 Y108.648 E0.00407
G1 X147.775 Y109.168 E0.01856
G1 X147.959 Y109.766 E0.01961
G1 X148.021 Y110.389 E0.01961
G1 X147.959 Y111.011 E0.01961
G1 X147.775 Y111.609 E0.01961
G1 X147.492 Y112.129 E0.01856
G1 X147.414 Y112.233 E0.00407
G1 X147.414 Y114.130 E0.05948
G1 X142.331 Y114.130 E0.15936
G1 X142.331 Y112.417 E0.05372
G1 X141.868 Y112.582 E0.01542
G1 X141.424 Y112.639 E0.01404
G1 X140.761 Y112.561 E0.02094
G1 X140.210 Y112.314 E0.01893
G1 X139.851 Y112.047 E0.01403
G1 X139.426 Y111.531 E0.02095
G1 X139.200 Y110.971 E0.01894
G1 X139.127 Y110.530 E0.01402
G1 X139.178 Y109.863 E0.02096
G1 X139.407 Y109.295 E0.01921
G1 X139.652 Y108.945 E0.01340
G1 X139.930 Y108.664 E0.01241
G1 X140.437 Y108.335 E0.01893
G1 X141.080 Y108.157 E0.02094
G1 X141.528 Y108.145 E0.01404
G1 X142.121 Y108.260 E0.01892
G1 X142.331 Y108.374 E0.00751
G1 X142.331 Y106.708 E0.05224
G1 X142.708 Y107.025 F10800.000
G1 F1200.000
G1 X147.037 Y107.025 E0.13571
G1 X147.037 Y108.671 E0.05162
G1 X147.174 Y108.853 E0.00715
G1 X147.425 Y109.315 E0.01650
G1 X147.587 Y109.841 E0.01725
G1 X147.642 Y110.389 E0.01725
G1 X147.587 Y110.936 E0.01725
G1 X147.425 Y111.462 E0.01725
G1 X147.174 Y111.925 E0.01650
G1 X147.037 Y112.107 E0.00715
G1 X147.037 Y113.753 E0.05162
G1 X142.708 Y113.753 E0.13571
G1 X142.708 Y112.107 E0.05162
G1 X142.525 Y111.839 E0.01017
G1 X142.255 Y112.043 E0.01061
G1 X141.780 Y112.214 E0.01582
G1 X141.422 Y112.259 E0.01131
G1 X140.862 Y112.193 E0.01768
G1 X140.402 Y111.987 E0.01582
G1 X140.113 Y111.772 E0.01130
G1 X139.754 Y111.336 E0.01768
G1 X139.566 Y110.868 E0.01583
G1 X139.506 Y110.513 E0.01129
G1 X139.549 Y109.950 E0.01769
G1 X139.740 Y109.476 E0.01602
G1 X139.943 Y109.188 E0.01105
G1 X140.170 Y108.958 E0.01013
G1 X140.593 Y108.683 E0.01582
G1 X141.137 Y108.533 E0.01768
G1 X141.497 Y108.523 E0.01131
G1 X141.992 Y108.619 E0.01582
G1 X142.534 Y108.921 E0.01945
G1 X142.708 Y108.671 E0.00955
G1 X142.708 Y107.085 E0.04974
G1 X143.086 Y107.402 F10800.000
G1 F1200.000
G1 X146.660 Y107.402 E0.11207
G1 X146.660 Y108.810 E0.04414
G1 X146.856 Y109.058 E0.00993
G1 X147.076 Y109.462 E0.01443
G1 X147.216 Y109.916 E0.01489
G1 X147.263 Y110.389 E0.01489
G1 X147.216 Y110.861 E0.01489
G1 X147.076 Y111.315 E0.01489
G1 X146.856 Y111.720 E0.01443
G1 X146.660 Y111.968 E0.00993
G1 X146.660 Y113.376 E0.04414
G1 X143.086 Y113.376 E0.11207
G1 X143.086 Y111.968 E0.04414
G1 X142.889 Y111.720 E0.00993
G1 X142.669 Y111.315 E0.01443
G1 X142.629 Y111.183 E0.00435
G1 X142.440 Y111.431 E0.00977
G1 X142.073 Y111.708 E0.01440
G1 X141.692 Y111.845 E0.01271
G1 X141.420 Y111.879 E0.00857
G1 X140.964 Y111.826 E0.01442
G1 X140.594 Y111.660 E0.01271
G1 X140.375 Y111.496 E0.00857
G1 X140.082 Y111.141 E0.01442
G1 X139.931 Y110.765 E0.01272
G1 X139.886 Y110.496 E0.00856
G1 X139.921 Y110.037 E0.01442
G1 X140.074 Y109.657 E0.01284
G1 X140.233 Y109.430 E0.00871
G1 X140.409 Y109.252 E0.00786
G1 X140.749 Y109.031 E0.01271
G1 X141.193 Y108.909 E0.01442
G1 X141.466 Y108.901 E0.00857
G1 X141.864 Y108.978 E0.01271
G1 X142.285 Y109.206 E0.01502
G1 X142.568 Y109.499 E0.01278
G1 X142.628 Y109.597 E0.00359
G1 X142.669 Y109.462 E0.00443
G1 X142.889 Y109.058 E0.01443
G1 X143.086 Y108.810 E0.00993
G1 X143.086 Y107.462 E0.04226
G1 X143.463 Y107.779 F10800.000
;TYPE:External perimeter
G1 F1200.000
G1 X146.283 Y107.779 E0.08842
G1 X146.283 Y108.964 E0.03716
G1 X146.413 Y109.096 E0.00582
G1 X146.538 Y109.263 E0.00654
G1 X146.727 Y109.609 E0.01237
G1 X146.844 Y109.991 E0.01253
G1 X146.884 Y110.389 E0.01253
G1 X146.844 Y110.787 E0.01253
G1 X146.727 Y111.168 E0.01253
G1 X146.538 Y111.515 E0.01237
G1 X146.413 Y111.681 E0.00654
G1 X146.283 Y111.814 E0.00582
G1 X146.283 Y112.999 E0.03716
G1 X143.463 Y112.999 E0.08842
G1 X143.463 Y111.814 E0.03716
G1 X143.333 Y111.681 E0.00582
G1 X143.207 Y111.515 E0.00654
G1 X143.019 Y111.168 E0.01237
G1 X142.901 Y110.787 E0.01253
G1 X142.861 Y110.389 E0.01253
G1 X142.901 Y109.991 E0.01253
G1 X143.019 Y109.609 E0.01253
G1 X143.207 Y109.263 E0.01237
G1 X143.333 Y109.096 E0.00654
G1 X143.463 Y108.964 E0.00582
G1 X143.463 Y107.839 E0.03527
G1 X143.476 Y107.379 F10800.000
;WIPE_START
G1 F8640.000
G1 X146.283 Y107.779 E-0.65129
G1 X146.283 Y108.250 E-0.10871
;WIPE_END
G1 E-0.04000 F2100.000
G1 Z0.600 F10800.000
G1 X142.371 Y109.902
G1 Z0.200
G1 E0.80000 F2100.000
G1 F1200.000
G1 X142.436 Y110.066 E0.00553
G1 X142.483 Y110.356 E0.00921
G1 X142.472 Y110.555 E0.00626
G1 X142.423 Y110.751 E0.00632
G1 X142.291 Y111.014 E0.00922
G1 X142.175 Y111.158 E0.00580
G1 X141.892 Y111.372 E0.01115
G1 X141.603 Y111.476 E0.00961
G1 X141.419 Y111.499 E0.00584
G1 X141.065 Y111.458 E0.01115
G1 X140.786 Y111.332 E0.00961
G1 X140.636 Y111.221 E0.00584
G1 X140.410 Y110.947 E0.01115
G1 X140.296 Y110.662 E0.00961
G1 X140.265 Y110.479 E0.00584
G1 X140.292 Y110.124 E0.01115
G1 X140.407 Y109.839 E0.00965
G1 X140.524 Y109.673 E0.00636
G1 X140.649 Y109.546 E0.00558
G1 X140.906 Y109.379 E0.00961
G1 X141.249 Y109.284 E0.01115
G1 X141.435 Y109.279 E0.00584
G1 X141.736 Y109.337 E0.00961
G1 X142.055 Y109.510 E0.01137
G1 X142.268 Y109.731 E0.00962
G1 X142.340 Y109.850 E0.00438
G1 X142.547 Y109.910 F10800.000
;WIPE_START
G1 F8640.000
G1 X142.436 Y110.066 E-0.05446
G1 X142.483 Y110.356 E-0.06784
G1 X142.472 Y110.555 E-0.04613
G1 X142.423 Y110.751 E-0.04656
G1 X142.291 Y111.014 E-0.06791
G1 X142.175 Y111.158 E-0.04269
G1 X141.892 Y111.372 E-0.08209
G1 X141.603 Y111.476 E-0.07075
G1 X141.419 Y111.499 E-0.04300
G1 X141.065 Y111.458 E-0.08213
G1 X140.786 Y111.332 E-0.07075
G1 X140.636 Y111.221 E-0.04299
G1 X140.519 Y111.079 E-0.04270
;WIPE_END
G1 E-0.04000 F2100.000
G1 Z0.600 F10800.000
G1 X136.642 Y102.077
G1 Z0.200
G1 E0.80000 F2100.000
;TYPE:Perimeter
G1 F1200.000
G1 X137.118 Y102.389 E0.01783
G1 X137.907 Y102.678 E0.02636
G1 X138.829 Y102.719 E0.02892
G1 X139.720 Y102.480 E0.02892
G1 X140.497 Y101.983 E0.02893
G1 X141.088 Y101.275 E0.02893
G1 X141.438 Y100.421 E0.02892
G1 X141.507 Y99.583 E0.02636
G1 X141.450 Y99.203 E0.01205
G1 X141.967 Y99.052 E0.01689
G1 X142.747 Y98.880 E0.02503
G1 X143.536 Y98.762 E0.02503
G1 X144.348 Y98.697 E0.02552
G1 X144.744 Y98.686 E0.01242
G1 X145.547 Y98.704 E0.02518
G1 X145.928 Y98.732 E0.01198
G1 X146.307 Y98.773 E0.01196
G1 X147.131 Y98.905 E0.02615
G1 X147.486 Y98.980 E0.01140
G1 X148.292 Y99.195 E0.02615
G1 X148.638 Y99.307 E0.01140
G1 X149.418 Y99.603 E0.02615
G1 X149.750 Y99.750 E0.01140
G1 X150.480 Y100.116 E0.02559
G1 X151.183 Y100.531 E0.02559
G1 X151.484 Y100.731 E0.01134
G1 X152.166 Y101.237 E0.02662
G1 X152.764 Y101.745 E0.02461
G1 X153.042 Y102.007 E0.01198
G1 X153.310 Y102.278 E0.01196
G1 X153.855 Y102.886 E0.02559
G1 X154.356 Y103.530 E0.02559
G1 X154.565 Y103.828 E0.01140
G1 X154.998 Y104.520 E0.02559
G1 X155.383 Y105.239 E0.02559
G1 X155.696 Y105.935 E0.02391
G1 X155.980 Y106.700 E0.02559
G1 X156.205 Y107.466 E0.02503
G1 X156.382 Y108.263 E0.02559
G1 X156.496 Y109.017 E0.02391
G1 X156.563 Y109.831 E0.02559
G1 X156.574 Y110.647 E0.02559
G1 X156.560 Y111.010 E0.01140
G1 X156.488 Y111.823 E0.02559
G1 X156.363 Y112.612 E0.02503
G1 X156.181 Y113.407 E0.02559
G1 X156.082 Y113.757 E0.01140
G1 X155.813 Y114.547 E0.02615
G1 X155.673 Y114.899 E0.01188
G1 X155.506 Y115.278 E0.01298
G1 X155.154 Y115.980 E0.02462
G1 X154.749 Y116.668 E0.02505
G1 X154.288 Y117.342 E0.02559
G1 X154.056 Y117.645 E0.01196
G1 X153.815 Y117.940 E0.01196
G1 X153.254 Y118.558 E0.02615
G1 X152.996 Y118.814 E0.01140
G1 X152.389 Y119.359 E0.02559
G1 X151.746 Y119.862 E0.02559
G1 X151.434 Y120.081 E0.01196
G1 X151.114 Y120.290 E0.01196
G1 X150.393 Y120.709 E0.02615
G1 X150.070 Y120.875 E0.01140
G1 X149.326 Y121.212 E0.02559
G1 X148.561 Y121.496 E0.02559
G1 X148.198 Y121.611 E0.01196
G1 X147.830 Y121.713 E0.01196
G1 X147.033 Y121.891 E0.02559
G1 X146.227 Y122.014 E0.02559
G1 X144.822 Y122.156 E0.04426
G1 X143.097 Y121.957 E0.05446
G1 X142.292 Y121.805 E0.02569
G1 X141.938 Y121.719 E0.01142
G1 X141.119 Y121.473 E0.02681
G1 X140.379 Y121.196 E0.02478
G1 X140.042 Y121.049 E0.01150
G1 X139.306 Y120.683 E0.02578
G1 X138.596 Y120.268 E0.02578
G1 X138.291 Y120.067 E0.01148
G1 X137.613 Y119.569 E0.02634
G1 X137.330 Y119.338 E0.01148
G1 X136.707 Y118.774 E0.02634
G1 X136.449 Y118.514 E0.01148
G1 X135.900 Y117.902 E0.02578
G1 X135.394 Y117.254 E0.02578
G1 X134.964 Y116.617 E0.02409
G1 X134.551 Y115.906 E0.02578
G1 X134.197 Y115.184 E0.02521
G1 X133.886 Y114.423 E0.02578
G1 X133.765 Y114.078 E0.01148
G1 X133.534 Y113.288 E0.02578
G1 X133.358 Y112.485 E0.02578
G1 X133.295 Y112.106 E0.01205
G1 X133.245 Y111.725 E0.01205
G1 X133.181 Y110.906 E0.02578
G1 X133.173 Y110.084 E0.02578
G1 X133.218 Y109.317 E0.02409
G1 X133.323 Y108.501 E0.02578
G1 X133.483 Y107.695 E0.02578
G1 X133.573 Y107.340 E0.01148
G1 X133.821 Y106.537 E0.02634
G1 X133.947 Y106.193 E0.01148
G1 X134.276 Y105.420 E0.02634
G1 X134.436 Y105.091 E0.01148
G1 X134.842 Y104.358 E0.02627
G1 X135.054 Y104.020 E0.01251
G1 X135.507 Y103.371 E0.02480
G1 X136.022 Y102.730 E0.02580
G1 X136.600 Y102.120 E0.02635
G1 X136.596 Y101.588 F10800.000
G1 F1200.000
G1 X136.641 Y101.547 E0.00191
G1 X136.841 Y101.757 E0.00909
G1 X137.288 Y102.050 E0.01677
G1 X137.982 Y102.304 E0.02317
G1 X138.787 Y102.340 E0.02527
G1 X139.566 Y102.131 E0.02527
G1 X140.245 Y101.697 E0.02527
G1 X140.761 Y101.078 E0.02527
G1 X141.067 Y100.332 E0.02527
G1 X141.127 Y99.596 E0.02317
G1 X141.049 Y99.067 E0.01677
G1 X141.001 Y98.946 E0.00408
G1 X141.874 Y98.686 E0.02855
G1 X142.678 Y98.509 E0.02584
G1 X143.493 Y98.387 E0.02584
G1 X144.328 Y98.320 E0.02624
G1 X144.743 Y98.309 E0.01303
G1 X145.565 Y98.327 E0.02577
G1 X146.357 Y98.399 E0.02494
G1 X147.200 Y98.534 E0.02676
G1 X147.574 Y98.614 E0.01200
G1 X148.399 Y98.834 E0.02676
G1 X148.763 Y98.951 E0.01200
G1 X149.561 Y99.254 E0.02676
G1 X149.911 Y99.408 E0.01200
G1 X150.661 Y99.785 E0.02630
G1 X151.383 Y100.212 E0.02630
G1 X151.701 Y100.422 E0.01196
G1 X152.401 Y100.941 E0.02733
G1 X153.015 Y101.464 E0.02530
G1 X153.585 Y102.019 E0.02494
G1 X154.144 Y102.644 E0.02630
G1 X154.660 Y103.306 E0.02630
G1 X154.879 Y103.620 E0.01200
G1 X155.324 Y104.331 E0.02630
G1 X155.720 Y105.070 E0.02630
G1 X156.046 Y105.795 E0.02492
G1 X156.338 Y106.581 E0.02630
G1 X156.571 Y107.372 E0.02584
G1 X156.752 Y108.191 E0.02630
G1 X156.871 Y108.977 E0.02492
G1 X156.940 Y109.813 E0.02630
G1 X156.951 Y110.651 E0.02630
G1 X156.937 Y111.034 E0.01200
G1 X156.862 Y111.869 E0.02630
G1 X156.733 Y112.683 E0.02584
G1 X156.546 Y113.501 E0.02630
G1 X156.442 Y113.869 E0.01200
G1 X156.167 Y114.677 E0.02676
G1 X156.021 Y115.045 E0.01240
G1 X155.847 Y115.438 E0.01349
G1 X155.486 Y116.160 E0.02532
G1 X155.067 Y116.871 E0.02586
G1 X154.593 Y117.563 E0.02630
G1 X154.352 Y117.879 E0.01246
G1 X154.100 Y118.186 E0.01246
G1 X153.527 Y118.818 E0.02676
G1 X153.255 Y119.088 E0.01200
G1 X152.631 Y119.649 E0.02630
G1 X151.970 Y120.165 E0.02630
G1 X151.645 Y120.394 E0.01246
G1 X151.312 Y120.611 E0.01246
G1 X150.575 Y121.040 E0.02676
G1 X150.234 Y121.215 E0.01200
G1 X149.470 Y121.561 E0.02630
G1 X148.684 Y121.853 E0.02630
G1 X148.305 Y121.972 E0.01246
G1 X147.922 Y122.079 E0.01246
G1 X147.103 Y122.262 E0.02630
G1 X146.274 Y122.388 E0.02630
G1 X144.819 Y122.535 E0.04584
G1 X143.040 Y122.330 E0.05616
G1 X142.212 Y122.173 E0.02641
G1 X141.839 Y122.083 E0.01204
G1 X140.998 Y121.831 E0.02752
G1 X140.237 Y121.545 E0.02549
G1 X139.883 Y121.391 E0.01211
G1 X139.126 Y121.015 E0.02649
G1 X138.397 Y120.588 E0.02649
G1 X138.075 Y120.376 E0.01209
G1 X137.382 Y119.868 E0.02695
G1 X137.084 Y119.624 E0.01209
G1 X136.447 Y119.047 E0.02695
G1 X136.175 Y118.773 E0.01209
G1 X135.610 Y118.144 E0.02649
G1 X135.090 Y117.478 E0.02649
G1 X134.642 Y116.815 E0.02510
G1 X134.219 Y116.084 E0.02649
G1 X133.853 Y115.339 E0.02603
G1 X133.533 Y114.557 E0.02649
G1 X133.406 Y114.193 E0.01209
G1 X133.169 Y113.382 E0.02649
G1 X132.988 Y112.557 E0.02649
G1 X132.922 Y112.162 E0.01255
G1 X132.870 Y111.765 E0.01255
G1 X132.804 Y110.922 E0.02649
G1 X132.796 Y110.078 E0.02649
G1 X132.843 Y109.278 E0.02510
G1 X132.950 Y108.440 E0.02649
G1 X133.115 Y107.612 E0.02649
G1 X133.210 Y107.238 E0.01209
G1 X133.463 Y106.417 E0.02695
G1 X133.596 Y106.054 E0.01209
G1 X133.933 Y105.264 E0.02695
G1 X134.102 Y104.917 E0.01209
G1 X134.517 Y104.167 E0.02689
G1 X134.739 Y103.812 E0.01312
G1 X135.205 Y103.145 E0.02550
G1 X135.735 Y102.486 E0.02651
G1 X135.991 Y102.199 E0.01209
G1 X136.554 Y101.630 E0.02507
G1 X136.635 Y101.043 F10800.000
G1 F1200.000
G1 X136.666 Y101.017 E0.00128
G1 X137.084 Y101.465 E0.01923
G1 X137.459 Y101.711 E0.01404
G1 X138.057 Y101.930 E0.01998
G1 X138.746 Y101.961 E0.02162
