; generated by PrusaSlicer 2.3.1+win64 on 2023-03-19 at 14:53:59 UTC

; 

; external perimeters extrusion width = 0.45mm
; perimeters extrusion width = 0.45mm
; infill extrusion width = 0.45mm
; solid infill extrusion width = 0.45mm
; top infill extrusion width = 0.40mm
; first layer extrusion width = 0.42mm

M73 P0 R67
M73 Q0 S67
M201 X1000 Y1000 Z200 E5000 ; sets maximum accelerations, mm/sec^2
M203 X200 Y200 Z12 E120 ; sets maximum feedrates, mm/sec
M204 P1250 R1250 T1250 ; sets acceleration (P, T) and retract acceleration (R), mm/sec^2
M205 X8.00 Y8.00 Z0.40 E4.50 ; sets the jerk limits, mm/sec
M205 S0 T0 ; sets the minimum extruding and travel feed rate, mm/sec
M107
;TYPE:Custom
M862.3 P "MK3S" ; printer model check
M862.1 P0.4 ; nozzle diameter check
M115 U3.9.3 ; tell printer latest fw version
G90 ; use absolute coordinates
M83 ; extruder relative mode
M104 S205 ; set extruder temp
M140 S67 ; set bed temp
M190 S67 ; wait for bed temp
M109 S205 ; wait for extruder temp
G28 W ; home all without mesh bed level
G80 ; mesh bed leveling
G1 Y-3.0 F1000.0 ; go outside print area
G92 E0.0
G1 X60.0 E9.0 F1000.0 ; intro line
G1 X100.0 E12.5 F1000.0 ; intro line
G92 E0.0
M221 S95

; Don't change E values below. Excessive value can damage the printer.
M907 E430 ; set extruder motor current
G21 ; set units to millimeters
G90 ; use absolute coordinates
M83 ; use relative distances for extrusion
M900 K0.05 ; Filament gcode LA 1.5
M900 K30 ; Filament gcode LA 1.0
;LAYER_CHANGE
;Z:0.2
;HEIGHT:0.2
;BEFORE_LAYER_CHANGE
G92 E0.0
;0.2


G1 E-0.80000 F2100.000
G1 Z0.400 F10800.000
;AFTER_LAYER_CHANGE
;0.2
; printing object tool_back.stl id:0 copy 0
G1 X147.274 Y31.119
G1 Z0.200
G1 E0.80000 F2100.000
M204 S1000
;TYPE:Perimeter
;WIDTH:0.42
G1 F1200.000
G1 X147.454 Y30.366 E0.02427
G1 X147.669 Y29.867 E0.01704
G1 X147.908 Y29.461 E0.01477
G1 X148.189 Y29.094 E0.01449
G1 X148.510 Y28.762 E0.01449
G1 X148.869 Y28.471 E0.01449
G1 X149.260 Y28.225 E0.01449
G1 X149.677 Y28.026 E0.01449
G1 X150.171 Y27.859 E0.01636
G1 X150.936 Y27.743 E0.02426
G1 X151.480 Y27.754 E0.01704
G1 X151.946 Y27.824 E0.01477
G1 X152.449 Y27.961 E0.01637
G1 X153.149 Y28.292 E0.02426
G1 X153.593 Y28.605 E0.01704
G1 X153.940 Y28.923 E0.01477
G1 X154.242 Y29.273 E0.01449
G1 X154.500 Y29.657 E0.01449
G1 X154.738 Y30.121 E0.01636
G1 X154.966 Y30.861 E0.02427
G1 X155.035 Y31.400 E0.01704
G1 X155.035 Y31.871 E0.01477
G1 X154.980 Y32.329 E0.01449
G1 X154.872 Y32.778 E0.01449
G1 X154.711 Y33.212 E0.01449
G1 X154.500 Y33.623 E0.01449
G1 X154.242 Y34.006 E0.01449
G1 X153.940 Y34.356 E0.01449
G1 X153.555 Y34.708 E0.01636
G1 X152.902 Y35.123 E0.02426
G1 X152.400 Y35.331 E0.01704
G1 X151.946 Y35.455 E0.01477
G1 X151.489 Y35.524 E0.01448
G1 X151.027 Y35.537 E0.01449
G1 X150.567 Y35.496 E0.01449
G1 X150.056 Y35.389 E0.01636
G1 X149.338 Y35.100 E0.02426
G1 X148.876 Y34.813 E0.01704
G1 X148.510 Y34.517 E0.01477
G1 X148.189 Y34.185 E0.01449
G1 X147.908 Y33.818 E0.01449
G1 X147.673 Y33.420 E0.01449
G1 X147.487 Y32.997 E0.01449
G1 X147.352 Y32.555 E0.01449
G1 X147.270 Y32.101 E0.01449
G1 X147.243 Y31.640 E0.01449
G1 X147.270 Y31.178 E0.01448
G1 X147.647 Y31.201 F10800.000
G1 F1200.000
G1 X147.813 Y30.485 E0.02304
G1 X148.006 Y30.038 E0.01527
G1 X148.222 Y29.672 E0.01331
G1 X148.475 Y29.341 E0.01308
G1 X148.765 Y29.041 E0.01308
G1 X149.089 Y28.778 E0.01308
G1 X149.442 Y28.555 E0.01308
G1 X149.819 Y28.376 E0.01308
G1 X150.261 Y28.227 E0.01462
G1 X150.961 Y28.120 E0.02221
G1 X151.448 Y28.131 E0.01527
G1 X151.868 Y28.193 E0.01331
G1 X152.318 Y28.316 E0.01462
G1 X152.958 Y28.619 E0.02221
G1 X153.356 Y28.900 E0.01527
G1 X153.669 Y29.186 E0.01331
G1 X153.942 Y29.503 E0.01309
G1 X154.175 Y29.849 E0.01308
G1 X154.388 Y30.264 E0.01462
G1 X154.596 Y30.940 E0.02221
G1 X154.658 Y31.424 E0.01527
G1 X154.658 Y31.848 E0.01331
G1 X154.609 Y32.263 E0.01308
G1 X154.511 Y32.668 E0.01308
G1 X154.365 Y33.059 E0.01308
G1 X154.175 Y33.430 E0.01308
G1 X153.942 Y33.776 E0.01308
G1 X153.669 Y34.093 E0.01309
G1 X153.325 Y34.407 E0.01462
G1 X152.727 Y34.787 E0.02221
G1 X152.277 Y34.974 E0.01527
G1 X151.868 Y35.086 E0.01331
G1 X151.455 Y35.147 E0.01308
G1 X151.038 Y35.160 E0.01308
G1 X150.622 Y35.123 E0.01308
G1 X150.166 Y35.027 E0.01462
G1 X149.509 Y34.762 E0.02221
G1 X149.095 Y34.506 E0.01527
G1 X148.765 Y34.238 E0.01331
G1 X148.475 Y33.939 E0.01308
G1 X148.222 Y33.607 E0.01308
G1 X148.009 Y33.248 E0.01308
G1 X147.841 Y32.866 E0.01308
G1 X147.719 Y32.467 E0.01308
G1 X147.646 Y32.056 E0.01308
G1 X147.621 Y31.640 E0.01308
G1 X147.643 Y31.261 E0.01190
G1 X148.020 Y31.283 F10800.000
G1 F1200.000
G1 X148.172 Y30.604 E0.02181
G1 X148.343 Y30.209 E0.01350
G1 X148.535 Y29.883 E0.01186
G1 X148.761 Y29.587 E0.01168
G1 X149.020 Y29.320 E0.01168
G1 X149.310 Y29.085 E0.01168
G1 X149.625 Y28.886 E0.01168
G1 X149.961 Y28.726 E0.01168
G1 X150.350 Y28.595 E0.01288
G1 X150.985 Y28.498 E0.02015
G1 X151.416 Y28.507 E0.01350
G1 X151.790 Y28.563 E0.01186
G1 X152.186 Y28.671 E0.01288
G1 X152.767 Y28.946 E0.02015
G1 X153.119 Y29.194 E0.01350
G1 X153.398 Y29.450 E0.01186
G1 X153.641 Y29.732 E0.01168
G1 X153.850 Y30.041 E0.01168
G1 X154.037 Y30.406 E0.01288
G1 X154.226 Y31.020 E0.02015
G1 X154.281 Y31.448 E0.01350
G1 X154.281 Y31.826 E0.01186
G1 X154.237 Y32.196 E0.01168
G1 X154.149 Y32.558 E0.01168
G1 X154.020 Y32.907 E0.01168
G1 X153.850 Y33.238 E0.01168
G1 X153.641 Y33.547 E0.01168
G1 X153.398 Y33.830 E0.01168
G1 X153.095 Y34.107 E0.01288
G1 X152.553 Y34.451 E0.02015
G1 X152.155 Y34.616 E0.01350
G1 X151.790 Y34.716 E0.01186
G1 X151.422 Y34.771 E0.01168
G1 X151.049 Y34.782 E0.01168
G1 X150.678 Y34.749 E0.01168
G1 X150.276 Y34.664 E0.01288
G1 X149.680 Y34.424 E0.02015
G1 X149.314 Y34.198 E0.01350
G1 X149.020 Y33.959 E0.01186
G1 X148.761 Y33.692 E0.01168
G1 X148.535 Y33.396 E0.01168
G1 X148.345 Y33.075 E0.01168
G1 X148.195 Y32.734 E0.01168
G1 X148.086 Y32.378 E0.01168
G1 X148.021 Y32.011 E0.01168
G1 X147.999 Y31.640 E0.01168
G1 X148.016 Y31.343 E0.00932
G1 X148.397 Y31.285 F10800.000
G1 F1200.000
G1 X148.532 Y30.724 E0.01809
G1 X148.679 Y30.380 E0.01173
G1 X148.848 Y30.094 E0.01041
G1 X149.047 Y29.834 E0.01028
G1 X149.275 Y29.599 E0.01028
G1 X149.530 Y29.392 E0.01028
G1 X149.807 Y29.217 E0.01028
G1 X150.103 Y29.076 E0.01028
G1 X150.439 Y28.962 E0.01114
G1 X151.010 Y28.876 E0.01809
G1 X151.384 Y28.884 E0.01173
G1 X151.712 Y28.933 E0.01041
G1 X152.055 Y29.026 E0.01114
G1 X152.577 Y29.273 E0.01809
G1 X152.882 Y29.489 E0.01173
G1 X153.127 Y29.713 E0.01041
G1 X153.341 Y29.961 E0.01028
G1 X153.524 Y30.233 E0.01028
G1 X153.687 Y30.549 E0.01114
G1 X153.856 Y31.100 E0.01809
G1 X153.904 Y31.472 E0.01173
G1 X153.904 Y31.803 E0.01041
G1 X153.865 Y32.129 E0.01028
G1 X153.788 Y32.447 E0.01028
G1 X153.674 Y32.755 E0.01028
G1 X153.524 Y33.046 E0.01028
G1 X153.341 Y33.318 E0.01028
G1 X153.127 Y33.566 E0.01028
G1 X152.865 Y33.806 E0.01114
G1 X152.378 Y34.115 E0.01809
G1 X152.032 Y34.259 E0.01173
G1 X151.712 Y34.346 E0.01041
G1 X151.388 Y34.395 E0.01028
G1 X151.061 Y34.405 E0.01028
G1 X150.734 Y34.375 E0.01028
G1 X150.386 Y34.302 E0.01114
G1 X149.851 Y34.087 E0.01809
G1 X149.533 Y33.890 E0.01173
G1 X149.275 Y33.681 E0.01041
G1 X149.047 Y33.445 E0.01028
G1 X148.848 Y33.185 E0.01028
G1 X148.682 Y32.903 E0.01028
G1 X148.549 Y32.603 E0.01028
G1 X148.454 Y32.289 E0.01028
G1 X148.396 Y31.967 E0.01028
G1 X148.376 Y31.640 E0.01028
G1 X148.394 Y31.345 E0.00926
G1 X148.770 Y31.367 F10800.000
G1 F1200.000
G1 X148.891 Y30.843 E0.01687
G1 X149.016 Y30.551 E0.00996
G1 X149.161 Y30.305 E0.00895
G1 X149.333 Y30.080 E0.00887
G1 X149.530 Y29.877 E0.00887
G1 X149.750 Y29.699 E0.00887
G1 X149.989 Y29.548 E0.00887
G1 X150.245 Y29.426 E0.00887
G1 X150.529 Y29.330 E0.00940
G1 X151.034 Y29.253 E0.01604
G1 X151.352 Y29.260 E0.00996
G1 X151.634 Y29.302 E0.00895
G1 X151.924 Y29.381 E0.00940
G1 X152.386 Y29.600 E0.01604
G1 X152.646 Y29.783 E0.00996
G1 X152.856 Y29.976 E0.00895
G1 X153.041 Y30.190 E0.00887
G1 X153.199 Y30.425 E0.00887
G1 X153.336 Y30.692 E0.00940
G1 X153.486 Y31.180 E0.01604
G1 X153.527 Y31.496 E0.00996
G1 X153.527 Y31.781 E0.00895
G1 X153.493 Y32.062 E0.00887
G1 X153.427 Y32.337 E0.00887
G1 X153.328 Y32.602 E0.00887
G1 X153.199 Y32.854 E0.00887
G1 X153.041 Y33.089 E0.00887
G1 X152.856 Y33.303 E0.00887
G1 X152.635 Y33.506 E0.00940
G1 X152.203 Y33.780 E0.01604
G1 X151.910 Y33.902 E0.00996
G1 X151.634 Y33.977 E0.00895
G1 X151.355 Y34.019 E0.00887
G1 X151.072 Y34.027 E0.00887
G1 X150.790 Y34.002 E0.00887
G1 X150.496 Y33.940 E0.00940
G1 X150.022 Y33.749 E0.01604
G1 X149.752 Y33.582 E0.00996
G1 X149.530 Y33.402 E0.00895
G1 X149.333 Y33.199 E0.00887
G1 X149.161 Y32.974 E0.00887
G1 X149.018 Y32.730 E0.00887
G1 X148.903 Y32.471 E0.00887
G1 X148.821 Y32.201 E0.00887
G1 X148.771 Y31.922 E0.00887
G1 X148.754 Y31.640 E0.00887
G1 X148.767 Y31.427 E0.00668
G1 X149.143 Y31.449 F10800.000
;TYPE:External perimeter
G1 F1200.000
G1 X149.250 Y30.962 E0.01564
G1 X149.353 Y30.722 E0.00819
G1 X149.475 Y30.516 E0.00750
G1 X149.619 Y30.327 E0.00747
G1 X149.785 Y30.156 E0.00747
G1 X149.970 Y30.006 E0.00747
G1 X150.172 Y29.879 E0.00747
G1 X150.387 Y29.776 E0.00747
G1 X150.618 Y29.698 E0.00766
G1 X151.059 Y29.631 E0.01398
G1 X151.320 Y29.637 E0.00819
G1 X151.557 Y29.672 E0.00750
G1 X151.792 Y29.736 E0.00766
G1 X152.195 Y29.927 E0.01398
G1 X152.409 Y30.078 E0.00819
G1 X152.585 Y30.239 E0.00750
G1 X152.741 Y30.419 E0.00747
G1 X152.874 Y30.617 E0.00747
G1 X152.985 Y30.834 E0.00766
G1 X153.117 Y31.260 E0.01398
G1 X153.150 Y31.520 E0.00819
G1 X153.150 Y31.759 E0.00750
G1 X153.121 Y31.995 E0.00747
G1 X153.066 Y32.227 E0.00747
G1 X152.983 Y32.450 E0.00747
G1 X152.874 Y32.662 E0.00747
G1 X152.741 Y32.860 E0.00747
G1 X152.585 Y33.040 E0.00747
G1 X152.405 Y33.205 E0.00766
G1 X152.029 Y33.444 E0.01398
G1 X151.787 Y33.544 E0.00819
G1 X151.557 Y33.607 E0.00750
G1 X151.321 Y33.642 E0.00747
G1 X151.083 Y33.649 E0.00747
G1 X150.846 Y33.628 E0.00747
G1 X150.607 Y33.578 E0.00766
G1 X150.193 Y33.411 E0.01398
G1 X149.971 Y33.274 E0.00819
G1 X149.785 Y33.123 E0.00750
G1 X149.619 Y32.952 E0.00747
G1 X149.475 Y32.763 E0.00747
G1 X149.354 Y32.558 E0.00747
G1 X149.258 Y32.340 E0.00747
G1 X149.188 Y32.112 E0.00747
G1 X149.146 Y31.877 E0.00747
G1 X149.139 Y31.509 E0.01154
G1 X148.823 Y31.209 F10800.000
;WIPE_START
G1 F8640.000
G1 X149.250 Y30.962 E-0.12888
G1 X149.353 Y30.722 E-0.06032
G1 X149.475 Y30.516 E-0.05521
G1 X149.619 Y30.327 E-0.05501
G1 X149.785 Y30.156 E-0.05501
G1 X149.970 Y30.006 E-0.05501
G1 X150.172 Y29.879 E-0.05501
G1 X150.387 Y29.776 E-0.05501
G1 X150.618 Y29.698 E-0.05639
G1 X151.059 Y29.631 E-0.10294
G1 X151.320 Y29.637 E-0.06033
G1 X151.410 Y29.650 E-0.02089
;WIPE_END
G1 E-0.04000 F2100.000
G1 Z0.600 F10800.000
G1 X133.597 Y30.333
G1 Z0.200
G1 E0.80000 F2100.000
;TYPE:Perimeter
G1 F1200.000
G1 X133.645 Y29.711 E0.01957
G1 X133.716 Y29.146 E0.01784
G1 X133.928 Y27.956 E0.03790
G1 X134.057 Y27.397 E0.01800
G1 X134.208 Y26.830 E0.01841
G1 X134.579 Y25.678 E0.03792
G1 X134.776 Y25.156 E0.01750
G1 X135.259 Y24.049 E0.03789
G1 X135.513 Y23.539 E0.01784
G1 X136.105 Y22.486 E0.03788
G1 X136.409 Y22.005 E0.01785
G1 X137.088 Y21.040 E0.03701
G1 X137.841 Y20.109 E0.03753
G1 X138.651 Y19.236 E0.03733
G1 X139.058 Y18.839 E0.01784
G1 X139.965 Y18.040 E0.03789
G1 X140.401 Y17.692 E0.01750
G1 X141.384 Y16.988 E0.03792
G1 X141.878 Y16.670 E0.01839
G1 X142.371 Y16.376 E0.01802
G1 X143.439 Y15.810 E0.03790
G1 X143.955 Y15.570 E0.01784
G1 X145.058 Y15.121 E0.03735
G1 X146.190 Y14.747 E0.03738
G1 X146.756 Y14.591 E0.01840
G1 X147.314 Y14.457 E0.01800
G1 X148.503 Y14.235 E0.03790
G1 X149.067 Y14.158 E0.01784
G1 X150.271 Y14.057 E0.03789
G1 X150.829 Y14.038 E0.01750
G1 X152.020 Y14.058 E0.03736
G1 X153.213 Y14.158 E0.03752
G1 X154.390 Y14.338 E0.03733
G1 X154.947 Y14.452 E0.01784
G1 X156.118 Y14.753 E0.03790
G1 X156.650 Y14.919 E0.01750
G1 X157.785 Y15.337 E0.03791
G1 X158.845 Y15.810 E0.03640
G1 X159.913 Y16.376 E0.03790
G1 X160.402 Y16.668 E0.01784
G1 X161.393 Y17.329 E0.03736
G1 X162.338 Y18.055 E0.03737
G1 X162.785 Y18.435 E0.01839
G1 X163.210 Y18.822 E0.01802
G1 X164.061 Y19.680 E0.03790
G1 X164.440 Y20.104 E0.01784
G1 X165.201 Y21.044 E0.03790
G1 X165.530 Y21.495 E0.01750
G1 X166.192 Y22.506 E0.03791
G1 X166.479 Y22.998 E0.01784
G1 X167.028 Y24.054 E0.03733
G1 X167.506 Y25.151 E0.03752
G1 X167.908 Y26.273 E0.03736
G1 X168.070 Y26.807 E0.01750
G1 X168.362 Y27.980 E0.03790
G1 X168.471 Y28.538 E0.01784
G1 X168.643 Y29.735 E0.03790
G1 X168.730 Y30.892 E0.03640
G1 X168.740 Y32.084 E0.03738
G1 X168.670 Y33.274 E0.03735
G1 X168.608 Y33.839 E0.01784
G1 X168.416 Y35.033 E0.03790
G1 X168.297 Y35.595 E0.01802
G1 X168.155 Y36.164 E0.01839
G1 X167.809 Y37.304 E0.03737
G1 X167.389 Y38.419 E0.03736
G1 X167.161 Y38.941 E0.01784
G1 X166.622 Y40.023 E0.03790
G1 X166.036 Y41.025 E0.03640
G1 X165.366 Y42.011 E0.03737
G1 X164.633 Y42.949 E0.03737
G1 X163.858 Y43.814 E0.03640
G1 X162.992 Y44.658 E0.03790
G1 X162.565 Y45.034 E0.01784
G1 X161.619 Y45.787 E0.03791
G1 X161.166 Y46.112 E0.01750
G1 X160.149 Y46.765 E0.03790
G1 X159.655 Y47.048 E0.01784
G1 X158.594 Y47.588 E0.03733
G1 X157.493 Y48.057 E0.03752
G1 X156.368 Y48.450 E0.03736
G1 X155.833 Y48.607 E0.01750
G1 X154.657 Y48.889 E0.03789
G1 X154.098 Y48.994 E0.01784
G1 X152.900 Y49.156 E0.03790
G1 X151.742 Y49.233 E0.03640
G1 X150.550 Y49.233 E0.03738
G1 X149.361 Y49.153 E0.03735
G1 X148.796 Y49.086 E0.01784
G1 X147.604 Y48.884 E0.03790
G1 X147.043 Y48.760 E0.01802
G1 X146.475 Y48.613 E0.01839
G1 X145.337 Y48.258 E0.03738
G1 X144.226 Y47.828 E0.03736
G1 X143.707 Y47.596 E0.01784
G1 X142.629 Y47.048 E0.03790
G1 X141.632 Y46.454 E0.03640
G1 X140.652 Y45.776 E0.03737
G1 X139.719 Y45.034 E0.03736
G1 X139.292 Y44.658 E0.01784
G1 X138.427 Y43.814 E0.03790
G1 X137.652 Y42.949 E0.03640
G1 X136.908 Y41.997 E0.03791
G1 X136.587 Y41.540 E0.01750
G1 X135.942 Y40.518 E0.03790
G1 X135.662 Y40.022 E0.01784
G1 X135.132 Y38.956 E0.03733
G1 X134.672 Y37.852 E0.03752
G1 X134.292 Y36.734 E0.03702
G1 X134.136 Y36.186 E0.01786
G1 X133.864 Y35.009 E0.03787
G1 X133.764 Y34.449 E0.01784
G1 X133.612 Y33.250 E0.03790
G1 X133.544 Y32.091 E0.03640
G1 X133.555 Y30.899 E0.03738
G1 X133.593 Y30.393 E0.01589
G1 X133.217 Y30.365 F10800.000
G1 F1200.000
G1 X133.269 Y29.673 E0.02175
G1 X133.343 Y29.089 E0.01844
G1 X133.559 Y27.881 E0.03849
G1 X133.691 Y27.306 E0.01850
G1 X133.847 Y26.723 E0.01890
G1 X134.222 Y25.554 E0.03852
G1 X134.426 Y25.014 E0.01809
G1 X134.917 Y23.889 E0.03848
G1 X135.180 Y23.363 E0.01844
G1 X135.781 Y22.293 E0.03848
G1 X136.095 Y21.796 E0.01844
G1 X136.787 Y20.812 E0.03771
G1 X137.556 Y19.862 E0.03832
G1 X138.381 Y18.973 E0.03803
G1 X138.802 Y18.562 E0.01844
G1 X139.722 Y17.751 E0.03848
G1 X140.174 Y17.391 E0.01809
G1 X141.173 Y16.676 E0.03852
G1 X141.679 Y16.350 E0.01888
G1 X142.186 Y16.048 E0.01852
G1 X143.271 Y15.473 E0.03849
G1 X143.804 Y15.224 E0.01844
G1 X144.928 Y14.767 E0.03804
G1 X146.081 Y14.386 E0.03807
G1 X146.662 Y14.225 E0.01890
G1 X147.236 Y14.088 E0.01850
G1 X148.443 Y13.862 E0.03850
G1 X149.026 Y13.784 E0.01844
G1 X150.249 Y13.681 E0.03849
G1 X150.825 Y13.661 E0.01809
G1 X152.039 Y13.681 E0.03806
G1 X153.257 Y13.784 E0.03832
G1 X154.456 Y13.966 E0.03803
G1 X155.032 Y14.084 E0.01844
G1 X156.221 Y14.390 E0.03850
G1 X156.772 Y14.562 E0.01809
G1 X157.924 Y14.986 E0.03850
G1 X159.013 Y15.473 E0.03740
G1 X160.098 Y16.047 E0.03849
G1 X160.603 Y16.349 E0.01844
G1 X161.613 Y17.022 E0.03806
G1 X162.576 Y17.762 E0.03806
G1 X163.034 Y18.152 E0.01888
G1 X163.471 Y18.550 E0.01852
G1 X164.335 Y19.422 E0.03849
G1 X164.728 Y19.860 E0.01844
G1 X165.500 Y20.814 E0.03850
G1 X165.840 Y21.281 E0.01809
G1 X166.512 Y22.308 E0.03850
G1 X166.809 Y22.815 E0.01844
G1 X167.368 Y23.892 E0.03803
G1 X167.857 Y25.012 E0.03832
G1 X168.267 Y26.154 E0.03805
G1 X168.434 Y26.707 E0.01809
G1 X168.730 Y27.898 E0.03849
G1 X168.843 Y28.475 E0.01844
G1 X169.018 Y29.690 E0.03849
G1 X169.107 Y30.880 E0.03740
G1 X169.117 Y32.094 E0.03807
G1 X169.046 Y33.305 E0.03805
G1 X168.982 Y33.890 E0.01844
G1 X168.787 Y35.102 E0.03849
G1 X168.664 Y35.679 E0.01852
G1 X168.519 Y36.264 E0.01888
