; generated by PrusaSlicer 2.3.1+win64 on 2023-05-15 at 15:41:17 UTC

; 

; external perimeters extrusion width = 0.45mm
; perimeters extrusion width = 0.45mm
; infill extrusion width = 0.45mm
; solid infill extrusion width = 0.45mm
; top infill extrusion width = 0.40mm
; first layer extrusion width = 0.42mm

M73 P0 R12
M73 Q0 S12
M201 X1000 Y1000 Z200 E5000 ; sets maximum accelerations, mm/sec^2
M203 X200 Y200 Z12 E120 ; sets maximum feedrates, mm/sec
M204 P1250 R1250 T1250 ; sets acceleration (P, T) and retract acceleration (R), mm/sec^2
M205 X8.00 Y8.00 Z0.40 E4.50 ; sets the jerk limits, mm/sec
M205 S0 T0 ; sets the minimum extruding and travel feed rate, mm/sec
M107
;TYPE:Custom
M862.3 P "MK3S" ; printer model check
M862.1 P0.4 ; nozzle diameter check
M115 U3.9.3 ; tell printer latest fw version
G90 ; use absolute coordinates
M83 ; extruder relative mode
M104 S205 ; set extruder temp
M140 S67 ; set bed temp
M190 S67 ; wait for bed temp
M109 S205 ; wait for extruder temp
G28 W ; home all without mesh bed level
G80 ; mesh bed leveling
G1 Y-3.0 F1000.0 ; go outside print area
G92 E0.0
G1 X60.0 E9.0 F1000.0 ; intro line
M73 P0 R11
G1 X100.0 E12.5 F1000.0 ; intro line
G92 E0.0
M221 S95

; Don't change E values below. Excessive value can damage the printer.
M907 E430 ; set extruder motor current
G21 ; set units to millimeters
G90 ; use absolute coordinates
M83 ; use relative distances for extrusion
M900 K0.05 ; Filament gcode LA 1.5
M900 K30 ; Filament gcode LA 1.0
;LAYER_CHANGE
;Z:0.2
;HEIGHT:0.2
;BEFORE_LAYER_CHANGE
G92 E0.0
;0.2


M73 Q0 S11
G1 E-0.80000 F2100.000
G1 Z0.400 F10800.000
;AFTER_LAYER_CHANGE
;0.2
G1 X192.744 Y30.585
M73 P1 R11
M73 Q1 S11
G1 Z0.200
G1 E0.80000 F2100.000
M204 S1000
;TYPE:Skirt
;WIDTH:0.42
G1 F1200.000
G1 X192.656 Y30.497 E0.00392
G1 X192.627 Y30.427 E0.00235
G1 X192.627 Y24.740 E0.17832
G1 X192.656 Y24.671 E0.00235
G1 X192.930 Y24.397 E0.01215
G1 X192.999 Y24.368 E0.00235
G1 X198.685 Y24.368 E0.17828
G1 X198.828 Y24.430 E0.00488
G1 X210.449 Y24.415 E0.36437
G1 X210.521 Y24.343 E0.00321
G1 X210.591 Y24.314 E0.00235
G1 X216.278 Y24.314 E0.17832
G1 X216.400 Y24.365 E0.00415
G1 X222.137 Y24.365 E0.17987
G1 X222.312 Y24.437 E0.00593
G1 X222.381 Y24.409 E0.00236
G1 X228.069 Y24.409 E0.17832
G1 X228.138 Y24.437 E0.00235
G1 X228.412 Y24.711 E0.01215
G1 X228.441 Y24.781 E0.00235
G1 X228.441 Y30.468 E0.17832
G1 X228.412 Y30.537 E0.00235
G1 X228.301 Y30.649 E0.00494
G1 X228.301 Y36.149 E0.17245
G1 X228.274 Y36.213 E0.00218
G1 X228.274 Y41.955 E0.18003
G1 X228.245 Y42.024 E0.00235
G1 X227.971 Y42.298 E0.01215
G1 X227.902 Y42.327 E0.00236
G1 X216.399 Y42.344 E0.36067
G1 X216.284 Y42.297 E0.00391
G1 X216.195 Y42.333 E0.00301
G1 X210.514 Y42.333 E0.17812
G1 X210.383 Y42.388 E0.00445
G1 X204.696 Y42.388 E0.17832
G1 X204.626 Y42.359 E0.00235
G1 X204.456 Y42.189 E0.00753
G1 X198.823 Y42.187 E0.17665
G1 X198.657 Y42.271 E0.00581
G1 X192.978 Y42.271 E0.17808
G1 X192.908 Y42.242 E0.00235
G1 X192.635 Y41.969 E0.01215
G1 X192.606 Y41.899 E0.00235
G1 X192.606 Y36.212 E0.17832
G1 X192.635 Y36.143 E0.00235
G1 X192.744 Y36.033 E0.00488
G1 X192.744 Y30.645 E0.16892
;WIPE_START
G1 F8640.000
G1 X192.656 Y30.497 E-0.03991
G1 X192.627 Y30.427 E-0.01732
G1 X192.627 Y27.384 E-0.70277
;WIPE_END
G1 E-0.04000 F2100.000
G1 Z0.600 F10800.000
G1 X216.389 Y24.918
G1 Z0.200
G1 E0.80000 F2100.000
G1 F1200.000
G1 X216.566 Y24.742 E0.00781
G1 X222.022 Y24.742 E0.17108
G1 X222.281 Y25.002 E0.01150
G1 X222.497 Y24.786 E0.00957
G1 X227.953 Y24.786 E0.17108
M73 Q2 S11
G1 X228.064 Y24.896 E0.00490
G1 X228.064 Y30.352 E0.17108
M73 P2 R11
G1 X227.924 Y30.492 E0.00621
G1 X227.924 Y36.033 E0.17372
G1 X227.735 Y36.221 E0.00835
G1 X227.897 Y36.383 E0.00716
G1 X227.897 Y41.839 E0.17108
G1 X227.786 Y41.949 E0.00490
G1 X222.330 Y41.949 E0.17108
G1 X222.160 Y41.779 E0.00757
G1 X221.971 Y41.967 E0.00837
G1 X216.515 Y41.967 E0.17108
G1 X216.292 Y41.744 E0.00990
G1 X216.079 Y41.956 E0.00941
G1 X210.623 Y41.956 E0.17108
G1 X210.472 Y41.806 E0.00668
G1 X210.267 Y42.011 E0.00909
G1 X204.811 Y42.011 E0.17108
G1 X204.613 Y41.812 E0.00880
G1 X199.026 Y41.812 E0.17518
G1 X198.829 Y41.615 E0.00873
G1 X198.550 Y41.894 E0.01237
G1 X193.093 Y41.894 E0.17108
G1 X192.983 Y41.784 E0.00490
G1 X192.983 Y36.327 E0.17108
G1 X193.215 Y36.096 E0.01028
G1 X193.122 Y36.002 E0.00413
G1 X193.122 Y30.429 E0.17475
G1 X193.004 Y30.312 E0.00520
G1 X193.004 Y24.856 E0.17108
G1 X193.115 Y24.745 E0.00490
G1 X198.571 Y24.745 E0.17108
G1 X198.821 Y24.995 E0.01108
G1 X199.009 Y24.807 E0.00835
G1 X204.465 Y24.807 E0.17108
G1 X204.620 Y24.962 E0.00687
G1 X204.790 Y24.793 E0.00750
G1 X210.246 Y24.793 E0.17108
G1 X210.425 Y24.972 E0.00797
G1 X210.706 Y24.691 E0.01246
G1 X216.163 Y24.691 E0.17108
G1 X216.347 Y24.876 E0.00817
; printing object lens1.stl id:17 copy 0
;WIPE_START
G1 F8640.000
G1 X216.566 Y24.742 E-0.05916
G1 X219.601 Y24.742 E-0.70084
;WIPE_END
G1 E-0.04000 F2100.000
G1 Z0.600 F10800.000
G1 X198.261 Y36.616
G1 Z0.200
G1 E0.80000 F2100.000
;TYPE:External perimeter
G1 F1200.000
G1 X198.261 Y41.496 E0.15301
G1 X193.381 Y41.496 E0.15301
G1 X193.381 Y36.616 E0.15301
G1 X198.201 Y36.616 E0.15113
G1 X198.158 Y37.002 F10800.000
G1 X197.884 Y36.993
;TYPE:Perimeter
G1 F1200.000
G1 X197.884 Y41.118 E0.12936
G1 X193.759 Y41.118 E0.12936
M73 Q3 S11
G1 X193.759 Y36.993 E0.12936
M73 P3 R11
G1 X197.824 Y36.993 E0.12748
;WIPE_START
G1 F8640.000
G1 X197.872 Y40.284 E-0.76000
;WIPE_END
G1 E-0.04000 F2100.000
G1 Z0.600 F10800.000
G1 X197.602 Y40.836
G1 Z0.200
G1 E0.80000 F2100.000
;TYPE:Solid infill
;WIDTH:0.438502
G1 F1200.000
G1 X194.041 Y40.836 E0.11711
G1 X194.041 Y37.275 E0.11711
G1 X197.602 Y37.275 E0.11711
G1 X197.602 Y40.776 E0.11513
G1 X197.206 Y40.440 F10800.000
G1 F1200.000
G1 X194.437 Y40.440 E0.09108
G1 X194.437 Y37.671 E0.09108
G1 X197.206 Y37.671 E0.09108
G1 X197.206 Y40.380 E0.08911
G1 X196.810 Y40.045 F10800.000
G1 F1200.000
G1 X194.832 Y40.045 E0.06506
G1 X194.832 Y38.067 E0.06506
G1 X196.810 Y38.067 E0.06506
G1 X196.810 Y39.985 E0.06309
G1 X196.415 Y39.649 F10800.000
G1 F1200.000
G1 X195.228 Y39.649 E0.03904
G1 X195.228 Y38.462 E0.03904
G1 X196.415 Y38.462 E0.03904
G1 X196.415 Y39.589 E0.03706
G1 X196.019 Y39.253 F10800.000
G1 F1200.000
G1 X195.624 Y39.253 E0.01301
G1 X195.624 Y38.858 E0.01301
G1 X196.019 Y38.858 E0.01301
G1 X196.019 Y39.193 E0.01104
; stop printing object lens1.stl id:17 copy 0
; printing object lens1.stl id:16 copy 0
;WIPE_START
G1 F8640.000
G1 X196.019 Y38.858 E-0.07749
G1 X195.624 Y38.858 E-0.09134
G1 X195.624 Y39.253 E-0.09134
G1 X196.019 Y39.253 E-0.09134
;WIPE_END
G1 E-0.44848 F2100.000
G1 Z0.600 F10800.000
G1 X199.314 Y41.414
G1 Z0.200
G1 E0.80000 F2100.000
;TYPE:External perimeter
;WIDTH:0.42
G1 F1200.000
G1 X199.314 Y36.534 E0.15301
G1 X204.194 Y36.534 E0.15301
G1 X204.194 Y41.414 E0.15301
G1 X199.374 Y41.414 E0.15113
G1 X199.417 Y41.027 F10800.000
G1 X199.691 Y41.036
;TYPE:Perimeter
G1 F1200.000
G1 X199.691 Y36.911 E0.12936
G1 X203.817 Y36.911 E0.12936
G1 X203.817 Y41.036 E0.12936
G1 X199.751 Y41.036 E0.12748
;WIPE_START
G1 F8640.000
G1 X199.703 Y37.745 E-0.76000
;WIPE_END
G1 E-0.04000 F2100.000
G1 Z0.600 F10800.000
G1 X203.534 Y40.754
G1 Z0.200
G1 E0.80000 F2100.000
;TYPE:Solid infill
;WIDTH:0.438502
G1 F1200.000
G1 X199.973 Y40.754 E0.11711
G1 X199.973 Y37.193 E0.11711
G1 X203.534 Y37.193 E0.11711
G1 X203.534 Y40.694 E0.11513
G1 X203.138 Y40.358 F10800.000
G1 F1200.000
G1 X200.369 Y40.358 E0.09108
G1 X200.369 Y37.589 E0.09108
M73 Q4 S11
G1 X203.138 Y37.589 E0.09108
G1 X203.138 Y40.298 E0.08911
M73 P4 R11
G1 X202.743 Y39.962 F10800.000
G1 F1200.000
G1 X200.765 Y39.962 E0.06506
G1 X200.765 Y37.985 E0.06506
G1 X202.743 Y37.985 E0.06506
G1 X202.743 Y39.902 E0.06309
G1 X202.347 Y39.567 F10800.000
G1 F1200.000
G1 X201.160 Y39.567 E0.03904
G1 X201.160 Y38.380 E0.03904
G1 X202.347 Y38.380 E0.03904
G1 X202.347 Y39.507 E0.03706
G1 X201.951 Y39.171 F10800.000
G1 F1200.000
G1 X201.556 Y39.171 E0.01301
G1 X201.556 Y38.776 E0.01301
G1 X201.951 Y38.776 E0.01301
G1 X201.951 Y39.111 E0.01104
; stop printing object lens1.stl id:16 copy 0
; printing object lens1.stl id:15 copy 0
;WIPE_START
G1 F8640.000
G1 X201.951 Y38.776 E-0.07749
G1 X201.556 Y38.776 E-0.09134
G1 X201.556 Y39.171 E-0.09134
G1 X201.951 Y39.171 E-0.09134
;WIPE_END
G1 E-0.44848 F2100.000
G1 Z0.600 F10800.000
G1 X205.099 Y36.732
G1 Z0.200
G1 E0.80000 F2100.000
;TYPE:External perimeter
;WIDTH:0.42
G1 F1200.000
G1 X209.979 Y36.732 E0.15301
G1 X209.979 Y41.612 E0.15301
G1 X205.099 Y41.612 E0.15301
G1 X205.099 Y36.792 E0.15113
G1 X205.486 Y36.836 F10800.000
G1 X205.476 Y37.109
;TYPE:Perimeter
G1 F1200.000
G1 X209.602 Y37.109 E0.12936
G1 X209.602 Y41.235 E0.12936
G1 X205.476 Y41.235 E0.12936
G1 X205.476 Y37.169 E0.12748
;WIPE_START
G1 F8640.000
G1 X208.767 Y37.121 E-0.76000
;WIPE_END
G1 E-0.04000 F2100.000
G1 Z0.600 F10800.000
G1 X209.319 Y40.952
G1 Z0.200
G1 E0.80000 F2100.000
;TYPE:Solid infill
;WIDTH:0.438502
G1 F1200.000
G1 X205.759 Y40.952 E0.11711
G1 X205.759 Y37.392 E0.11711
G1 X209.319 Y37.392 E0.11711
G1 X209.319 Y40.892 E0.11513
G1 X208.924 Y40.557 F10800.000
G1 F1200.000
G1 X206.155 Y40.557 E0.09108
G1 X206.155 Y37.788 E0.09108
G1 X208.924 Y37.788 E0.09108
G1 X208.924 Y40.497 E0.08911
G1 X208.528 Y40.161 F10800.000
G1 F1200.000
G1 X206.550 Y40.161 E0.06506
G1 X206.550 Y38.183 E0.06506
G1 X208.528 Y38.183 E0.06506
G1 X208.528 Y40.101 E0.06309
G1 X208.133 Y39.765 F10800.000
G1 F1200.000
G1 X206.946 Y39.765 E0.03904
G1 X206.946 Y38.579 E0.03904
G1 X208.133 Y38.579 E0.03904
G1 X208.133 Y39.705 E0.03706
G1 X207.737 Y39.370 F10800.000
G1 F1200.000
G1 X207.341 Y39.370 E0.01301
G1 X207.341 Y38.974 E0.01301
G1 X207.737 Y38.974 E0.01301
G1 X207.737 Y39.310 E0.01104
; stop printing object lens1.stl id:15 copy 0
; printing object lens1.stl id:14 copy 0
;WIPE_START
G1 F8640.000
G1 X207.737 Y38.974 E-0.07749
G1 X207.341 Y38.974 E-0.09134
G1 X207.341 Y39.370 E-0.09134
G1 X207.737 Y39.370 E-0.09134
;WIPE_END
G1 E-0.44848 F2100.000
G1 Z0.600 F10800.000
G1 X210.911 Y41.558
G1 Z0.200
G1 E0.80000 F2100.000
;TYPE:External perimeter
;WIDTH:0.42
G1 F1200.000
G1 X210.911 Y36.678 E0.15301
G1 X215.791 Y36.678 E0.15301
M73 Q5 S11
G1 X215.791 Y41.558 E0.15301
M73 P5 R11
G1 X210.971 Y41.558 E0.15113
G1 X211.015 Y41.171 F10800.000
G1 X211.288 Y41.181
;TYPE:Perimeter
G1 F1200.000
G1 X211.288 Y37.055 E0.12936
G1 X215.414 Y37.055 E0.12936
G1 X215.414 Y41.181 E0.12936
G1 X211.348 Y41.181 E0.12748
;WIPE_START
G1 F8640.000
G1 X211.300 Y37.890 E-0.76000
;WIPE_END
G1 E-0.04000 F2100.000
G1 Z0.600 F10800.000
G1 X215.131 Y40.898
G1 Z0.200
G1 E0.80000 F2100.000
;TYPE:Solid infill
;WIDTH:0.438502
G1 F1200.000
G1 X211.571 Y40.898 E0.11711
G1 X211.571 Y37.338 E0.11711
G1 X215.131 Y37.338 E0.11711
G1 X215.131 Y40.838 E0.11513
G1 X214.736 Y40.502 F10800.000
G1 F1200.000
G1 X211.967 Y40.502 E0.09108
G1 X211.967 Y37.733 E0.09108
G1 X214.736 Y37.733 E0.09108
G1 X214.736 Y40.442 E0.08911
G1 X214.340 Y40.107 F10800.000
G1 F1200.000
G1 X212.362 Y40.107 E0.06506
G1 X212.362 Y38.129 E0.06506
G1 X214.340 Y38.129 E0.06506
G1 X214.340 Y40.047 E0.06309
G1 X213.945 Y39.711 F10800.000
G1 F1200.000
G1 X212.758 Y39.711 E0.03904
G1 X212.758 Y38.524 E0.03904
G1 X213.945 Y38.524 E0.03904
G1 X213.945 Y39.651 E0.03706
G1 X213.549 Y39.316 F10800.000
G1 F1200.000
G1 X213.153 Y39.316 E0.01301
G1 X213.153 Y38.920 E0.01301
G1 X213.549 Y38.920 E0.01301
G1 X213.549 Y39.256 E0.01104
; stop printing object lens1.stl id:14 copy 0
; printing object lens1.stl id:13 copy 0
;WIPE_START
G1 F8640.000
G1 X213.549 Y38.920 E-0.07749
G1 X213.153 Y38.920 E-0.09134
G1 X213.153 Y39.316 E-0.09134
G1 X213.549 Y39.316 E-0.09134
;WIPE_END
G1 E-0.44848 F2100.000
G1 Z0.600 F10800.000
G1 X216.803 Y41.569
G1 Z0.200
G1 E0.80000 F2100.000
;TYPE:External perimeter
;WIDTH:0.42
G1 F1200.000
G1 X216.803 Y36.689 E0.15301
G1 X221.683 Y36.689 E0.15301
G1 X221.683 Y41.569 E0.15301
G1 X216.863 Y41.569 E0.15113
G1 X216.906 Y41.182 F10800.000
G1 X217.180 Y41.192
;TYPE:Perimeter
G1 F1200.000
G1 X217.180 Y37.066 E0.12936
G1 X221.306 Y37.066 E0.12936
G1 X221.306 Y41.192 E0.12936
G1 X217.240 Y41.192 E0.12748
;WIPE_START
G1 F8640.000
G1 X217.192 Y37.901 E-0.76000
;WIPE_END
G1 E-0.04000 F2100.000
G1 Z0.600 F10800.000
G1 X221.023 Y40.909
G1 Z0.200
M73 Q6 S11
G1 E0.80000 F2100.000
;TYPE:Solid infill
;WIDTH:0.438502
G1 F1200.000
G1 X217.463 Y40.909 E0.11711
M73 P6 R11
G1 X217.463 Y37.349 E0.11711
G1 X221.023 Y37.349 E0.11711
G1 X221.023 Y40.849 E0.11513
G1 X220.627 Y40.513 F10800.000
G1 F1200.000
G1 X217.858 Y40.513 E0.09108
G1 X217.858 Y37.744 E0.09108
G1 X220.627 Y37.744 E0.09108
G1 X220.627 Y40.453 E0.08911
G1 X220.232 Y40.118 F10800.000
G1 F1200.000
G1 X218.254 Y40.118 E0.06506
G1 X218.254 Y38.140 E0.06506
G1 X220.232 Y38.140 E0.06506
G1 X220.232 Y40.058 E0.06309
G1 X219.836 Y39.722 F10800.000
G1 F1200.000
G1 X218.649 Y39.722 E0.03904
G1 X218.649 Y38.535 E0.03904
G1 X219.836 Y38.535 E0.03904
G1 X219.836 Y39.662 E0.03706
G1 X219.441 Y39.327 F10800.000
G1 F1200.000
G1 X219.045 Y39.327 E0.01301
G1 X219.045 Y38.931 E0.01301
G1 X219.441 Y38.931 E0.01301
G1 X219.441 Y39.267 E0.01104
; stop printing object lens1.stl id:13 copy 0
; printing object lens1.stl id:12 copy 0
;WIPE_START
G1 F8640.000
G1 X219.441 Y38.931 E-0.07749
G1 X219.045 Y38.931 E-0.09134
G1 X219.045 Y39.327 E-0.09134
G1 X219.441 Y39.327 E-0.09134
;WIPE_END
G1 E-0.44848 F2100.000
G1 Z0.600 F10800.000
G1 X222.618 Y41.551
G1 Z0.200
G1 E0.80000 F2100.000
;TYPE:External perimeter
;WIDTH:0.42
G1 F1200.000
G1 X222.618 Y36.671 E0.15301
G1 X227.498 Y36.671 E0.15301
G1 X227.498 Y41.551 E0.15301
G1 X222.678 Y41.551 E0.15113
G1 X222.722 Y41.164 F10800.000
G1 X222.995 Y41.174
;TYPE:Perimeter
G1 F1200.000
G1 X222.995 Y37.048 E0.12936
G1 X227.121 Y37.048 E0.12936
G1 X227.121 Y41.174 E0.12936
G1 X223.055 Y41.174 E0.12748
;WIPE_START
G1 F8640.000
G1 X223.008 Y37.883 E-0.76000
;WIPE_END
G1 E-0.04000 F2100.000
G1 Z0.600 F10800.000
G1 X226.838 Y40.891
G1 Z0.200
G1 E0.80000 F2100.000
;TYPE:Solid infill
;WIDTH:0.438502
G1 F1200.000
G1 X223.278 Y40.891 E0.11711
G1 X223.278 Y37.331 E0.11711
G1 X226.838 Y37.331 E0.11711
G1 X226.838 Y40.831 E0.11513
G1 X226.443 Y40.495 F10800.000
G1 F1200.000
G1 X223.674 Y40.495 E0.09108
G1 X223.674 Y37.726 E0.09108
G1 X226.443 Y37.726 E0.09108
G1 X226.443 Y40.435 E0.08911
G1 X226.047 Y40.100 F10800.000
G1 F1200.000
G1 X224.069 Y40.100 E0.06506
G1 X224.069 Y38.122 E0.06506
G1 X226.047 Y38.122 E0.06506
G1 X226.047 Y40.040 E0.06309
G1 X225.652 Y39.704 F10800.000
G1 F1200.000
G1 X224.465 Y39.704 E0.03904
G1 X224.465 Y38.517 E0.03904
M73 Q7 S11
G1 X225.652 Y38.517 E0.03904
M73 P7 R11
G1 X225.652 Y39.644 E0.03706
G1 X225.256 Y39.309 F10800.000
G1 F1200.000
G1 X224.861 Y39.309 E0.01301
G1 X224.861 Y38.913 E0.01301
G1 X225.256 Y38.913 E0.01301
G1 X225.256 Y39.249 E0.01104
; stop printing object lens1.stl id:12 copy 0
; printing object lens1.stl id:6 copy 0
;WIPE_START
G1 F8640.000
G1 X225.256 Y38.913 E-0.07749
G1 X224.861 Y38.913 E-0.09134
G1 X224.861 Y39.309 E-0.09134
G1 X225.256 Y39.309 E-0.09134
;WIPE_END
G1 E-0.44848 F2100.000
G1 Z0.600 F10800.000
G1 X227.525 Y35.745
G1 Z0.200
G1 E0.80000 F2100.000
;TYPE:External perimeter
;WIDTH:0.42
G1 F1200.000
G1 X222.645 Y35.745 E0.15301
G1 X222.645 Y30.865 E0.15301
G1 X227.525 Y30.865 E0.15301
G1 X227.525 Y35.685 E0.15113
G1 X227.139 Y35.641 F10800.000
G1 X227.148 Y35.368
;TYPE:Perimeter
G1 F1200.000
G1 X223.022 Y35.368 E0.12936
G1 X223.022 Y31.242 E0.12936
G1 X227.148 Y31.242 E0.12936
G1 X227.148 Y35.308 E0.12748
G1 X226.865 Y35.085 F10800.000
;TYPE:Solid infill
;WIDTH:0.438502
G1 F1200.000
G1 X223.305 Y35.085 E0.11711
G1 X223.305 Y31.525 E0.11711
G1 X226.865 Y31.525 E0.11711
G1 X226.865 Y35.025 E0.11513
G1 X226.470 Y34.689 F10800.000
G1 F1200.000
G1 X223.700 Y34.689 E0.09108
G1 X223.700 Y31.920 E0.09108
G1 X226.470 Y31.920 E0.09108
G1 X226.470 Y34.629 E0.08911
G1 X226.074 Y34.294 F10800.000
G1 F1200.000
G1 X224.096 Y34.294 E0.06506
G1 X224.096 Y32.316 E0.06506
G1 X226.074 Y32.316 E0.06506
G1 X226.074 Y34.234 E0.06309
G1 X225.678 Y33.898 F10800.000
G1 F1200.000
