; generated by PrusaSlicer 2.3.1+win64 on 2023-06-14 at 19:09:39 UTC

; 

; external perimeters extrusion width = 0.45mm
; perimeters extrusion width = 0.45mm
; infill extrusion width = 0.45mm
; solid infill extrusion width = 0.45mm
; top infill extrusion width = 0.40mm
; first layer extrusion width = 0.42mm

M73 P0 R6
M73 Q0 S6
M201 X1000 Y1000 Z200 E5000 ; sets maximum accelerations, mm/sec^2
M203 X200 Y200 Z12 E120 ; sets maximum feedrates, mm/sec
M204 P1250 R1250 T1250 ; sets acceleration (P, T) and retract acceleration (R), mm/sec^2
M205 X8.00 Y8.00 Z0.40 E4.50 ; sets the jerk limits, mm/sec
M205 S0 T0 ; sets the minimum extruding and travel feed rate, mm/sec
M107
;TYPE:Custom
M862.3 P "MK3S" ; printer model check
M862.1 P0.4 ; nozzle diameter check
M115 U3.9.3 ; tell printer latest fw version
G90 ; use absolute coordinates
M83 ; extruder relative mode
M104 S205 ; set extruder temp
M140 S67 ; set bed temp
M190 S67 ; wait for bed temp
M109 S205 ; wait for extruder temp
G28 W ; home all without mesh bed level
G80 ; mesh bed leveling
G1 Y-3.0 F1000.0 ; go outside print area
G92 E0.0
G1 X60.0 E9.0 F1000.0 ; intro line
M73 P1 R6
M73 Q1 S6
G1 X100.0 E12.5 F1000.0 ; intro line
G92 E0.0
M221 S95

; Don't change E values below. Excessive value can damage the printer.
M907 E430 ; set extruder motor current
G21 ; set units to millimeters
G90 ; use absolute coordinates
M83 ; use relative distances for extrusion
M900 K0.05 ; Filament gcode LA 1.5
M900 K30 ; Filament gcode LA 1.0
;LAYER_CHANGE
;Z:0.2
;HEIGHT:0.2
;BEFORE_LAYER_CHANGE
G92 E0.0
;0.2


G1 E-0.80000 F2100.000
G1 Z0.400 F10800.000
;AFTER_LAYER_CHANGE
;0.2
G1 X199.019 Y24.006
M73 Q2 S6
G1 Z0.200
G1 E0.80000 F2100.000
M204 S1000
;TYPE:Skirt
;WIDTH:0.42
G1 F1200.000
G1 X199.293 Y23.732 E0.01215
G1 X199.362 Y23.703 E0.00235
G1 X205.049 Y23.703 E0.17832
M73 P2 R6
G1 X205.206 Y23.768 E0.00530
G1 X205.362 Y23.703 E0.00530
G1 X211.049 Y23.703 E0.17832
G1 X211.206 Y23.768 E0.00530
G1 X211.362 Y23.703 E0.00530
G1 X217.049 Y23.703 E0.17832
G1 X217.206 Y23.768 E0.00530
G1 X217.362 Y23.703 E0.00530
G1 X228.848 Y23.712 E0.36015
G1 X228.979 Y23.766 E0.00442
G1 X234.707 Y23.766 E0.17962
G1 X234.809 Y23.808 E0.00344
G1 X234.948 Y23.750 E0.00474
G1 X240.636 Y23.750 E0.17832
G1 X240.705 Y23.779 E0.00235
G1 X240.979 Y24.053 E0.01215
G1 X241.008 Y24.122 E0.00235
G1 X241.008 Y29.810 E0.17832
G1 X240.979 Y29.879 E0.00235
G1 X240.705 Y30.153 E0.01215
G1 X240.636 Y30.182 E0.00235
G1 X234.948 Y30.182 E0.17832
G1 X234.847 Y30.140 E0.00344
G1 X234.707 Y30.197 E0.00474
G1 X229.020 Y30.197 E0.17832
G1 X228.890 Y30.143 E0.00442
G1 X217.362 Y30.134 E0.36145
M73 Q3 S6
G1 X217.206 Y30.070 E0.00531
G1 X217.049 Y30.134 E0.00530
G1 X211.362 Y30.134 E0.17832
M73 P3 R6
G1 X211.206 Y30.070 E0.00530
G1 X211.049 Y30.134 E0.00530
G1 X205.362 Y30.134 E0.17832
G1 X205.206 Y30.070 E0.00530
G1 X205.049 Y30.134 E0.00530
G1 X199.362 Y30.134 E0.17832
G1 X199.293 Y30.106 E0.00235
G1 X199.019 Y29.832 E0.01215
G1 X198.990 Y29.762 E0.00235
G1 X198.996 Y24.061 E0.17876
G1 X199.367 Y24.191 F10800.000
G1 F1200.000
G1 X199.478 Y24.080 E0.00490
G1 X204.934 Y24.080 E0.17108
G1 X205.206 Y24.352 E0.01206
G1 X205.478 Y24.080 E0.01206
G1 X210.934 Y24.080 E0.17108
G1 X211.206 Y24.352 E0.01206
G1 X211.478 Y24.080 E0.01206
G1 X216.934 Y24.080 E0.17108
G1 X217.206 Y24.352 E0.01206
G1 X217.478 Y24.080 E0.01206
G1 X222.934 Y24.080 E0.17108
G1 X223.110 Y24.256 E0.00781
G1 X223.277 Y24.089 E0.00740
G1 X228.733 Y24.089 E0.17108
G1 X228.961 Y24.318 E0.01013
G1 X229.136 Y24.143 E0.00773
G1 X234.592 Y24.143 E0.17108
G1 X234.820 Y24.371 E0.01012
G1 X235.064 Y24.127 E0.01082
G1 X240.520 Y24.127 E0.17108
G1 X240.631 Y24.238 E0.00490
M73 Q4 S6
G1 X240.631 Y29.694 E0.17108
M73 P4 R6
G1 X240.520 Y29.804 E0.00490
G1 X235.064 Y29.804 E0.17108
G1 X234.836 Y29.576 E0.01012
G1 X234.592 Y29.820 E0.01082
G1 X229.136 Y29.820 E0.17108
G1 X228.907 Y29.592 E0.01013
G1 X228.733 Y29.766 E0.00773
G1 X223.277 Y29.766 E0.17108
G1 X223.101 Y29.590 E0.00781
G1 X222.934 Y29.757 E0.00740
G1 X217.478 Y29.757 E0.17108
G1 X217.206 Y29.485 E0.01206
G1 X216.934 Y29.757 E0.01206
G1 X211.478 Y29.757 E0.17108
G1 X211.206 Y29.485 E0.01206
G1 X210.934 Y29.757 E0.01206
G1 X205.478 Y29.757 E0.17108
G1 X205.206 Y29.485 E0.01206
G1 X204.934 Y29.757 E0.01206
G1 X199.478 Y29.757 E0.17108
G1 X199.367 Y29.647 E0.00490
G1 X199.367 Y24.251 E0.16919
; printing object lens1.stl id:4 copy 0
G1 X199.766 Y24.479 F10800.000
;TYPE:External perimeter
G1 F1200.000
G1 X204.646 Y24.479 E0.15301
G1 X204.646 Y29.359 E0.15301
G1 X199.766 Y29.359 E0.15301
G1 X199.766 Y24.539 E0.15113
M73 Q5 S6
G1 X200.152 Y24.582 F10800.000
G1 X200.143 Y24.856
;TYPE:Perimeter
M73 P5 R6
G1 F1200.000
G1 X204.269 Y24.856 E0.12936
G1 X204.269 Y28.982 E0.12936
G1 X200.143 Y28.982 E0.12936
G1 X200.143 Y24.916 E0.12748
;WIPE_START
G1 F8640.000
G1 X203.434 Y24.868 E-0.76000
;WIPE_END
G1 E-0.04000 F2100.000
G1 Z0.600 F10800.000
G1 X203.986 Y28.699
G1 Z0.200
G1 E0.80000 F2100.000
;TYPE:Solid infill
;WIDTH:0.438502
G1 F1200.000
G1 X200.425 Y28.699 E0.11711
G1 X200.425 Y25.139 E0.11711
G1 X203.986 Y25.139 E0.11711
G1 X203.986 Y28.639 E0.11513
G1 X203.590 Y28.303 F10800.000
G1 F1200.000
G1 X200.821 Y28.303 E0.09108
G1 X200.821 Y25.534 E0.09108
G1 X203.590 Y25.534 E0.09108
G1 X203.590 Y28.243 E0.08911
G1 X203.195 Y27.908 F10800.000
G1 F1200.000
G1 X201.217 Y27.908 E0.06506
G1 X201.217 Y25.930 E0.06506
G1 X203.195 Y25.930 E0.06506
G1 X203.195 Y27.848 E0.06309
G1 X202.799 Y27.512 F10800.000
G1 F1200.000
G1 X201.612 Y27.512 E0.03904
G1 X201.612 Y26.325 E0.03904
G1 X202.799 Y26.325 E0.03904
G1 X202.799 Y27.452 E0.03706
G1 X202.403 Y27.117 F10800.000
G1 F1200.000
G1 X202.008 Y27.117 E0.01301
G1 X202.008 Y26.721 E0.01301
G1 X202.403 Y26.721 E0.01301
M73 Q6 S6
G1 X202.403 Y27.057 E0.01104
; stop printing object lens1.stl id:4 copy 0
; printing object lens1.stl id:3 copy 0
;WIPE_START
G1 F8640.000
G1 X202.403 Y26.721 E-0.07749
G1 X202.008 Y26.721 E-0.09134
G1 X202.008 Y27.117 E-0.09134
G1 X202.403 Y27.117 E-0.09134
;WIPE_END
M73 P6 R6
G1 E-0.44848 F2100.000
G1 Z0.600 F10800.000
G1 X205.766 Y29.359
G1 Z0.200
G1 E0.80000 F2100.000
;TYPE:External perimeter
;WIDTH:0.42
G1 F1200.000
G1 X205.766 Y24.479 E0.15301
G1 X210.646 Y24.479 E0.15301
G1 X210.646 Y29.359 E0.15301
G1 X205.826 Y29.359 E0.15113
G1 X205.869 Y28.972 F10800.000
G1 X206.143 Y28.982
;TYPE:Perimeter
G1 F1200.000
G1 X206.143 Y24.856 E0.12936
G1 X210.269 Y24.856 E0.12936
G1 X210.269 Y28.982 E0.12936
G1 X206.203 Y28.982 E0.12748
;WIPE_START
G1 F8640.000
G1 X206.155 Y25.691 E-0.76000
;WIPE_END
G1 E-0.04000 F2100.000
G1 Z0.600 F10800.000
G1 X209.986 Y28.699
G1 Z0.200
G1 E0.80000 F2100.000
;TYPE:Solid infill
;WIDTH:0.438502
G1 F1200.000
G1 X206.425 Y28.699 E0.11711
G1 X206.425 Y25.139 E0.11711
G1 X209.986 Y25.139 E0.11711
G1 X209.986 Y28.639 E0.11513
G1 X209.590 Y28.303 F10800.000
G1 F1200.000
G1 X206.821 Y28.303 E0.09108
M73 Q7 S6
G1 X206.821 Y25.534 E0.09108
M73 P7 R6
G1 X209.590 Y25.534 E0.09108
G1 X209.590 Y28.243 E0.08911
G1 X209.195 Y27.908 F10800.000
G1 F1200.000
G1 X207.217 Y27.908 E0.06506
G1 X207.217 Y25.930 E0.06506
G1 X209.195 Y25.930 E0.06506
G1 X209.195 Y27.848 E0.06309
G1 X208.799 Y27.512 F10800.000
G1 F1200.000
G1 X207.612 Y27.512 E0.03904
G1 X207.612 Y26.325 E0.03904
G1 X208.799 Y26.325 E0.03904
G1 X208.799 Y27.452 E0.03706
G1 X208.403 Y27.117 F10800.000
G1 F1200.000
G1 X208.008 Y27.117 E0.01301
G1 X208.008 Y26.721 E0.01301
G1 X208.403 Y26.721 E0.01301
G1 X208.403 Y27.057 E0.01104
; stop printing object lens1.stl id:3 copy 0
; printing object lens1.stl id:2 copy 0
;WIPE_START
G1 F8640.000
G1 X208.403 Y26.721 E-0.07749
G1 X208.008 Y26.721 E-0.09134
G1 X208.008 Y27.117 E-0.09134
G1 X208.403 Y27.117 E-0.09134
;WIPE_END
G1 E-0.44848 F2100.000
G1 Z0.600 F10800.000
G1 X211.766 Y29.359
G1 Z0.200
G1 E0.80000 F2100.000
;TYPE:External perimeter
;WIDTH:0.42
G1 F1200.000
G1 X211.766 Y24.479 E0.15301
G1 X216.646 Y24.479 E0.15301
G1 X216.646 Y29.359 E0.15301
G1 X211.826 Y29.359 E0.15113
G1 X211.869 Y28.972 F10800.000
G1 X212.143 Y28.982
;TYPE:Perimeter
G1 F1200.000
G1 X212.143 Y24.856 E0.12936
G1 X216.269 Y24.856 E0.12936
G1 X216.269 Y28.982 E0.12936
G1 X212.203 Y28.982 E0.12748
;WIPE_START
M73 P8 R6
M73 Q8 S6
G1 F8640.000
G1 X212.155 Y25.691 E-0.76000
;WIPE_END
G1 E-0.04000 F2100.000
G1 Z0.600 F10800.000
G1 X215.986 Y28.699
G1 Z0.200
G1 E0.80000 F2100.000
;TYPE:Solid infill
;WIDTH:0.438502
G1 F1200.000
G1 X212.425 Y28.699 E0.11711
G1 X212.425 Y25.139 E0.11711
G1 X215.986 Y25.139 E0.11711
G1 X215.986 Y28.639 E0.11513
M73 P8 R5
G1 X215.590 Y28.303 F10800.000
G1 F1200.000
G1 X212.821 Y28.303 E0.09108
G1 X212.821 Y25.534 E0.09108
G1 X215.590 Y25.534 E0.09108
G1 X215.590 Y28.243 E0.08911
G1 X215.195 Y27.908 F10800.000
G1 F1200.000
G1 X213.217 Y27.908 E0.06506
G1 X213.217 Y25.930 E0.06506
G1 X215.195 Y25.930 E0.06506
G1 X215.195 Y27.848 E0.06309
G1 X214.799 Y27.512 F10800.000
G1 F1200.000
G1 X213.612 Y27.512 E0.03904
G1 X213.612 Y26.325 E0.03904
G1 X214.799 Y26.325 E0.03904
G1 X214.799 Y27.452 E0.03706
G1 X214.403 Y27.117 F10800.000
G1 F1200.000
G1 X214.008 Y27.117 E0.01301
G1 X214.008 Y26.721 E0.01301
G1 X214.403 Y26.721 E0.01301
G1 X214.403 Y27.057 E0.01104
; stop printing object lens1.stl id:2 copy 0
; printing object lens1.stl id:1 copy 0
;WIPE_START
G1 F8640.000
G1 X214.403 Y26.721 E-0.07749
G1 X214.008 Y26.721 E-0.09134
G1 X214.008 Y27.117 E-0.09134
G1 X214.403 Y27.117 E-0.09134
;WIPE_END
G1 E-0.44848 F2100.000
G1 Z0.600 F10800.000
G1 X217.766 Y29.359
G1 Z0.200
G1 E0.80000 F2100.000
;TYPE:External perimeter
;WIDTH:0.42
G1 F1200.000
G1 X217.766 Y24.479 E0.15301
G1 X222.646 Y24.479 E0.15301
M73 P9 R5
M73 Q9 S6
G1 X222.646 Y29.359 E0.15301
G1 X217.826 Y29.359 E0.15113
G1 X217.869 Y28.972 F10800.000
G1 X218.143 Y28.982
;TYPE:Perimeter
G1 F1200.000
G1 X218.143 Y24.856 E0.12936
M73 Q9 S5
G1 X222.269 Y24.856 E0.12936
G1 X222.269 Y28.982 E0.12936
G1 X218.203 Y28.982 E0.12748
;WIPE_START
G1 F8640.000
G1 X218.155 Y25.691 E-0.76000
;WIPE_END
G1 E-0.04000 F2100.000
G1 Z0.600 F10800.000
G1 X221.986 Y28.699
G1 Z0.200
G1 E0.80000 F2100.000
;TYPE:Solid infill
;WIDTH:0.438502
G1 F1200.000
G1 X218.425 Y28.699 E0.11711
G1 X218.425 Y25.139 E0.11711
G1 X221.986 Y25.139 E0.11711
G1 X221.986 Y28.639 E0.11513
G1 X221.590 Y28.303 F10800.000
G1 F1200.000
G1 X218.821 Y28.303 E0.09108
G1 X218.821 Y25.534 E0.09108
G1 X221.590 Y25.534 E0.09108
G1 X221.590 Y28.243 E0.08911
G1 X221.195 Y27.908 F10800.000
G1 F1200.000
G1 X219.217 Y27.908 E0.06506
G1 X219.217 Y25.930 E0.06506
G1 X221.195 Y25.930 E0.06506
G1 X221.195 Y27.848 E0.06309
M73 P10 R5
M73 Q10 S5
G1 X220.799 Y27.512 F10800.000
G1 F1200.000
G1 X219.612 Y27.512 E0.03904
G1 X219.612 Y26.325 E0.03904
G1 X220.799 Y26.325 E0.03904
G1 X220.799 Y27.452 E0.03706
G1 X220.403 Y27.117 F10800.000
G1 F1200.000
G1 X220.008 Y27.117 E0.01301
G1 X220.008 Y26.721 E0.01301
G1 X220.403 Y26.721 E0.01301
G1 X220.403 Y27.057 E0.01104
; stop printing object lens1.stl id:1 copy 0
; printing object lens1.stl id:0 copy 0
;WIPE_START
G1 F8640.000
G1 X220.403 Y26.721 E-0.07749
G1 X220.008 Y26.721 E-0.09134
G1 X220.008 Y27.117 E-0.09134
G1 X220.403 Y27.117 E-0.09134
;WIPE_END
G1 E-0.44848 F2100.000
G1 Z0.600 F10800.000
G1 X223.565 Y29.368
G1 Z0.200
G1 E0.80000 F2100.000
;TYPE:External perimeter
;WIDTH:0.42
G1 F1200.000
G1 X223.565 Y24.488 E0.15301
G1 X228.445 Y24.488 E0.15301
G1 X228.445 Y29.368 E0.15301
G1 X223.625 Y29.368 E0.15113
G1 X223.668 Y28.981 F10800.000
G1 X223.942 Y28.991
;TYPE:Perimeter
G1 F1200.000
G1 X223.942 Y24.865 E0.12936
G1 X228.068 Y24.865 E0.12936
G1 X228.068 Y28.991 E0.12936
G1 X224.002 Y28.991 E0.12748
;WIPE_START
G1 F8640.000
G1 X223.954 Y25.700 E-0.76000
;WIPE_END
G1 E-0.04000 F2100.000
G1 Z0.600 F10800.000
G1 X227.785 Y28.708
G1 Z0.200
G1 E0.80000 F2100.000
;TYPE:Solid infill
;WIDTH:0.438502
G1 F1200.000
G1 X224.225 Y28.708 E0.11711
G1 X224.225 Y25.148 E0.11711
M73 P11 R5
M73 Q11 S5
G1 X227.785 Y25.148 E0.11711
G1 X227.785 Y28.648 E0.11513
G1 X227.389 Y28.312 F10800.000
G1 F1200.000
G1 X224.620 Y28.312 E0.09108
G1 X224.620 Y25.543 E0.09108
G1 X227.389 Y25.543 E0.09108
G1 X227.389 Y28.252 E0.08911
G1 X226.994 Y27.917 F10800.000
G1 F1200.000
G1 X225.016 Y27.917 E0.06506
G1 X225.016 Y25.939 E0.06506
G1 X226.994 Y25.939 E0.06506
G1 X226.994 Y27.857 E0.06309
G1 X226.598 Y27.521 F10800.000
G1 F1200.000
G1 X225.411 Y27.521 E0.03904
G1 X225.411 Y26.334 E0.03904
G1 X226.598 Y26.334 E0.03904
G1 X226.598 Y27.461 E0.03706
G1 X226.203 Y27.126 F10800.000
G1 F1200.000
G1 X225.807 Y27.126 E0.01301
G1 X225.807 Y26.730 E0.01301
G1 X226.203 Y26.730 E0.01301
G1 X226.203 Y27.066 E0.01104
; stop printing object lens1.stl id:0 copy 0
; printing object lens1.stl id:5 copy 0
;WIPE_START
G1 F8640.000
G1 X226.203 Y26.730 E-0.07749
G1 X225.807 Y26.730 E-0.09134
G1 X225.807 Y27.126 E-0.09134
G1 X226.203 Y27.126 E-0.09134
;WIPE_END
G1 E-0.44848 F2100.000
G1 Z0.600 F10800.000
G1 X229.424 Y29.422
G1 Z0.200
G1 E0.80000 F2100.000
;TYPE:External perimeter
;WIDTH:0.42
G1 F1200.000
G1 X229.424 Y24.542 E0.15301
G1 X234.304 Y24.542 E0.15301
G1 X234.304 Y29.422 E0.15301
G1 X229.484 Y29.422 E0.15113
G1 X229.527 Y29.035 F10800.000
G1 X229.801 Y29.045
;TYPE:Perimeter
G1 F1200.000
G1 X229.801 Y24.919 E0.12936
G1 X233.927 Y24.919 E0.12936
M73 P12 R5
M73 Q12 S5
G1 X233.927 Y29.045 E0.12936
G1 X229.861 Y29.045 E0.12748
;WIPE_START
G1 F8640.000
G1 X229.813 Y25.754 E-0.76000
;WIPE_END
G1 E-0.04000 F2100.000
G1 Z0.600 F10800.000
G1 X233.644 Y28.762
G1 Z0.200
G1 E0.80000 F2100.000
;TYPE:Solid infill
;WIDTH:0.438502
G1 F1200.000
G1 X230.084 Y28.762 E0.11711
G1 X230.084 Y25.202 E0.11711
G1 X233.644 Y25.202 E0.11711
G1 X233.644 Y28.702 E0.11513
G1 X233.248 Y28.366 F10800.000
G1 F1200.000
G1 X230.479 Y28.366 E0.09108
G1 X230.479 Y25.597 E0.09108
G1 X233.248 Y25.597 E0.09108
G1 X233.248 Y28.306 E0.08911
G1 X232.853 Y27.971 F10800.000
G1 F1200.000
G1 X230.875 Y27.971 E0.06506
G1 X230.875 Y25.993 E0.06506
G1 X232.853 Y25.993 E0.06506
G1 X232.853 Y27.911 E0.06309
G1 X232.457 Y27.575 F10800.000
G1 F1200.000
G1 X231.270 Y27.575 E0.03904
G1 X231.270 Y26.388 E0.03904
G1 X232.457 Y26.388 E0.03904
G1 X232.457 Y27.515 E0.03706
G1 X232.062 Y27.180 F10800.000
G1 F1200.000
G1 X231.666 Y27.180 E0.01301
G1 X231.666 Y26.784 E0.01301
G1 X232.062 Y26.784 E0.01301
G1 X232.062 Y27.120 E0.01104
; stop printing object lens1.stl id:5 copy 0
; printing object lens1.stl id:6 copy 0
;WIPE_START
G1 F8640.000
G1 X232.062 Y26.784 E-0.07749
G1 X231.666 Y26.784 E-0.09134
G1 X231.666 Y27.180 E-0.09134
G1 X232.062 Y27.180 E-0.09134
;WIPE_END
G1 E-0.44848 F2100.000
G1 Z0.600 F10800.000
G1 X235.352 Y29.406
M73 P13 R5
G1 Z0.200
G1 E0.80000 F2100.000
;TYPE:External perimeter
;WIDTH:0.42
M73 Q13 S5
G1 F1200.000
G1 X235.352 Y24.526 E0.15301
G1 X240.232 Y24.526 E0.15301
G1 X240.232 Y29.406 E0.15301
G1 X235.412 Y29.406 E0.15113
G1 X235.456 Y29.020 F10800.000
G1 X235.729 Y29.029
;TYPE:Perimeter
G1 F1200.000
G1 X235.729 Y24.903 E0.12936
G1 X239.855 Y24.903 E0.12936
G1 X239.855 Y29.029 E0.12936
G1 X235.789 Y29.029 E0.12748
;WIPE_START
G1 F8640.000
G1 X235.741 Y25.738 E-0.76000
;WIPE_END
G1 E-0.04000 F2100.000
G1 Z0.600 F10800.000
G1 X239.572 Y28.746
G1 Z0.200
G1 E0.80000 F2100.000
;TYPE:Solid infill
;WIDTH:0.438502
G1 F1200.000
G1 X236.012 Y28.746 E0.11711
G1 X236.012 Y25.186 E0.11711
G1 X239.572 Y25.186 E0.11711
G1 X239.572 Y28.686 E0.11513
G1 X239.177 Y28.350 F10800.000
G1 F1200.000
G1 X236.408 Y28.350 E0.09108
G1 X236.408 Y25.581 E0.09108
G1 X239.177 Y25.581 E0.09108
M73 P14 R5
G1 X239.177 Y28.290 E0.08911
M73 Q14 S5
G1 X238.781 Y27.955 F10800.000
G1 F1200.000
G1 X236.803 Y27.955 E0.06506
G1 X236.803 Y25.977 E0.06506
G1 X238.781 Y25.977 E0.06506
G1 X238.781 Y27.895 E0.06309
G1 X238.386 Y27.559 F10800.000
G1 F1200.000
G1 X237.199 Y27.559 E0.03904
G1 X237.199 Y26.373 E0.03904
G1 X238.386 Y26.373 E0.03904
G1 X238.386 Y27.499 E0.03706
G1 X237.990 Y27.164 F10800.000
G1 F1200.000
G1 X237.594 Y27.164 E0.01301
G1 X237.594 Y26.768 E0.01301
G1 X237.990 Y26.768 E0.01301
G1 X237.990 Y27.104 E0.01104
