; generated by PrusaSlicer 2.3.1+win64 on 2023-03-27 at 17:58:39 UTC

; 

; external perimeters extrusion width = 0.45mm
; perimeters extrusion width = 0.45mm
; infill extrusion width = 0.45mm
; solid infill extrusion width = 0.45mm
; top infill extrusion width = 0.40mm
; first layer extrusion width = 0.42mm

M73 P0 R4
M73 Q0 S4
M201 X1000 Y1000 Z200 E5000 ; sets maximum accelerations, mm/sec^2
M203 X200 Y200 Z12 E120 ; sets maximum feedrates, mm/sec
M204 P1250 R1250 T1250 ; sets acceleration (P, T) and retract acceleration (R), mm/sec^2
M205 X8.00 Y8.00 Z0.40 E4.50 ; sets the jerk limits, mm/sec
M205 S0 T0 ; sets the minimum extruding and travel feed rate, mm/sec
M107
;TYPE:Custom
M862.3 P "MK3S" ; printer model check
M862.1 P0.4 ; nozzle diameter check
M115 U3.9.3 ; tell printer latest fw version
G90 ; use absolute coordinates
M83 ; extruder relative mode
M104 S205 ; set extruder temp
M140 S67 ; set bed temp
M190 S67 ; wait for bed temp
M109 S205 ; wait for extruder temp
G28 W ; home all without mesh bed level
G80 ; mesh bed leveling
G1 Y-3.0 F1000.0 ; go outside print area
G92 E0.0
G1 X60.0 E9.0 F1000.0 ; intro line
M73 P1 R4
M73 Q1 S4
G1 X100.0 E12.5 F1000.0 ; intro line
G92 E0.0
M221 S95

; Don't change E values below. Excessive value can damage the printer.
M907 E430 ; set extruder motor current
G21 ; set units to millimeters
G90 ; use absolute coordinates
M83 ; use relative distances for extrusion
M900 K0.05 ; Filament gcode LA 1.5
M900 K30 ; Filament gcode LA 1.0
;LAYER_CHANGE
;Z:0.2
;HEIGHT:0.2
;BEFORE_LAYER_CHANGE
G92 E0.0
;0.2


M73 P2 R4
M73 Q2 S4
G1 E-0.80000 F2100.000
G1 Z0.400 F10800.000
;AFTER_LAYER_CHANGE
;0.2
G1 X199.019 Y24.006
G1 Z0.200
G1 E0.80000 F2100.000
M204 S1000
;TYPE:Skirt
;WIDTH:0.42
G1 F1200.000
G1 X199.293 Y23.732 E0.01215
G1 X199.362 Y23.703 E0.00235
G1 X205.049 Y23.703 E0.17832
G1 X205.206 Y23.768 E0.00530
G1 X205.362 Y23.703 E0.00530
G1 X211.049 Y23.703 E0.17832
M73 Q3 S4
G1 X211.206 Y23.768 E0.00530
G1 X211.362 Y23.703 E0.00530
G1 X217.049 Y23.703 E0.17832
M73 P3 R4
G1 X217.206 Y23.768 E0.00530
G1 X217.362 Y23.703 E0.00530
G1 X223.049 Y23.703 E0.17832
G1 X223.206 Y23.768 E0.00530
G1 X223.362 Y23.703 E0.00530
G1 X229.049 Y23.703 E0.17832
G1 X229.119 Y23.732 E0.00235
G1 X229.393 Y24.006 E0.01215
G1 X229.421 Y24.075 E0.00235
G1 X229.421 Y29.762 E0.17832
G1 X229.393 Y29.832 E0.00235
G1 X229.119 Y30.106 E0.01215
G1 X229.049 Y30.134 E0.00235
G1 X223.362 Y30.134 E0.17832
G1 X223.206 Y30.070 E0.00530
G1 X223.049 Y30.134 E0.00530
G1 X217.362 Y30.134 E0.17832
G1 X217.206 Y30.070 E0.00530
G1 X217.049 Y30.134 E0.00530
G1 X211.362 Y30.134 E0.17832
G1 X211.206 Y30.070 E0.00530
G1 X211.049 Y30.134 E0.00530
G1 X205.362 Y30.134 E0.17832
M73 Q4 S4
G1 X205.206 Y30.070 E0.00530
G1 X205.049 Y30.134 E0.00530
G1 X199.362 Y30.134 E0.17832
M73 P4 R4
G1 X199.293 Y30.106 E0.00235
G1 X199.019 Y29.832 E0.01215
G1 X198.990 Y29.762 E0.00235
G1 X198.996 Y24.061 E0.17876
G1 X199.367 Y24.191 F10800.000
G1 F1200.000
G1 X199.478 Y24.080 E0.00490
G1 X204.934 Y24.080 E0.17108
G1 X205.206 Y24.352 E0.01206
G1 X205.477 Y24.080 E0.01206
G1 X210.934 Y24.080 E0.17108
G1 X211.206 Y24.352 E0.01206
G1 X211.477 Y24.080 E0.01206
G1 X216.934 Y24.080 E0.17108
G1 X217.206 Y24.352 E0.01206
G1 X217.477 Y24.080 E0.01206
G1 X222.934 Y24.080 E0.17108
G1 X223.206 Y24.352 E0.01206
G1 X223.477 Y24.080 E0.01206
G1 X228.934 Y24.080 E0.17108
G1 X229.044 Y24.191 E0.00490
G1 X229.044 Y29.647 E0.17108
G1 X228.934 Y29.757 E0.00490
G1 X223.477 Y29.757 E0.17108
M73 Q5 S4
G1 X223.206 Y29.485 E0.01206
G1 X222.934 Y29.757 E0.01206
G1 X217.477 Y29.757 E0.17108
M73 P5 R4
G1 X217.206 Y29.485 E0.01206
G1 X216.934 Y29.757 E0.01206
G1 X211.477 Y29.757 E0.17108
G1 X211.206 Y29.485 E0.01206
G1 X210.934 Y29.757 E0.01206
G1 X205.477 Y29.757 E0.17108
G1 X205.206 Y29.485 E0.01206
G1 X204.934 Y29.757 E0.01206
G1 X199.478 Y29.757 E0.17108
G1 X199.367 Y29.647 E0.00490
G1 X199.367 Y24.251 E0.16919
; printing object lens1.stl id:0 copy 0
;WIPE_START
G1 F8640.000
G1 X199.478 Y24.080 E-0.04690
G1 X202.566 Y24.080 E-0.71310
;WIPE_END
G1 E-0.04000 F2100.000
G1 Z0.600 F10800.000
G1 X223.766 Y24.479
G1 Z0.200
G1 E0.80000 F2100.000
;TYPE:External perimeter
G1 F1200.000
G1 X228.646 Y24.479 E0.15301
M73 Q6 S4
G1 X228.646 Y29.359 E0.15301
G1 X223.766 Y29.359 E0.15301
M73 P6 R4
G1 X223.766 Y24.539 E0.15113
G1 X224.152 Y24.582 F10800.000
G1 X224.143 Y24.856
;TYPE:Perimeter
G1 F1200.000
G1 X228.269 Y24.856 E0.12936
G1 X228.269 Y28.982 E0.12936
G1 X224.143 Y28.982 E0.12936
G1 X224.143 Y24.916 E0.12748
;WIPE_START
G1 F8640.000
G1 X227.434 Y24.868 E-0.76000
;WIPE_END
G1 E-0.04000 F2100.000
G1 Z0.600 F10800.000
G1 X227.986 Y28.699
G1 Z0.200
G1 E0.80000 F2100.000
;TYPE:Solid infill
;WIDTH:0.438502
G1 F1200.000
G1 X224.425 Y28.699 E0.11711
G1 X224.425 Y25.139 E0.11711
G1 X227.986 Y25.139 E0.11711
M73 Q7 S4
G1 X227.986 Y28.639 E0.11513
G1 X227.590 Y28.303 F10800.000
G1 F1200.000
G1 X224.821 Y28.303 E0.09108
M73 P7 R4
G1 X224.821 Y25.534 E0.09108
G1 X227.590 Y25.534 E0.09108
G1 X227.590 Y28.243 E0.08911
G1 X227.195 Y27.908 F10800.000
G1 F1200.000
G1 X225.217 Y27.908 E0.06506
G1 X225.217 Y25.930 E0.06506
G1 X227.195 Y25.930 E0.06506
G1 X227.195 Y27.848 E0.06309
G1 X226.799 Y27.512 F10800.000
G1 F1200.000
G1 X225.612 Y27.512 E0.03904
G1 X225.612 Y26.325 E0.03904
G1 X226.799 Y26.325 E0.03904
G1 X226.799 Y27.452 E0.03706
G1 X226.403 Y27.117 F10800.000
G1 F1200.000
G1 X226.008 Y27.117 E0.01301
G1 X226.008 Y26.721 E0.01301
G1 X226.403 Y26.721 E0.01301
G1 X226.403 Y27.057 E0.01104
; stop printing object lens1.stl id:0 copy 0
; printing object lens1.stl id:1 copy 0
;WIPE_START
G1 F8640.000
G1 X226.403 Y26.721 E-0.07749
G1 X226.008 Y26.721 E-0.09134
G1 X226.008 Y27.117 E-0.09134
G1 X226.403 Y27.117 E-0.09134
;WIPE_END
G1 E-0.44848 F2100.000
G1 Z0.600 F10800.000
G1 X222.646 Y29.359
G1 Z0.200
G1 E0.80000 F2100.000
;TYPE:External perimeter
;WIDTH:0.42
G1 F1200.000
G1 X217.766 Y29.359 E0.15301
G1 X217.766 Y24.479 E0.15301
G1 X222.646 Y24.479 E0.15301
M73 P8 R4
M73 Q8 S4
G1 X222.646 Y29.299 E0.15113
G1 X222.259 Y29.255 F10800.000
G1 X222.269 Y28.982
;TYPE:Perimeter
G1 F1200.000
G1 X218.143 Y28.982 E0.12936
G1 X218.143 Y24.856 E0.12936
G1 X222.269 Y24.856 E0.12936
G1 X222.269 Y28.922 E0.12748
G1 X221.986 Y28.699 F10800.000
;TYPE:Solid infill
;WIDTH:0.438502
G1 F1200.000
G1 X218.425 Y28.699 E0.11711
G1 X218.425 Y25.139 E0.11711
G1 X221.986 Y25.139 E0.11711
G1 X221.986 Y28.639 E0.11513
G1 X221.590 Y28.303 F10800.000
G1 F1200.000
G1 X218.821 Y28.303 E0.09108
G1 X218.821 Y25.534 E0.09108
G1 X221.590 Y25.534 E0.09108
G1 X221.590 Y28.243 E0.08911
M73 Q9 S4
G1 X221.195 Y27.908 F10800.000
G1 F1200.000
G1 X219.217 Y27.908 E0.06506
M73 P9 R4
G1 X219.217 Y25.930 E0.06506
G1 X221.195 Y25.930 E0.06506
G1 X221.195 Y27.848 E0.06309
G1 X220.799 Y27.512 F10800.000
G1 F1200.000
G1 X219.612 Y27.512 E0.03904
G1 X219.612 Y26.325 E0.03904
G1 X220.799 Y26.325 E0.03904
G1 X220.799 Y27.452 E0.03706
G1 X220.403 Y27.117 F10800.000
G1 F1200.000
G1 X220.008 Y27.117 E0.01301
G1 X220.008 Y26.721 E0.01301
G1 X220.403 Y26.721 E0.01301
G1 X220.403 Y27.057 E0.01104
; stop printing object lens1.stl id:1 copy 0
; printing object lens1.stl id:2 copy 0
;WIPE_START
G1 F8640.000
G1 X220.403 Y26.721 E-0.07749
G1 X220.008 Y26.721 E-0.09134
G1 X220.008 Y27.117 E-0.09134
G1 X220.403 Y27.117 E-0.09134
;WIPE_END
G1 E-0.44848 F2100.000
G1 Z0.600 F10800.000
G1 X216.646 Y29.359
G1 Z0.200
G1 E0.80000 F2100.000
;TYPE:External perimeter
;WIDTH:0.42
G1 F1200.000
G1 X211.766 Y29.359 E0.15301
G1 X211.766 Y24.479 E0.15301
G1 X216.646 Y24.479 E0.15301
G1 X216.646 Y29.299 E0.15113
G1 X216.259 Y29.255 F10800.000
G1 X216.269 Y28.982
;TYPE:Perimeter
G1 F1200.000
G1 X212.143 Y28.982 E0.12936
M73 Q10 S4
G1 X212.143 Y24.856 E0.12936
M73 P10 R4
G1 X216.269 Y24.856 E0.12936
G1 X216.269 Y28.922 E0.12748
G1 X215.986 Y28.699 F10800.000
;TYPE:Solid infill
;WIDTH:0.438502
G1 F1200.000
G1 X212.425 Y28.699 E0.11711
G1 X212.425 Y25.139 E0.11711
G1 X215.986 Y25.139 E0.11711
G1 X215.986 Y28.639 E0.11513
G1 X215.590 Y28.303 F10800.000
G1 F1200.000
G1 X212.821 Y28.303 E0.09108
G1 X212.821 Y25.534 E0.09108
G1 X215.590 Y25.534 E0.09108
G1 X215.590 Y28.243 E0.08911
G1 X215.195 Y27.908 F10800.000
G1 F1200.000
G1 X213.217 Y27.908 E0.06506
G1 X213.217 Y25.930 E0.06506
G1 X215.195 Y25.930 E0.06506
G1 X215.195 Y27.848 E0.06309
G1 X214.799 Y27.512 F10800.000
G1 F1200.000
G1 X213.612 Y27.512 E0.03904
G1 X213.612 Y26.325 E0.03904
M73 Q11 S4
G1 X214.799 Y26.325 E0.03904
G1 X214.799 Y27.452 E0.03706
M73 P11 R4
G1 X214.403 Y27.117 F10800.000
G1 F1200.000
G1 X214.008 Y27.117 E0.01301
G1 X214.008 Y26.721 E0.01301
G1 X214.403 Y26.721 E0.01301
G1 X214.403 Y27.057 E0.01104
; stop printing object lens1.stl id:2 copy 0
; printing object lens1.stl id:3 copy 0
;WIPE_START
G1 F8640.000
G1 X214.403 Y26.721 E-0.07749
G1 X214.008 Y26.721 E-0.09134
G1 X214.008 Y27.117 E-0.09134
G1 X214.403 Y27.117 E-0.09134
;WIPE_END
G1 E-0.44848 F2100.000
G1 Z0.600 F10800.000
G1 X210.646 Y29.359
G1 Z0.200
G1 E0.80000 F2100.000
;TYPE:External perimeter
;WIDTH:0.42
G1 F1200.000
G1 X205.766 Y29.359 E0.15301
G1 X205.766 Y24.479 E0.15301
G1 X210.646 Y24.479 E0.15301
G1 X210.646 Y29.299 E0.15113
G1 X210.259 Y29.255 F10800.000
G1 X210.269 Y28.982
;TYPE:Perimeter
G1 F1200.000
G1 X206.143 Y28.982 E0.12936
G1 X206.143 Y24.856 E0.12936
G1 X210.269 Y24.856 E0.12936
G1 X210.269 Y28.922 E0.12748
M73 Q12 S4
G1 X209.986 Y28.699 F10800.000
;TYPE:Solid infill
;WIDTH:0.438502
G1 F1200.000
G1 X206.425 Y28.699 E0.11711
M73 P12 R4
G1 X206.425 Y25.139 E0.11711
G1 X209.986 Y25.139 E0.11711
G1 X209.986 Y28.639 E0.11513
G1 X209.590 Y28.303 F10800.000
G1 F1200.000
G1 X206.821 Y28.303 E0.09108
G1 X206.821 Y25.534 E0.09108
G1 X209.590 Y25.534 E0.09108
G1 X209.590 Y28.243 E0.08911
G1 X209.195 Y27.908 F10800.000
G1 F1200.000
G1 X207.217 Y27.908 E0.06506
G1 X207.217 Y25.930 E0.06506
G1 X209.195 Y25.930 E0.06506
G1 X209.195 Y27.848 E0.06309
G1 X208.799 Y27.512 F10800.000
G1 F1200.000
G1 X207.612 Y27.512 E0.03904
G1 X207.612 Y26.325 E0.03904
G1 X208.799 Y26.325 E0.03904
G1 X208.799 Y27.452 E0.03706
G1 X208.403 Y27.117 F10800.000
G1 F1200.000
G1 X208.008 Y27.117 E0.01301
G1 X208.008 Y26.721 E0.01301
G1 X208.403 Y26.721 E0.01301
G1 X208.403 Y27.057 E0.01104
; stop printing object lens1.stl id:3 copy 0
; printing object lens1.stl id:4 copy 0
;WIPE_START
G1 F8640.000
G1 X208.403 Y26.721 E-0.07749
G1 X208.008 Y26.721 E-0.09134
G1 X208.008 Y27.117 E-0.09134
G1 X208.403 Y27.117 E-0.09134
;WIPE_END
G1 E-0.44848 F2100.000
G1 Z0.600 F10800.000
G1 X204.646 Y29.359
G1 Z0.200
M73 Q13 S4
G1 E0.80000 F2100.000
;TYPE:External perimeter
;WIDTH:0.42
G1 F1200.000
G1 X199.766 Y29.359 E0.15301
M73 P13 R4
G1 X199.766 Y24.479 E0.15301
G1 X204.646 Y24.479 E0.15301
G1 X204.646 Y29.299 E0.15113
G1 X204.259 Y29.255 F10800.000
G1 X204.269 Y28.982
;TYPE:Perimeter
G1 F1200.000
G1 X200.143 Y28.982 E0.12936
G1 X200.143 Y24.856 E0.12936
G1 X204.269 Y24.856 E0.12936
G1 X204.269 Y28.922 E0.12748
G1 X203.986 Y28.699 F10800.000
;TYPE:Solid infill
;WIDTH:0.438502
G1 F1200.000
G1 X200.425 Y28.699 E0.11711
G1 X200.425 Y25.139 E0.11711
G1 X203.986 Y25.139 E0.11711
G1 X203.986 Y28.639 E0.11513
M73 P14 R4
M73 Q14 S4
G1 X203.590 Y28.303 F10800.000
G1 F1200.000
G1 X200.821 Y28.303 E0.09108
G1 X200.821 Y25.534 E0.09108
G1 X203.590 Y25.534 E0.09108
G1 X203.590 Y28.243 E0.08911
G1 X203.195 Y27.908 F10800.000
G1 F1200.000
G1 X201.217 Y27.908 E0.06506
G1 X201.217 Y25.930 E0.06506
G1 X203.195 Y25.930 E0.06506
G1 X203.195 Y27.848 E0.06309
G1 X202.799 Y27.512 F10800.000
G1 F1200.000
G1 X201.612 Y27.512 E0.03904
G1 X201.612 Y26.325 E0.03904
G1 X202.799 Y26.325 E0.03904
G1 X202.799 Y27.452 E0.03706
G1 X202.403 Y27.117 F10800.000
G1 F1200.000
G1 X202.008 Y27.117 E0.01301
G1 X202.008 Y26.721 E0.01301
G1 X202.403 Y26.721 E0.01301
G1 X202.403 Y27.057 E0.01104
; stop printing object lens1.stl id:4 copy 0
M106 S84.15
;LAYER_CHANGE
;Z:0.4
;HEIGHT:0.2
;BEFORE_LAYER_CHANGE
G92 E0.0
;0.4


;WIPE_START
G1 F8640.000
G1 X202.403 Y26.721 E-0.07749
G1 X202.008 Y26.721 E-0.09134
G1 X202.008 Y27.117 E-0.09134
G1 X202.403 Y27.117 E-0.09134
;WIPE_END
G1 E-0.44848 F2100.000
G1 Z0.600 F10800.000
;AFTER_LAYER_CHANGE
;0.4
M104 S200 ; set temperature
M140 S64 ; set bed temperature
; printing object lens1.stl id:0 copy 0
G1 X224.188 Y28.937
G1 Z0.400
G1 E0.80000 F2100.000
M204 S800
;TYPE:Perimeter
;WIDTH:0.45
G1 F1500.000
G1 X224.188 Y24.901 E0.13661
G1 X228.224 Y24.901 E0.13661
G1 X228.224 Y28.937 E0.13661
M73 P15 R4
M73 Q15 S4
G1 X224.248 Y28.937 E0.13458
M204 S1000
G1 X223.781 Y29.344 F10800.000
M204 S800
;TYPE:External perimeter
G1 F1500.000
G1 X223.781 Y24.494 E0.16417
G1 X228.631 Y24.494 E0.16417
G1 X228.631 Y29.344 E0.16417
G1 X223.841 Y29.344 E0.16214
M204 S1000
G1 X223.884 Y28.957 F10800.000
;WIPE_START
G1 F8640.000
G1 X223.800 Y26.053 E-0.76000
;WIPE_END
G1 E-0.04000 F2100.000
G1 Z0.800 F10800.000
G1 X225.153 Y25.023
G1 Z0.400
G1 E0.80000 F2100.000
;TYPE:Solid infill
;WIDTH:0.459819
G1 F1551
G1 X224.493 Y25.683 E0.03238
G1 X224.493 Y26.273 E0.02044
G1 X225.560 Y25.206 E0.05230
G1 X226.149 Y25.206 E0.02044
G1 X224.493 Y26.863 E0.08120
G1 X224.493 Y27.452 E0.02044
G1 X226.739 Y25.206 E0.11011
G1 X227.329 Y25.206 E0.02044
G1 X224.493 Y28.042 E0.13901
G1 X224.493 Y28.631 E0.02044
G1 X227.918 Y25.206 E0.16792
G1 X227.918 Y25.796 E0.02044
G1 X225.083 Y28.631 E0.13902
G1 X225.672 Y28.631 E0.02044
M73 Q16 S4
G1 X227.918 Y26.385 E0.11011
M73 P16 R4
G1 X227.918 Y26.975 E0.02044
G1 X226.262 Y28.631 E0.08121
G1 X226.851 Y28.631 E0.02044
G1 X227.918 Y27.564 E0.05231
G1 X227.918 Y28.154 E0.02044
G1 X227.258 Y28.815 E0.03238
; stop printing object lens1.stl id:0 copy 0
; printing object lens1.stl id:1 copy 0
;WIPE_START
G1 F8640.000
G1 X227.918 Y28.154 E-0.21570
G1 X227.918 Y27.564 E-0.13614
G1 X226.851 Y28.631 E-0.34841
G1 X226.592 Y28.631 E-0.05975
;WIPE_END
G1 E-0.04000 F2100.000
G1 Z0.800 F10800.000
G1 X222.224 Y28.815
G1 Z0.400
G1 E0.80000 F2100.000
M204 S800
;TYPE:Perimeter
;WIDTH:0.45
G1 F1500.000
G1 X222.224 Y28.937 E0.00413
G1 X218.188 Y28.937 E0.13661
G1 X218.188 Y24.901 E0.13661
G1 X222.224 Y24.901 E0.13661
G1 X222.224 Y28.755 E0.13044
M204 S1000
G1 X222.631 Y29.344 F10800.000
M204 S800
;TYPE:External perimeter
G1 F1500.000
G1 X217.781 Y29.344 E0.16417
G1 X217.781 Y24.494 E0.16417
G1 X222.631 Y24.494 E0.16417
G1 X222.631 Y29.284 E0.16214
M204 S1000
G1 X222.244 Y29.240 F10800.000
;WIPE_START
G1 F8640.000
G1 X219.339 Y29.324 E-0.76000
;WIPE_END
M73 Q17 S4
G1 E-0.04000 F2100.000
G1 Z0.800 F10800.000
M73 P17 R4
G1 X219.153 Y25.023
G1 Z0.400
G1 E0.80000 F2100.000
;TYPE:Solid infill
;WIDTH:0.459819
G1 F1551
G1 X218.493 Y25.683 E0.03238
G1 X218.493 Y26.273 E0.02044
G1 X219.560 Y25.206 E0.05230
G1 X220.149 Y25.206 E0.02044
G1 X218.493 Y26.863 E0.08120
G1 X218.493 Y27.452 E0.02044
G1 X220.739 Y25.206 E0.11011
G1 X221.329 Y25.206 E0.02044
G1 X218.493 Y28.042 E0.13901
G1 X218.493 Y28.631 E0.02044
G1 X221.918 Y25.206 E0.16792
G1 X221.918 Y25.796 E0.02044
G1 X219.083 Y28.631 E0.13902
G1 X219.672 Y28.631 E0.02044
G1 X221.918 Y26.385 E0.11011
G1 X221.918 Y26.975 E0.02044
G1 X220.262 Y28.631 E0.08121
G1 X220.851 Y28.631 E0.02044
G1 X221.918 Y27.564 E0.05231
G1 X221.918 Y28.154 E0.02044
G1 X221.258 Y28.815 E0.03238
; stop printing object lens1.stl id:1 copy 0
; printing object lens1.stl id:2 copy 0
;WIPE_START
G1 F8640.000
G1 X221.918 Y28.154 E-0.21570
G1 X221.918 Y27.564 E-0.13614
G1 X220.851 Y28.631 E-0.34841
G1 X220.592 Y28.631 E-0.05975
;WIPE_END
G1 E-0.04000 F2100.000
G1 Z0.800 F10800.000
G1 X216.224 Y28.815
G1 Z0.400
G1 E0.80000 F2100.000
M204 S800
;TYPE:Perimeter
;WIDTH:0.45
G1 F1500.000
G1 X216.224 Y28.937 E0.00413
G1 X212.188 Y28.937 E0.13661
G1 X212.188 Y24.901 E0.13661
M73 P18 R4
M73 Q18 S4
G1 X216.224 Y24.901 E0.13661
G1 X216.224 Y28.755 E0.13044
M204 S1000
G1 X216.631 Y29.344 F10800.000
M204 S800
;TYPE:External perimeter
G1 F1500.000
G1 X211.781 Y29.344 E0.16417
G1 X211.781 Y24.494 E0.16417
G1 X216.631 Y24.494 E0.16417
G1 X216.631 Y29.284 E0.16214
M204 S1000
G1 X216.244 Y29.240 F10800.000
;WIPE_START
