; generated by PrusaSlicer 2.3.1+win64 on 2023-04-27 at 21:08:41 UTC

; 

; external perimeters extrusion width = 0.60mm
; perimeters extrusion width = 0.50mm
; infill extrusion width = 0.50mm
; solid infill extrusion width = 0.50mm
; top infill extrusion width = 0.45mm
; first layer extrusion width = 0.42mm

M73 P0 R19
M73 Q0 S19
M201 X1000 Y1000 Z200 E5000 ; sets maximum accelerations, mm/sec^2
M203 X200 Y200 Z12 E120 ; sets maximum feedrates, mm/sec
M204 P1250 R1250 T1250 ; sets acceleration (P, T) and retract acceleration (R), mm/sec^2
M205 X8.00 Y8.00 Z0.40 E4.50 ; sets the jerk limits, mm/sec
M205 S0 T0 ; sets the minimum extruding and travel feed rate, mm/sec
M107
;TYPE:Custom
M862.3 P "MK3S" ; printer model check
M862.1 P0.4 ; nozzle diameter check
M115 U3.9.3 ; tell printer latest fw version
G90 ; use absolute coordinates
M83 ; extruder relative mode
M104 S205 ; set extruder temp
M140 S67 ; set bed temp
M190 S67 ; wait for bed temp
M109 S205 ; wait for extruder temp
G28 W ; home all without mesh bed level
G80 ; mesh bed leveling
G1 Y-3.0 F1000.0 ; go outside print area
G92 E0.0
G1 X60.0 E9.0 F1000.0 ; intro line
G1 X100.0 E12.5 F1000.0 ; intro line
G92 E0.0
M221 S95

; Don't change E values below. Excessive value can damage the printer.

M907 E538 ; set extruder motor current
G21 ; set units to millimeters
G90 ; use absolute coordinates
M83 ; use relative distances for extrusion
M900 K0.05 ; Filament gcode LA 1.5
M900 K30 ; Filament gcode LA 1.0
;LAYER_CHANGE
;Z:0.2
;HEIGHT:0.2
;BEFORE_LAYER_CHANGE
G92 E0.0
;0.2


G1 E-0.80000 F2100.000
G1 Z0.400 F10800.000
;AFTER_LAYER_CHANGE
;0.2
; printing object magnet_holder_v3.1.stl id:0 copy 0
G1 X195.695 Y41.701
G1 Z0.200
G1 E0.80000 F2100.000
M204 S1000
;TYPE:Perimeter
;WIDTH:0.42
G1 F1200.000
G1 X198.656 Y31.830 E0.32312
G1 X206.754 Y31.834 E0.25391
G1 X206.754 Y41.706 E0.30953
G1 X195.755 Y41.701 E0.34487
G1 X195.188 Y42.078 F10800.000
G1 F1200.000
G1 X198.375 Y31.453 E0.34781
G1 X207.131 Y31.457 E0.27453
G1 X207.131 Y42.083 E0.33318
G1 X195.248 Y42.078 E0.37259
M73 Q1 S19
G1 X194.681 Y42.455 F10800.000
G1 F1200.000
G1 X198.095 Y31.076 E0.37249
M73 P1 R19
G1 X207.508 Y31.080 E0.29515
G1 X207.508 Y42.460 E0.35682
G1 X194.741 Y42.455 E0.40030
;WIPE_START
G1 F8640.000
G1 X195.672 Y39.298 E-0.76000
;WIPE_END
G1 E-0.04000 F2100.000
G1 Z0.600 F10800.000
G1 X211.076 Y30.602
G1 Z0.200
G1 E0.80000 F2100.000
G1 F1200.000
G1 X211.357 Y30.356 E0.01171
G1 X211.508 Y30.176 E0.00737
G1 X211.508 Y30.602 E0.01337
G1 X211.136 Y30.602 E0.01166
;WIPE_START
G1 F8640.000
G1 X211.357 Y30.356 E-0.07637
G1 X211.508 Y30.176 E-0.05430
G1 X211.508 Y30.602 E-0.09849
G1 X211.136 Y30.602 E-0.08585
;WIPE_END
G1 E-0.48500 F2100.000
G1 Z0.600 F10800.000
G1 X211.508 Y27.353
G1 Z0.200
G1 E0.80000 F2100.000
G1 F1200.000
G1 X211.164 Y26.989 E0.01571
G1 X211.076 Y26.931 E0.00330
G1 X211.508 Y26.931 E0.01354
G1 X211.508 Y27.293 E0.01136
;WIPE_START
G1 F8640.000
G1 X211.164 Y26.989 E-0.10606
G1 X211.076 Y26.931 E-0.02429
G1 X211.508 Y26.931 E-0.09970
G1 X211.508 Y27.293 E-0.08366
;WIPE_END
G1 E-0.48629 F2100.000
G1 Z0.600 F10800.000
G1 X211.508 Y42.931
G1 Z0.200
G1 E0.80000 F2100.000
G1 F1200.000
G1 X211.508 Y43.353 E0.01324
G1 X211.164 Y42.989 E0.01571
G1 X211.076 Y42.931 E0.00330
G1 X211.448 Y42.931 E0.01166
;WIPE_START
G1 F8640.000
G1 X211.508 Y43.353 E-0.09849
G1 X211.164 Y42.989 E-0.11571
G1 X211.076 Y42.931 E-0.02429
G1 X211.448 Y42.931 E-0.08585
;WIPE_END
G1 E-0.47566 F2100.000
G1 Z0.600 F10800.000
G1 X211.508 Y46.176
G1 Z0.200
G1 E0.80000 F2100.000
G1 F1200.000
G1 X211.508 Y46.602 E0.01337
G1 X211.076 Y46.602 E0.01354
G1 X211.357 Y46.356 E0.01171
G1 X211.469 Y46.222 E0.00549
;WIPE_START
G1 F8640.000
G1 X211.508 Y46.602 E-0.08833
G1 X211.076 Y46.602 E-0.09970
G1 X211.357 Y46.356 E-0.08623
G1 X211.469 Y46.222 E-0.04044
;WIPE_END
G1 E-0.48530 F2100.000
G1 Z0.600 F10800.000
G1 X187.268 Y46.602
G1 Z0.200
G1 E0.80000 F2100.000
G1 F1200.000
G1 X186.836 Y46.602 E0.01354
G1 X186.836 Y46.180 E0.01324
G1 X187.218 Y46.569 E0.01709
;WIPE_START
G1 F8640.000
G1 X186.836 Y46.602 E-0.08845
G1 X186.836 Y46.180 E-0.09751
G1 X187.218 Y46.569 E-0.12589
;WIPE_END
G1 E-0.48814 F2100.000
G1 Z0.600 F10800.000
G1 X186.836 Y43.361
G1 Z0.200
G1 E0.80000 F2100.000
G1 F1200.000
G1 X186.836 Y42.931 E0.01348
G1 X187.272 Y42.931 E0.01366
G1 X187.000 Y43.161 E0.01118
G1 X186.874 Y43.314 E0.00621
G1 X187.166 Y43.553 F10800.000
G1 F1200.000
G1 X187.270 Y43.426 E0.00513
G1 X187.573 Y43.170 E0.01245
G1 X187.814 Y43.027 E0.00878
G1 X188.224 Y42.878 E0.01370
G1 X188.632 Y42.829 E0.01288
G1 X209.898 Y42.838 E0.66677
G1 X210.319 Y42.938 E0.01359
G1 X210.558 Y43.041 E0.00814
G1 X210.920 Y43.279 E0.01359
G1 X211.229 Y43.607 E0.01413
G1 X211.446 Y43.983 E0.01359
G1 X211.535 Y44.227 E0.00814
G1 X211.607 Y44.637 E0.01305
G1 X211.607 Y44.879 E0.00761
G1 X211.579 Y45.120 E0.00761
G1 X211.455 Y45.535 E0.01359
G1 X211.238 Y45.911 E0.01359
G1 X211.082 Y46.097 E0.00761
G1 X210.906 Y46.263 E0.00761
G1 X210.543 Y46.501 E0.01359
G1 X210.120 Y46.656 E0.01412
G1 X209.712 Y46.704 E0.01288
G1 X188.447 Y46.695 E0.66677
G1 X188.025 Y46.595 E0.01359
G1 X187.786 Y46.492 E0.00814
G1 X187.424 Y46.254 E0.01359
G1 X187.115 Y45.926 E0.01413
G1 X186.898 Y45.550 E0.01359
G1 X186.809 Y45.306 E0.00814
G1 X186.737 Y44.896 E0.01305
G1 X186.737 Y44.637 E0.00814
G1 X186.809 Y44.227 E0.01305
G1 X186.898 Y43.984 E0.00811
G1 X187.128 Y43.599 E0.01405
;WIPE_START
G1 F8640.000
G1 X187.270 Y43.426 E-0.05160
G1 X187.573 Y43.170 E-0.09171
G1 X187.814 Y43.027 E-0.06463
G1 X188.224 Y42.878 E-0.10089
G1 X188.632 Y42.829 E-0.09482
G1 X190.175 Y42.830 E-0.35637
;WIPE_END
G1 E-0.04000 F2100.000
G1 Z0.600 F10800.000
G1 X187.114 Y44.670
G1 Z0.200
G1 E0.80000 F2100.000
;TYPE:External perimeter
G1 F1200.000
G1 X187.175 Y44.325 E0.01098
G1 X187.241 Y44.143 E0.00606
G1 X187.405 Y43.857 E0.01034
G1 X187.540 Y43.692 E0.00667
G1 X187.792 Y43.478 E0.01038
G1 X187.976 Y43.369 E0.00668
G1 X188.312 Y43.247 E0.01121
G1 X188.654 Y43.207 E0.01080
G1 X209.853 Y43.215 E0.66469
G1 X210.200 Y43.298 E0.01117
G1 X210.378 Y43.374 E0.00608
G1 X210.676 Y43.570 E0.01118
G1 X210.925 Y43.834 E0.01137
G1 X211.103 Y44.143 E0.01118
G1 X211.169 Y44.325 E0.00608
G1 X211.230 Y44.670 E0.01098
G1 X211.230 Y44.857 E0.00588
G1 X211.208 Y45.044 E0.00588
G1 X211.106 Y45.385 E0.01118
G1 X210.928 Y45.694 E0.01118
G1 X210.807 Y45.838 E0.00588
G1 X210.671 Y45.966 E0.00588
G1 X210.373 Y46.162 E0.01118
G1 X210.032 Y46.286 E0.01137
G1 X209.690 Y46.327 E0.01080
G1 X188.491 Y46.318 E0.66469
M73 Q2 S19
G1 X188.144 Y46.236 E0.01117
G1 X187.966 Y46.159 E0.00608
G1 X187.668 Y45.963 E0.01118
G1 X187.419 Y45.699 E0.01137
G1 X187.241 Y45.390 E0.01118
G1 X187.175 Y45.208 E0.00608
G1 X187.114 Y44.863 E0.01098
G1 X187.114 Y44.730 E0.00419
G1 X186.825 Y44.471 F10800.000
;WIPE_START
G1 F8640.000
G1 X187.175 Y44.325 E-0.09455
G1 X187.241 Y44.143 E-0.04465
G1 X187.405 Y43.857 E-0.07616
G1 X187.540 Y43.692 E-0.04913
G1 X187.792 Y43.478 E-0.07647
M73 P2 R19
G1 X187.976 Y43.369 E-0.04922
G1 X188.312 Y43.247 E-0.08259
G1 X188.654 Y43.207 E-0.07955
G1 X189.553 Y43.207 E-0.20766
;WIPE_END
G1 E-0.04000 F2100.000
G1 Z0.600 F10800.000
G1 X187.114 Y30.602
G1 Z0.200
G1 E0.80000 F2100.000
;TYPE:Perimeter
G1 F1200.000
G1 X186.836 Y30.602 E0.00871
G1 X186.836 Y30.180 E0.01324
G1 X187.180 Y30.545 E0.01571
G1 X187.268 Y30.602 E0.00330
G1 X187.174 Y30.602 E0.00295
;WIPE_START
G1 F8640.000
G1 X186.836 Y30.602 E-0.07800
G1 X186.836 Y30.180 E-0.09751
G1 X187.180 Y30.545 E-0.11571
G1 X187.268 Y30.602 E-0.02429
G1 X187.174 Y30.602 E-0.02170
;WIPE_END
G1 E-0.46278 F2100.000
G1 Z0.600 F10800.000
G1 X186.836 Y27.357
G1 Z0.200
G1 E0.80000 F2100.000
G1 F1200.000
G1 X186.836 Y26.931 E0.01337
G1 X187.273 Y26.931 E0.01371
G1 X187.006 Y27.156 E0.01097
G1 X186.875 Y27.311 E0.00638
G1 X187.164 Y27.554 F10800.000
G1 F1200.000
G1 X187.273 Y27.423 E0.00534
G1 X187.592 Y27.156 E0.01305
G1 X187.817 Y27.026 E0.00814
G1 X188.224 Y26.878 E0.01358
G1 X188.632 Y26.829 E0.01288
G1 X209.898 Y26.838 E0.66677
G1 X210.319 Y26.938 E0.01359
G1 X210.558 Y27.041 E0.00814
G1 X210.920 Y27.279 E0.01359
G1 X211.229 Y27.607 E0.01413
G1 X211.446 Y27.983 E0.01359
G1 X211.535 Y28.227 E0.00814
G1 X211.607 Y28.637 E0.01305
G1 X211.607 Y28.879 E0.00761
G1 X211.579 Y29.120 E0.00761
G1 X211.455 Y29.535 E0.01359
G1 X211.238 Y29.911 E0.01359
G1 X211.082 Y30.097 E0.00761
G1 X210.906 Y30.263 E0.00761
G1 X210.543 Y30.501 E0.01359
G1 X210.120 Y30.656 E0.01412
G1 X209.712 Y30.704 E0.01288
G1 X188.464 Y30.695 E0.66623
G1 X188.208 Y30.650 E0.00814
G1 X187.801 Y30.501 E0.01359
G1 X187.424 Y30.254 E0.01413
G1 X187.115 Y29.926 E0.01413
G1 X186.898 Y29.550 E0.01359
G1 X186.809 Y29.306 E0.00814
G1 X186.737 Y28.896 E0.01305
G1 X186.737 Y28.637 E0.00814
G1 X186.809 Y28.227 E0.01305
G1 X186.898 Y27.983 E0.00814
G1 X187.125 Y27.600 E0.01396
;WIPE_START
G1 F8640.000
G1 X187.273 Y27.423 E-0.05319
G1 X187.592 Y27.156 E-0.09611
G1 X187.817 Y27.026 E-0.05998
G1 X188.224 Y26.878 E-0.10002
G1 X188.632 Y26.829 E-0.09482
G1 X190.173 Y26.830 E-0.35588
;WIPE_END
G1 E-0.04000 F2100.000
G1 Z0.600 F10800.000
G1 X188.306 Y30.284
G1 Z0.200
G1 E0.80000 F2100.000
;TYPE:External perimeter
G1 F1200.000
G1 X187.971 Y30.162 E0.01118
G1 X187.668 Y29.963 E0.01137
G1 X187.419 Y29.699 E0.01137
G1 X187.241 Y29.390 E0.01118
G1 X187.175 Y29.208 E0.00608
G1 X187.114 Y28.863 E0.01098
G1 X187.114 Y28.670 E0.00608
G1 X187.175 Y28.325 E0.01098
G1 X187.241 Y28.143 E0.00608
G1 X187.416 Y27.839 E0.01098
G1 X187.541 Y27.691 E0.00608
G1 X187.809 Y27.466 E0.01098
G1 X187.977 Y27.369 E0.00608
G1 X188.312 Y27.247 E0.01117
G1 X188.654 Y27.207 E0.01080
G1 X209.853 Y27.215 E0.66469
G1 X210.200 Y27.298 E0.01117
G1 X210.378 Y27.374 E0.00608
G1 X210.676 Y27.570 E0.01118
G1 X210.925 Y27.834 E0.01137
G1 X211.103 Y28.143 E0.01118
G1 X211.169 Y28.325 E0.00608
G1 X211.230 Y28.670 E0.01098
G1 X211.208 Y29.044 E0.01175
G1 X211.106 Y29.385 E0.01118
G1 X210.928 Y29.694 E0.01118
G1 X210.807 Y29.838 E0.00588
G1 X210.671 Y29.966 E0.00588
G1 X210.373 Y30.162 E0.01118
G1 X210.032 Y30.286 E0.01137
G1 X209.690 Y30.327 E0.01080
G1 X188.497 Y30.318 E0.66450
G1 X188.365 Y30.295 E0.00419
G1 X188.061 Y30.543 F10800.000
;WIPE_START
G1 F8640.000
G1 X187.971 Y30.162 E-0.09598
G1 X187.668 Y29.963 E-0.08373
G1 X187.419 Y29.699 E-0.08373
G1 X187.241 Y29.390 E-0.08230
G1 X187.175 Y29.208 E-0.04474
G1 X187.114 Y28.863 E-0.08088
G1 X187.114 Y28.670 E-0.04474
G1 X187.175 Y28.325 E-0.08088
G1 X187.241 Y28.143 E-0.04474
G1 X187.416 Y27.839 E-0.08088
G1 X187.520 Y27.715 E-0.03739
;WIPE_END
G1 E-0.04000 F2100.000
G1 Z0.600 F10800.000
G1 X207.885 Y30.979
G1 Z0.200
G1 E0.80000 F2100.000
;TYPE:Perimeter
G1 F1200.000
G1 X207.885 Y42.554 E0.36290
G1 X211.885 Y42.554 E0.12542
G1 X211.885 Y46.979 E0.13877
G1 X186.459 Y46.979 E0.79721
G1 X186.459 Y42.554 E0.13877
G1 X194.258 Y42.554 E0.24452
G1 X197.730 Y30.979 E0.37888
G1 X186.459 Y30.979 E0.35339
M73 P3 R19
M73 Q3 S19
G1 X186.459 Y26.554 E0.13877
G1 X211.885 Y26.554 E0.79721
G1 X211.885 Y30.979 E0.13877
G1 X207.945 Y30.979 E0.12354
G1 X208.262 Y31.357 F10800.000
;TYPE:External perimeter
G1 F1200.000
G1 X208.262 Y42.177 E0.33925
G1 X212.262 Y42.177 E0.12542
G1 X212.262 Y47.357 E0.16242
G1 X186.082 Y47.357 E0.82086
G1 X186.082 Y42.177 E0.16242
G1 X193.977 Y42.177 E0.24754
G1 X197.223 Y31.357 E0.35419
G1 X186.082 Y31.357 E0.34932
G1 X186.082 Y26.177 E0.16242
M73 P3 R18
G1 X212.262 Y26.177 E0.82086
G1 X212.262 Y31.357 E0.16242
G1 X208.322 Y31.357 E0.12354
G1 X207.881 Y31.476 F10800.000
;WIPE_START
G1 F8640.000
G1 X208.304 Y34.648 E-0.76000
;WIPE_END
G1 E-0.04000 F2100.000
G1 Z0.600 F10800.000
M73 Q3 S18
G1 X206.641 Y32.719
G1 Z0.200
G1 E0.80000 F2100.000
;TYPE:Solid infill
;WIDTH:0.424709
G1 F1200.000
G1 X206.038 Y32.116 E0.02706
G1 X205.498 Y32.116 E0.01715
G1 X206.471 Y33.089 E0.04370
G1 X206.471 Y33.629 E0.01714
G1 X204.958 Y32.116 E0.06795
G1 X204.417 Y32.115 E0.01715
G1 X206.471 Y34.169 E0.09220
G1 X206.471 Y34.709 E0.01714
G1 X203.877 Y32.115 E0.11645
G1 X203.337 Y32.115 E0.01715
G1 X206.471 Y35.249 E0.14070
G1 X206.471 Y35.789 E0.01714
G1 X202.797 Y32.115 E0.16495
G1 X202.257 Y32.115 E0.01715
G1 X206.471 Y36.329 E0.18920
G1 X206.471 Y36.869 E0.01714
G1 X201.717 Y32.114 E0.21345
G1 X201.176 Y32.114 E0.01715
G1 X206.471 Y37.409 E0.23770
G1 X206.471 Y37.949 E0.01714
G1 X200.636 Y32.114 E0.26195
M73 Q4 S18
G1 X200.096 Y32.114 E0.01715
G1 X206.471 Y38.489 E0.28620
M73 P4 R18
G1 X206.471 Y39.028 E0.01714
G1 X199.556 Y32.113 E0.31045
G1 X199.016 Y32.113 E0.01715
G1 X206.471 Y39.568 E0.33470
G1 X206.471 Y40.108 E0.01714
G1 X198.776 Y32.413 E0.34547
G1 X198.651 Y32.829 E0.01377
G1 X206.471 Y40.648 E0.35106
G1 X206.471 Y41.188 E0.01714
G1 X198.527 Y33.244 E0.35665
G1 X198.402 Y33.659 E0.01377
G1 X206.166 Y41.423 E0.34854
G1 X205.625 Y41.422 E0.01715
G1 X198.278 Y34.075 E0.32988
G1 X198.153 Y34.490 E0.01377
G1 X205.085 Y41.422 E0.31122
G1 X204.545 Y41.422 E0.01715
G1 X198.028 Y34.905 E0.29257
G1 X197.904 Y35.321 E0.01377
G1 X204.005 Y41.422 E0.27391
G1 X203.465 Y41.422 E0.01715
G1 X197.779 Y35.736 E0.25525
G1 X197.655 Y36.151 E0.01377
G1 X202.925 Y41.421 E0.23660
G1 X202.384 Y41.421 E0.01715
G1 X197.530 Y36.567 E0.21794
G1 X197.405 Y36.982 E0.01377
G1 X201.844 Y41.421 E0.19928
G1 X201.304 Y41.421 E0.01715
G1 X197.281 Y37.397 E0.18063
G1 X197.156 Y37.813 E0.01377
G1 X200.764 Y41.420 E0.16197
G1 X200.224 Y41.420 E0.01715
G1 X197.032 Y38.228 E0.14331
G1 X196.907 Y38.643 E0.01377
G1 X199.684 Y41.420 E0.12466
G1 X199.144 Y41.420 E0.01715
G1 X196.782 Y39.059 E0.10600
G1 X196.658 Y39.474 E0.01377
G1 X198.603 Y41.420 E0.08734
G1 X198.063 Y41.419 E0.01715
G1 X196.533 Y39.889 E0.06869
G1 X196.409 Y40.305 E0.01377
G1 X197.523 Y41.419 E0.05003
G1 X196.983 Y41.419 E0.01715
G1 X196.284 Y40.720 E0.03137
G1 X196.159 Y41.135 E0.01377
G1 X196.613 Y41.588 E0.02034
;WIPE_START
G1 F8640.000
G1 X196.159 Y41.135 E-0.14794
G1 X196.284 Y40.720 E-0.10012
G1 X196.983 Y41.419 E-0.22820
G1 X197.523 Y41.419 E-0.12472
G1 X197.036 Y40.932 E-0.15901
;WIPE_END
G1 E-0.04000 F2100.000
G1 Z0.600 F10800.000
G1 X187.927 Y42.763
G1 Z0.200
G1 E0.80000 F2100.000
;TYPE:Gap fill
;WIDTH:0.128376
G1 F1200.000
G1 X187.803 Y42.785 E0.00090
G1 X187.723 Y42.831 E0.00065
;WIDTH:0.0962164
G1 X187.691 Y42.854 E0.00018
;WIPE_START
G1 F8640.000
G1 X187.723 Y42.831 E-0.00921
;WIPE_END
G1 E-0.79079 F2100.000
G1 Z0.600 F10800.000
G1 X186.779 Y43.765
G1 Z0.200
G1 E0.80000 F2100.000
;WIDTH:0.11353
G1 F1200.000
G1 X186.686 Y43.903 E0.00097
G1 X186.669 Y44.001 E0.00059
;WIPE_START
G1 F8640.000
G1 X186.686 Y43.903 E-0.02309
G1 X186.779 Y43.765 E-0.03834
;WIPE_END
G1 E-0.73857 F2100.000
G1 Z0.600 F10800.000
G1 X186.669 Y45.532
G1 Z0.200
G1 E0.80000 F2100.000
;WIDTH:0.119369
G1 F1200.000
G1 X186.699 Y45.685 E0.00099
G1 X186.848 Y45.885 E0.00159
G1 X187.446 Y46.665 F10800.000
;WIDTH:0.18715
G1 F1200.000
G1 X187.904 Y46.781 E0.00566
;WIPE_START
G1 F8640.000
G1 X187.446 Y46.665 E-0.10906
;WIPE_END
G1 E-0.69094 F2100.000
G1 Z0.600 F10800.000
G1 X187.927 Y30.770
G1 Z0.200
M73 Q5 S18
G1 E0.80000 F2100.000
;WIDTH:0.129902
G1 F1200.000
G1 X187.445 Y30.670 E0.00356
G1 X186.848 Y29.885 F10800.000
;WIDTH:0.11937
G1 F1200.000
G1 X186.699 Y29.685 E0.00159
G1 X186.669 Y29.532 E0.00099
;WIPE_START
G1 F8640.000
G1 X186.699 Y29.685 E-0.03607
G1 X186.848 Y29.885 E-0.05762
;WIPE_END
G1 E-0.70630 F2100.000
G1 Z0.600 F10800.000
G1 X186.669 Y28.001
M73 P5 R18
G1 Z0.200
G1 E0.80000 F2100.000
;WIDTH:0.121521
G1 F1200.000
G1 X186.688 Y27.890 E0.00074
G1 X186.800 Y27.730 E0.00128
;WIPE_START
G1 F8640.000
G1 X186.688 Y27.890 E-0.04507
G1 X186.669 Y28.001 E-0.02607
;WIPE_END
G1 E-0.72885 F2100.000
G1 Z0.600 F10800.000
G1 X187.700 Y26.849
G1 Z0.200
G1 E0.80000 F2100.000
;WIDTH:0.0953268
G1 F1200.000
G1 X187.728 Y26.830 E0.00015
;WIDTH:0.126886
G1 X187.807 Y26.784 E0.00063
G1 X187.927 Y26.763 E0.00085
;WIPE_START
G1 F8640.000
G1 X187.807 Y26.784 E-0.02814
G1 X187.728 Y26.830 E-0.02098
;WIPE_END
G1 E-0.75088 F2100.000
G1 Z0.600 F10800.000
G1 X210.440 Y26.752
G1 Z0.200
G1 E0.80000 F2100.000
;WIDTH:0.187153
G1 F1200.000
