; generated by PrusaSlicer 2.3.1+win64 on 2023-04-10 at 19:35:42 UTC

; 

; external perimeters extrusion width = 0.60mm
; perimeters extrusion width = 0.50mm
; infill extrusion width = 0.50mm
; solid infill extrusion width = 0.50mm
; top infill extrusion width = 0.45mm
; first layer extrusion width = 0.42mm

M73 P0 R17
M73 Q0 S17
M201 X1000 Y1000 Z200 E5000 ; sets maximum accelerations, mm/sec^2
M203 X200 Y200 Z12 E120 ; sets maximum feedrates, mm/sec
M204 P1250 R1250 T1250 ; sets acceleration (P, T) and retract acceleration (R), mm/sec^2
M205 X8.00 Y8.00 Z0.40 E4.50 ; sets the jerk limits, mm/sec
M205 S0 T0 ; sets the minimum extruding and travel feed rate, mm/sec
M107
;TYPE:Custom
M862.3 P "MK3S" ; printer model check
M862.1 P0.4 ; nozzle diameter check
M115 U3.9.3 ; tell printer latest fw version
G90 ; use absolute coordinates
M83 ; extruder relative mode
M104 S205 ; set extruder temp
M140 S67 ; set bed temp
M190 S67 ; wait for bed temp
M109 S205 ; wait for extruder temp
G28 W ; home all without mesh bed level
G80 ; mesh bed leveling
G1 Y-3.0 F1000.0 ; go outside print area
G92 E0.0
G1 X60.0 E9.0 F1000.0 ; intro line
G1 X100.0 E12.5 F1000.0 ; intro line
G92 E0.0
M221 S95

; Don't change E values below. Excessive value can damage the printer.

M907 E538 ; set extruder motor current
G21 ; set units to millimeters
G90 ; use absolute coordinates
M83 ; use relative distances for extrusion
M900 K0.05 ; Filament gcode LA 1.5
M900 K30 ; Filament gcode LA 1.0
;LAYER_CHANGE
;Z:0.2
;HEIGHT:0.2
;BEFORE_LAYER_CHANGE
G92 E0.0
;0.2


G1 E-0.80000 F2100.000
G1 Z0.400 F10800.000
;AFTER_LAYER_CHANGE
;0.2
; printing object magnet_holder.stl id:0 copy 0
G1 X198.038 Y45.440
G1 Z0.200
G1 E0.80000 F2100.000
M204 S1000
;TYPE:Perimeter
;WIDTH:0.42
G1 F1200.000
G1 X198.163 Y45.054 E0.01272
G1 X198.359 Y44.716 E0.01223
G1 X198.506 Y44.535 E0.00733
G1 X198.796 Y44.274 E0.01223
G1 X199.147 Y44.071 E0.01272
G1 X199.533 Y43.946 E0.01271
G1 X199.900 Y43.907 E0.01159
G1 X211.139 Y43.914 E0.35240
G1 X211.536 Y43.998 E0.01271
G1 X211.907 Y44.163 E0.01272
G1 X212.235 Y44.401 E0.01272
G1 X212.506 Y44.703 E0.01272
G1 X212.709 Y45.054 E0.01272
G1 X212.834 Y45.440 E0.01272
G1 X212.875 Y45.828 E0.01223
G1 X212.830 Y46.262 E0.01367
G1 X212.709 Y46.633 E0.01223
G1 X212.514 Y46.971 E0.01223
G1 X212.377 Y47.140 E0.00684
G1 X212.222 Y47.295 E0.00684
G1 X211.907 Y47.524 E0.01223
G1 X211.536 Y47.689 E0.01272
G1 X211.139 Y47.774 E0.01272
G1 X199.733 Y47.774 E0.35762
G1 X199.337 Y47.689 E0.01272
G1 X198.966 Y47.524 E0.01272
G1 X198.650 Y47.295 E0.01223
G1 X198.359 Y46.971 E0.01367
G1 X198.163 Y46.633 E0.01223
G1 X198.038 Y46.247 E0.01272
G1 X197.996 Y45.844 E0.01272
G1 X198.032 Y45.500 E0.01084
;WIPE_START
G1 F8640.000
G1 X198.163 Y45.054 E-0.10727
G1 X198.359 Y44.716 E-0.09010
G1 X198.506 Y44.535 E-0.05397
G1 X198.796 Y44.274 E-0.09010
G1 X199.147 Y44.071 E-0.09368
G1 X199.533 Y43.946 E-0.09361
G1 X199.900 Y43.907 E-0.08537
G1 X200.532 Y43.907 E-0.14592
;WIPE_END
G1 E-0.04000 F2100.000
G1 Z0.600 F10800.000
G1 X198.777 Y46.888
G1 Z0.200
G1 E0.80000 F2100.000
;TYPE:External perimeter
G1 F1200.000
G1 X198.670 Y46.757 E0.00529
G1 X198.510 Y46.479 E0.01006
G1 X198.409 Y46.168 E0.01023
G1 X198.375 Y45.844 E0.01023
G1 X198.409 Y45.519 E0.01023
G1 X198.510 Y45.209 E0.01023
G1 X198.670 Y44.931 E0.01006
G1 X198.780 Y44.795 E0.00547
G1 X199.018 Y44.580 E0.01006
G1 X199.301 Y44.417 E0.01023
G1 X199.612 Y44.316 E0.01023
G1 X199.920 Y44.284 E0.00973
G1 X211.100 Y44.291 E0.35053
M73 P1 R17
M73 Q1 S17
G1 X211.419 Y44.359 E0.01023
G1 X211.717 Y44.491 E0.01023
G1 X211.981 Y44.683 E0.01023
G1 X212.199 Y44.926 E0.01023
G1 X212.363 Y45.209 E0.01023
G1 X212.464 Y45.519 E0.01023
G1 X212.497 Y45.838 E0.01006
G1 X212.462 Y46.174 E0.01057
G1 X212.363 Y46.479 E0.01006
G1 X212.202 Y46.757 E0.01006
G1 X212.096 Y46.888 E0.00529
G1 X211.977 Y47.007 E0.00529
G1 X211.717 Y47.196 E0.01006
G1 X211.419 Y47.329 E0.01023
G1 X211.099 Y47.396 E0.01023
G1 X199.773 Y47.396 E0.35513
G1 X199.454 Y47.329 E0.01023
G1 X199.156 Y47.196 E0.01023
G1 X198.896 Y47.007 E0.01006
G1 X198.819 Y46.930 E0.00341
G1 X198.612 Y46.926 F10800.000
;WIPE_START
G1 F8640.000
G1 X198.670 Y46.757 E-0.05279
G1 X198.510 Y46.479 E-0.07409
G1 X198.409 Y46.168 E-0.07537
G1 X198.375 Y45.844 E-0.07537
G1 X198.409 Y45.519 E-0.07537
G1 X198.510 Y45.209 E-0.07537
G1 X198.670 Y44.931 E-0.07409
G1 X198.780 Y44.795 E-0.04027
G1 X199.018 Y44.580 E-0.07409
G1 X199.301 Y44.417 E-0.07537
G1 X199.580 Y44.326 E-0.06780
;WIPE_END
G1 E-0.04000 F2100.000
G1 Z0.600 F10800.000
G1 X198.100 Y44.436
G1 Z0.200
G1 E0.80000 F2100.000
;TYPE:Perimeter
G1 F1200.000
G1 X198.100 Y44.008 E0.01343
G1 X198.527 Y44.008 E0.01339
G1 X198.231 Y44.274 E0.01249
G1 X198.138 Y44.389 E0.00464
;WIPE_START
G1 F8640.000
G1 X198.100 Y44.008 E-0.08853
G1 X198.527 Y44.008 E-0.09858
G1 X198.231 Y44.274 E-0.09200
G1 X198.138 Y44.389 E-0.03416
;WIPE_END
G1 E-0.48673 F2100.000
G1 Z0.600 F10800.000
G1 X198.100 Y47.251
G1 Z0.200
G1 E0.80000 F2100.000
G1 F1200.000
G1 X198.405 Y47.582 E0.01410
G1 X198.538 Y47.679 E0.00517
G1 X198.100 Y47.679 E0.01372
G1 X198.100 Y47.311 E0.01154
;WIPE_START
G1 F8640.000
G1 X198.405 Y47.582 E-0.09411
G1 X198.538 Y47.679 E-0.03810
G1 X198.100 Y47.679 E-0.10107
G1 X198.100 Y47.311 E-0.08502
;WIPE_END
G1 E-0.48171 F2100.000
G1 Z0.600 F10800.000
G1 X212.334 Y47.679
G1 Z0.200
G1 E0.80000 F2100.000
G1 F1200.000
G1 X212.468 Y47.582 E0.00517
G1 X212.772 Y47.251 E0.01410
G1 X212.772 Y47.679 E0.01343
G1 X212.394 Y47.679 E0.01184
;WIPE_START
G1 F8640.000
G1 X212.468 Y47.582 E-0.02809
G1 X212.772 Y47.251 E-0.10384
G1 X212.772 Y47.679 E-0.09887
G1 X212.394 Y47.679 E-0.08721
;WIPE_END
G1 E-0.48198 F2100.000
G1 Z0.600 F10800.000
G1 X212.018 Y42.974
M73 P1 R16
G1 Z0.200
G1 E0.80000 F2100.000
G1 F1200.000
G1 X211.887 Y42.916 E0.00448
G1 X211.259 Y42.783 E0.02016
G1 X201.855 Y42.777 E0.29486
G1 X201.855 Y32.905 E0.30952
G1 X211.258 Y32.905 E0.29484
G1 X211.887 Y32.771 E0.02018
G1 X212.018 Y32.713 E0.00448
G1 X212.018 Y42.914 E0.31986
M73 Q1 S16
G1 X212.395 Y43.586 F10800.000
G1 F1200.000
G1 X212.286 Y43.506 E0.00424
G1 X211.770 Y43.277 E0.01769
G1 X211.219 Y43.160 E0.01768
G1 X201.477 Y43.153 E0.30543
G1 X201.477 Y32.528 E0.33316
G1 X211.218 Y32.528 E0.30542
G1 X211.770 Y32.410 E0.01769
G1 X212.253 Y32.195 E0.01658
G1 X212.395 Y32.103 E0.00530
G1 X212.395 Y43.526 E0.35814
G1 X212.772 Y44.435 F10800.000
G1 F1200.000
G1 X212.488 Y44.120 E0.01329
G1 X212.096 Y43.835 E0.01521
G1 X211.653 Y43.637 E0.01521
G1 X211.179 Y43.537 E0.01520
G1 X201.100 Y43.530 E0.31601
G1 X201.100 Y32.151 E0.35680
G1 X211.179 Y32.151 E0.31600
G1 X211.653 Y32.050 E0.01521
G1 X212.073 Y31.863 E0.01441
G1 X212.319 Y31.703 E0.00919
G1 X212.641 Y31.413 E0.01361
G1 X212.772 Y31.251 E0.00652
G1 X212.772 Y44.375 E0.41148
;WIPE_START
M73 Q2 S16
G1 F8640.000
G1 X212.488 Y44.120 E-0.08807
G1 X212.096 Y43.835 E-0.11198
G1 X211.653 Y43.637 E-0.11198
G1 X211.179 Y43.537 E-0.11191
G1 X209.724 Y43.536 E-0.33607
;WIPE_END
G1 E-0.04000 F2100.000
G1 Z0.600 F10800.000
G1 X212.772 Y28.445
M73 P2 R16
G1 Z0.200
G1 E0.80000 F2100.000
G1 F1200.000
G1 X212.675 Y28.312 E0.00517
G1 X212.468 Y28.105 E0.00919
G1 X212.334 Y28.008 E0.00517
G1 X212.772 Y28.008 E0.01372
G1 X212.772 Y28.385 E0.01184
G1 X212.617 Y28.873 F10800.000
G1 F1200.000
G1 X212.782 Y29.244 E0.01272
G1 X212.866 Y29.641 E0.01272
G1 X212.866 Y30.031 E0.01223
G1 X212.830 Y30.262 E0.00733
G1 X212.709 Y30.633 E0.01223
G1 X212.514 Y30.971 E0.01223
G1 X212.367 Y31.152 E0.00733
G1 X212.088 Y31.403 E0.01175
G1 X211.892 Y31.531 E0.00733
G1 X211.536 Y31.689 E0.01223
G1 X211.139 Y31.774 E0.01272
G1 X199.749 Y31.774 E0.35713
G1 X199.518 Y31.737 E0.00733
G1 X199.147 Y31.616 E0.01223
G1 X198.796 Y31.414 E0.01272
G1 X198.506 Y31.152 E0.01223
G1 X198.359 Y30.971 E0.00733
G1 X198.163 Y30.633 E0.01223
G1 X198.038 Y30.247 E0.01272
G1 X197.996 Y29.844 E0.01272
G1 X198.038 Y29.440 E0.01272
G1 X198.163 Y29.054 E0.01272
G1 X198.359 Y28.716 E0.01223
G1 X198.506 Y28.535 E0.00733
G1 X198.796 Y28.274 E0.01223
G1 X199.147 Y28.071 E0.01272
G1 X199.533 Y27.946 E0.01271
G1 X199.900 Y27.907 E0.01159
G1 X211.139 Y27.914 E0.35240
G1 X211.536 Y27.998 E0.01271
G1 X211.907 Y28.163 E0.01272
G1 X212.222 Y28.392 E0.01223
G1 X212.388 Y28.558 E0.00733
G1 X212.582 Y28.825 E0.01035
G1 X212.100 Y28.803 F10800.000
;TYPE:External perimeter
G1 F1200.000
G1 X212.288 Y29.063 E0.01006
G1 X212.421 Y29.361 E0.01024
G1 X212.489 Y29.680 E0.01023
G1 X212.489 Y30.001 E0.01006
G1 X212.462 Y30.174 E0.00547
G1 X212.363 Y30.479 E0.01006
G1 X212.202 Y30.757 E0.01006
G1 X212.093 Y30.892 E0.00547
G1 X211.858 Y31.103 E0.00989
G1 X211.712 Y31.198 E0.00547
G1 X211.419 Y31.329 E0.01006
G1 X211.099 Y31.396 E0.01023
G1 X199.779 Y31.396 E0.35496
G1 X199.606 Y31.369 E0.00547
G1 X199.301 Y31.270 E0.01006
G1 X199.018 Y31.107 E0.01023
G1 X198.780 Y30.892 E0.01006
G1 X198.670 Y30.757 E0.00547
G1 X198.510 Y30.479 E0.01006
G1 X198.409 Y30.168 E0.01023
G1 X198.375 Y29.844 E0.01023
G1 X198.409 Y29.519 E0.01023
G1 X198.510 Y29.209 E0.01023
G1 X198.670 Y28.931 E0.01006
G1 X198.780 Y28.795 E0.00547
G1 X199.018 Y28.580 E0.01006
G1 X199.301 Y28.417 E0.01023
G1 X199.612 Y28.316 E0.01023
G1 X199.920 Y28.284 E0.00973
G1 X211.100 Y28.291 E0.35053
G1 X211.419 Y28.359 E0.01023
G1 X211.717 Y28.491 E0.01023
G1 X211.977 Y28.680 E0.01006
G1 X212.057 Y28.761 E0.00359
G1 X212.415 Y28.742 F10800.000
;WIPE_START
G1 F8640.000
G1 X212.288 Y29.063 E-0.08780
G1 X212.421 Y29.361 E-0.07537
G1 X212.489 Y29.680 E-0.07537
G1 X212.489 Y30.001 E-0.07409
G1 X212.462 Y30.174 E-0.04027
G1 X212.363 Y30.479 E-0.07409
G1 X212.202 Y30.757 E-0.07409
G1 X212.093 Y30.892 E-0.04027
G1 X211.858 Y31.103 E-0.07281
G1 X211.712 Y31.198 E-0.04027
G1 X211.419 Y31.329 E-0.07409
G1 X211.285 Y31.357 E-0.03146
;WIPE_END
G1 E-0.04000 F2100.000
G1 Z0.600 F10800.000
G1 X198.527 Y28.008
G1 Z0.200
G1 E0.80000 F2100.000
;TYPE:Perimeter
G1 F1200.000
G1 X198.231 Y28.274 E0.01249
G1 X198.100 Y28.436 E0.00652
G1 X198.100 Y28.008 E0.01343
G1 X198.467 Y28.008 E0.01151
;WIPE_START
G1 F8640.000
G1 X198.231 Y28.274 E-0.08223
G1 X198.100 Y28.436 E-0.04801
G1 X198.100 Y28.008 E-0.09887
G1 X198.467 Y28.008 E-0.08473
;WIPE_END
G1 E-0.48616 F2100.000
G1 Z0.600 F10800.000
G1 X198.100 Y31.251
G1 Z0.200
G1 E0.80000 F2100.000
G1 F1200.000
G1 X198.231 Y31.413 E0.00652
G1 X198.527 Y31.679 E0.01249
G1 X198.100 Y31.679 E0.01339
G1 X198.100 Y31.311 E0.01154
;WIPE_START
G1 F8640.000
G1 X198.231 Y31.413 E-0.03825
G1 X198.527 Y31.679 E-0.09200
G1 X198.100 Y31.679 E-0.09858
G1 X198.100 Y31.311 E-0.08502
;WIPE_END
G1 E-0.48615 F2100.000
G1 Z0.600 F10800.000
G1 X200.723 Y43.631
G1 Z0.200
G1 E0.80000 F2100.000
G1 F1200.000
G1 X200.723 Y32.057 E0.36290
G1 X197.723 Y32.057 E0.09406
G1 X197.723 Y27.631 E0.13877
G1 X213.149 Y27.631 E0.48367
G1 X213.149 Y48.057 E0.64044
G1 X197.723 Y48.057 E0.48367
G1 X197.723 Y43.631 E0.13877
G1 X200.663 Y43.631 E0.09218
G1 X200.346 Y43.254 F10800.000
;TYPE:External perimeter
G1 F1200.000
G1 X200.346 Y32.434 E0.33925
M73 Q3 S16
G1 X197.346 Y32.434 E0.09406
M73 P3 R16
G1 X197.346 Y27.254 E0.16242
G1 X213.526 Y27.254 E0.50731
G1 X213.526 Y48.434 E0.66408
G1 X197.346 Y48.434 E0.50731
G1 X197.346 Y43.254 E0.16242
G1 X200.286 Y43.254 E0.09218
G1 X200.722 Y43.117 F10800.000
;WIPE_START
G1 F8640.000
G1 X200.305 Y39.962 E-0.76000
;WIPE_END
G1 E-0.04000 F2100.000
G1 Z0.600 F10800.000
G1 X199.177 Y43.840
G1 Z0.200
G1 E0.80000 F2100.000
;TYPE:Gap fill
;WIDTH:0.123268
G1 F1200.000
G1 X199.036 Y43.865 E0.00095
G1 X198.859 Y43.993 E0.00146
;WIPE_START
G1 F8640.000
G1 X199.036 Y43.865 E-0.05055
G1 X199.177 Y43.840 E-0.03300
;WIPE_END
G1 E-0.71645 F2100.000
G1 Z0.600 F10800.000
G1 X198.035 Y44.853
G1 Z0.200
G1 E0.80000 F2100.000
;WIDTH:0.10978
G1 F1200.000
G1 X197.949 Y44.982 E0.00086
G1 X197.933 Y45.084 E0.00058
;WIPE_START
G1 F8640.000
G1 X197.949 Y44.982 E-0.02397
G1 X198.035 Y44.853 E-0.03564
;WIPE_END
G1 E-0.74039 F2100.000
G1 Z0.600 F10800.000
G1 X197.933 Y46.603
G1 Z0.200
G1 E0.80000 F2100.000
;WIDTH:0.109778
G1 F1200.000
G1 X197.949 Y46.706 E0.00058
G1 X198.035 Y46.834 E0.00086
;WIPE_START
G1 F8640.000
G1 X197.949 Y46.706 E-0.03564
G1 X197.933 Y46.603 E-0.02397
;WIPE_END
G1 E-0.74039 F2100.000
G1 Z0.600 F10800.000
G1 X198.717 Y47.738
G1 Z0.200
G1 E0.80000 F2100.000
;WIDTH:0.241485
G1 F1200.000
G1 X199.177 Y47.866 E0.00788
;WIPE_START
G1 F8640.000
G1 X198.717 Y47.738 E-0.11014
;WIPE_END
G1 E-0.68986 F2100.000
G1 Z0.600 F10800.000
G1 X201.968 Y41.899
G1 Z0.200
G1 E0.80000 F2100.000
;TYPE:Solid infill
;WIDTH:0.421269
G1 F1200.000
G1 X202.563 Y42.494 E0.02650
G1 X203.099 Y42.495 E0.01684
G1 X202.137 Y41.533 E0.04277
G1 X202.137 Y40.998 E0.01683
G1 X203.634 Y42.495 E0.06659
G1 X204.169 Y42.495 E0.01684
G1 X202.137 Y40.463 E0.09041
G1 X202.137 Y39.928 E0.01683
G1 X204.705 Y42.496 E0.11423
G1 X205.240 Y42.496 E0.01684
G1 X202.137 Y39.393 E0.13805
G1 X202.137 Y38.858 E0.01683
G1 X205.776 Y42.496 E0.16187
G1 X206.311 Y42.497 E0.01684
G1 X202.137 Y38.323 E0.18569
G1 X202.137 Y37.788 E0.01683
G1 X206.847 Y42.497 E0.20951
G1 X207.382 Y42.497 E0.01684
G1 X202.137 Y37.253 E0.23334
G1 X202.137 Y36.718 E0.01683
G1 X207.917 Y42.498 E0.25716
G1 X208.453 Y42.498 E0.01684
G1 X202.137 Y36.183 E0.28098
G1 X202.137 Y35.647 E0.01683
G1 X208.988 Y42.498 E0.30480
G1 X209.524 Y42.499 E0.01684
G1 X202.137 Y35.112 E0.32862
M73 Q4 S16
G1 X202.137 Y34.577 E0.01683
G1 X210.059 Y42.499 E0.35244
M73 P4 R16
G1 X210.594 Y42.499 E0.01684
G1 X202.137 Y34.042 E0.37626
G1 X202.137 Y33.507 E0.01683
G1 X211.130 Y42.500 E0.40008
G1 X211.288 Y42.500 E0.00499
G1 X211.735 Y42.595 E0.01437
G1 X211.735 Y42.570 E0.00078
G1 X202.353 Y33.188 E0.41743
G1 X202.888 Y33.188 E0.01683
G1 X211.735 Y42.035 E0.39362
G1 X211.735 Y41.500 E0.01683
G1 X203.423 Y33.188 E0.36982
G1 X203.958 Y33.188 E0.01683
G1 X211.735 Y40.965 E0.34601
G1 X211.735 Y40.430 E0.01683
G1 X204.493 Y33.188 E0.32221
G1 X205.028 Y33.188 E0.01683
G1 X211.735 Y39.895 E0.29840
G1 X211.735 Y39.360 E0.01683
G1 X205.563 Y33.188 E0.27460
G1 X206.098 Y33.188 E0.01683
G1 X211.735 Y38.824 E0.25079
G1 X211.735 Y38.289 E0.01683
G1 X206.633 Y33.188 E0.22698
G1 X207.168 Y33.188 E0.01683
G1 X211.735 Y37.754 E0.20318
G1 X211.735 Y37.219 E0.01683
G1 X207.703 Y33.188 E0.17937
G1 X208.239 Y33.188 E0.01683
G1 X211.735 Y36.684 E0.15557
G1 X211.735 Y36.149 E0.01683
G1 X208.774 Y33.188 E0.13176
G1 X209.309 Y33.188 E0.01683
G1 X211.735 Y35.614 E0.10796
G1 X211.735 Y35.079 E0.01683
G1 X209.844 Y33.188 E0.08415
G1 X210.379 Y33.188 E0.01683
G1 X211.735 Y34.544 E0.06034
G1 X211.735 Y34.009 E0.01683
G1 X210.914 Y33.188 E0.03654
G1 X211.288 Y33.188 E0.01176
G1 X211.421 Y33.159 E0.00428
G1 X211.905 Y33.643 E0.02154
;WIPE_START
G1 F8640.000
G1 X211.421 Y33.159 E-0.15810
G1 X211.288 Y33.188 E-0.03138
G1 X210.914 Y33.188 E-0.08632
G1 X211.735 Y34.009 E-0.26818
G1 X211.735 Y34.544 E-0.12355
G1 X211.452 Y34.261 E-0.09246
;WIPE_END
G1 E-0.04000 F2100.000
G1 Z0.600 F10800.000
G1 X212.838 Y30.834
G1 Z0.200
G1 E0.80000 F2100.000
;TYPE:Gap fill
;WIDTH:0.109782
G1 F1200.000
G1 X212.911 Y30.727 E0.00072
;WIDTH:0.117914
G1 X212.939 Y30.603 E0.00079
;WIPE_START
G1 F8640.000
G1 X212.911 Y30.727 E-0.02930
;WIPE_END
G1 E-0.77070 F2100.000
G1 Z0.600 F10800.000
G1 X212.959 Y29.084
G1 Z0.200
G1 E0.80000 F2100.000
;WIDTH:0.241484
G1 F1200.000
G1 X212.830 Y28.625 E0.00788
G1 X212.155 Y27.949 F10800.000
;WIDTH:0.241962
G1 F1200.000
G1 X211.696 Y27.821 E0.00789
;WIPE_START
G1 F8640.000
G1 X212.155 Y27.949 E-0.11015
;WIPE_END
G1 E-0.68985 F2100.000
G1 Z0.600 F10800.000
G1 X199.177 Y27.840
M73 Q5 S16
G1 Z0.200
G1 E0.80000 F2100.000
;WIDTH:0.123268
G1 F1200.000
G1 X199.036 Y27.865 E0.00095
G1 X198.859 Y27.993 E0.00146
;WIPE_START
G1 F8640.000
G1 X199.036 Y27.865 E-0.05055
G1 X199.177 Y27.840 E-0.03300
;WIPE_END
G1 E-0.71645 F2100.000
G1 Z0.600 F10800.000
M73 P5 R16
G1 X198.035 Y28.853
G1 Z0.200
G1 E0.80000 F2100.000
;WIDTH:0.109778
G1 F1200.000
G1 X197.949 Y28.982 E0.00086
G1 X197.933 Y29.084 E0.00058
;WIPE_START
G1 F8640.000
G1 X197.949 Y28.982 E-0.02397
G1 X198.035 Y28.853 E-0.03564
;WIPE_END
G1 E-0.74039 F2100.000
