; generated by PrusaSlicer 2.3.1+win64 on 2023-03-18 at 21:12:34 UTC

; 

; external perimeters extrusion width = 0.60mm
; perimeters extrusion width = 0.50mm
; infill extrusion width = 0.50mm
; solid infill extrusion width = 0.50mm
; top infill extrusion width = 0.45mm
; first layer extrusion width = 0.42mm

M73 P0 R32
M73 Q0 S32
M201 X1000 Y1000 Z200 E5000 ; sets maximum accelerations, mm/sec^2
M203 X200 Y200 Z12 E120 ; sets maximum feedrates, mm/sec
M204 P1250 R1250 T1250 ; sets acceleration (P, T) and retract acceleration (R), mm/sec^2
M205 X8.00 Y8.00 Z0.40 E4.50 ; sets the jerk limits, mm/sec
M205 S0 T0 ; sets the minimum extruding and travel feed rate, mm/sec
M107
;TYPE:Custom
M862.3 P "MK3S" ; printer model check
M862.1 P0.4 ; nozzle diameter check
M115 U3.9.3 ; tell printer latest fw version
G90 ; use absolute coordinates
M83 ; extruder relative mode
M104 S205 ; set extruder temp
M140 S67 ; set bed temp
M190 S67 ; wait for bed temp
M109 S205 ; wait for extruder temp
G28 W ; home all without mesh bed level
G80 ; mesh bed leveling
G1 Y-3.0 F1000.0 ; go outside print area
G92 E0.0
G1 X60.0 E9.0 F1000.0 ; intro line
G1 X100.0 E12.5 F1000.0 ; intro line
G92 E0.0
M221 S95

; Don't change E values below. Excessive value can damage the printer.

M907 E538 ; set extruder motor current
G21 ; set units to millimeters
G90 ; use absolute coordinates
M83 ; use relative distances for extrusion
M900 K0.05 ; Filament gcode LA 1.5
M900 K30 ; Filament gcode LA 1.0
;LAYER_CHANGE
;Z:0.2
;HEIGHT:0.2
;BEFORE_LAYER_CHANGE
G92 E0.0
;0.2


G1 E-0.80000 F2100.000
G1 Z0.400 F10800.000
;AFTER_LAYER_CHANGE
;0.2
; printing object sensor_housing.stl id:0 copy 0
G1 X183.584 Y25.718
G1 Z0.200
G1 E0.80000 F2100.000
M204 S1000
;TYPE:External perimeter
;WIDTH:0.42
G1 F1200.000
G1 X183.703 Y25.481 E0.00833
G1 X183.859 Y25.266 E0.00833
G1 X184.051 Y25.081 E0.00835
G1 X184.268 Y24.930 E0.00830
G1 X184.506 Y24.815 E0.00827
G1 X184.757 Y24.737 E0.00826
G1 X185.019 Y24.698 E0.00830
G1 X185.303 Y24.701 E0.00890
G1 X185.541 Y24.737 E0.00756
G1 X185.793 Y24.815 E0.00825
G1 X186.030 Y24.929 E0.00825
G1 X186.247 Y25.077 E0.00825
G1 X186.440 Y25.256 E0.00825
G1 X186.604 Y25.462 E0.00825
G1 X186.736 Y25.690 E0.00825
G1 X186.832 Y25.935 E0.00825
G1 X186.891 Y26.192 E0.00825
G1 X186.911 Y26.454 E0.00825
G1 X186.891 Y26.718 E0.00829
G1 X186.824 Y26.994 E0.00890
G1 X186.736 Y27.218 E0.00756
G1 X186.604 Y27.446 E0.00825
G1 X186.440 Y27.652 E0.00825
G1 X186.247 Y27.831 E0.00825
G1 X186.030 Y27.979 E0.00825
G1 X185.793 Y28.094 E0.00825
G1 X185.541 Y28.171 E0.00825
G1 X185.281 Y28.210 E0.00825
G1 X185.018 Y28.210 E0.00825
G1 X184.757 Y28.171 E0.00825
G1 X184.506 Y28.093 E0.00826
G1 X184.268 Y27.978 E0.00827
G1 X184.051 Y27.827 E0.00830
G1 X183.859 Y27.642 E0.00835
G1 X183.703 Y27.428 E0.00833
G1 X183.584 Y27.190 E0.00833
G1 X183.512 Y26.938 E0.00822
G1 X183.481 Y26.687 E0.00792
G1 X183.481 Y26.221 E0.01460
G1 X183.512 Y25.971 E0.00792
G1 X183.567 Y25.776 E0.00634
G1 X183.419 Y25.510 F10800.000
;WIPE_START
G1 F8640.000
G1 X183.703 Y25.481 E-0.07500
G1 X183.859 Y25.266 E-0.06135
G1 X184.051 Y25.081 E-0.06146
G1 X184.268 Y24.930 E-0.06113
G1 X184.506 Y24.815 E-0.06094
G1 X184.757 Y24.737 E-0.06085
G1 X185.019 Y24.698 E-0.06109
G1 X185.303 Y24.701 E-0.06553
G1 X185.541 Y24.737 E-0.05569
G1 X185.793 Y24.815 E-0.06078
G1 X186.030 Y24.929 E-0.06078
G1 X186.247 Y25.077 E-0.06078
G1 X186.294 Y25.120 E-0.01463
;WIPE_END
G1 E-0.04000 F2100.000
G1 Z0.600 F10800.000
G1 X184.990 Y45.085
G1 Z0.200
G1 E0.80000 F2100.000
;TYPE:Perimeter
G1 F1200.000
G1 X185.309 Y45.085 E0.01002
G1 X185.625 Y45.132 E0.01003
G1 X185.931 Y45.227 E0.01003
G1 X186.222 Y45.367 E0.01014
G1 X186.501 Y45.562 E0.01067
G1 X186.718 Y45.763 E0.00926
G1 X186.917 Y46.013 E0.01002
G1 X187.079 Y46.293 E0.01014
G1 X187.199 Y46.611 E0.01067
G1 X187.265 Y46.899 E0.00926
G1 X187.289 Y47.218 E0.01003
G1 X187.265 Y47.537 E0.01003
G1 X187.194 Y47.848 E0.01002
G1 X187.077 Y48.146 E0.01003
G1 X186.917 Y48.423 E0.01003
G1 X186.718 Y48.673 E0.01003
G1 X186.483 Y48.890 E0.01003
G1 X186.219 Y49.071 E0.01003
G1 X185.931 Y49.209 E0.01003
G1 X185.625 Y49.304 E0.01003
G1 X185.306 Y49.352 E0.01014
G1 X184.965 Y49.348 E0.01067
G1 X184.673 Y49.304 E0.00926
G1 X184.368 Y49.209 E0.01003
G1 X184.080 Y49.071 E0.01003
G1 X183.816 Y48.890 E0.01003
G1 X183.581 Y48.673 E0.01003
G1 X183.382 Y48.423 E0.01003
G1 X183.222 Y48.146 E0.01003
G1 X183.105 Y47.848 E0.01003
G1 X183.034 Y47.537 E0.01002
G1 X183.010 Y47.218 E0.01003
G1 X183.034 Y46.895 E0.01014
G1 X183.114 Y46.565 E0.01067
G1 X183.222 Y46.290 E0.00926
G1 X183.382 Y46.013 E0.01003
G1 X183.581 Y45.763 E0.01002
G1 X183.818 Y45.543 E0.01014
G1 X184.102 Y45.355 E0.01067
G1 X184.368 Y45.227 E0.00926
G1 X184.673 Y45.132 E0.01003
G1 X184.930 Y45.094 E0.00814
G1 X184.986 Y45.466 F10800.000
;TYPE:External perimeter
G1 F1200.000
G1 X185.281 Y45.462 E0.00924
G1 X185.541 Y45.501 E0.00825
G1 X185.793 Y45.579 E0.00825
G1 X186.031 Y45.693 E0.00829
G1 X186.264 Y45.856 E0.00890
G1 X186.440 Y46.020 E0.00756
G1 X186.604 Y46.226 E0.00825
G1 X186.737 Y46.455 E0.00829
G1 X186.837 Y46.720 E0.00890
G1 X186.891 Y46.955 E0.00756
G1 X186.911 Y47.218 E0.00825
G1 X186.891 Y47.480 E0.00825
G1 X186.832 Y47.737 E0.00825
G1 X186.736 Y47.982 E0.00825
G1 X186.604 Y48.210 E0.00825
G1 X186.440 Y48.416 E0.00825
G1 X186.247 Y48.595 E0.00825
G1 X186.030 Y48.743 E0.00825
G1 X185.793 Y48.857 E0.00825
G1 X185.541 Y48.935 E0.00825
G1 X185.280 Y48.974 E0.00829
G1 X184.996 Y48.971 E0.00890
G1 X184.757 Y48.935 E0.00756
G1 X184.506 Y48.857 E0.00825
G1 X184.269 Y48.743 E0.00825
G1 X184.051 Y48.595 E0.00825
G1 X183.858 Y48.416 E0.00825
G1 X183.694 Y48.210 E0.00825
G1 X183.563 Y47.982 E0.00825
G1 X183.466 Y47.737 E0.00825
G1 X183.408 Y47.480 E0.00825
G1 X183.388 Y47.218 E0.00825
G1 X183.408 Y46.954 E0.00829
G1 X183.475 Y46.678 E0.00890
G1 X183.563 Y46.454 E0.00756
G1 X183.694 Y46.226 E0.00825
G1 X183.858 Y46.020 E0.00825
G1 X184.052 Y45.840 E0.00829
G1 X184.289 Y45.683 E0.00890
G1 X184.506 Y45.579 E0.00756
G1 X184.757 Y45.501 E0.00825
G1 X184.927 Y45.475 E0.00538
G1 X185.111 Y45.199 F10800.000
;WIPE_START
G1 F8640.000
G1 X185.281 Y45.462 E-0.08179
G1 X185.541 Y45.501 E-0.06078
G1 X185.793 Y45.579 E-0.06078
G1 X186.031 Y45.693 E-0.06108
G1 X186.264 Y45.856 E-0.06552
G1 X186.440 Y46.020 E-0.05569
G1 X186.604 Y46.226 E-0.06078
G1 X186.737 Y46.455 E-0.06108
G1 X186.837 Y46.720 E-0.06552
G1 X186.891 Y46.955 E-0.05569
G1 X186.911 Y47.218 E-0.06078
G1 X186.891 Y47.480 E-0.06078
G1 X186.881 Y47.522 E-0.00974
;WIPE_END
G1 E-0.04000 F2100.000
G1 Z0.600 F10800.000
G1 X166.501 Y46.899
G1 Z0.200
G1 E0.80000 F2100.000
;TYPE:Perimeter
G1 F1200.000
G1 X166.525 Y47.218 E0.01003
G1 X166.501 Y47.537 E0.01003
G1 X166.430 Y47.848 E0.01002
G1 X166.313 Y48.146 E0.01003
G1 X166.153 Y48.423 E0.01003
G1 X165.954 Y48.673 E0.01003
G1 X165.719 Y48.890 E0.01003
G1 X165.455 Y49.071 E0.01003
G1 X165.167 Y49.209 E0.01003
G1 X164.862 Y49.304 E0.01003
G1 X164.542 Y49.352 E0.01014
G1 X164.202 Y49.348 E0.01067
G1 X163.910 Y49.304 E0.00926
G1 X163.604 Y49.209 E0.01003
G1 X163.316 Y49.071 E0.01003
G1 X163.052 Y48.890 E0.01003
G1 X162.817 Y48.673 E0.01003
G1 X162.618 Y48.423 E0.01003
G1 X162.458 Y48.146 E0.01003
G1 X162.341 Y47.848 E0.01003
G1 X162.270 Y47.537 E0.01002
G1 X162.246 Y47.218 E0.01003
G1 X162.271 Y46.895 E0.01014
G1 X162.350 Y46.565 E0.01067
G1 X162.458 Y46.290 E0.00926
G1 X162.618 Y46.013 E0.01003
G1 X162.817 Y45.763 E0.01002
G1 X163.054 Y45.543 E0.01014
G1 X163.338 Y45.355 E0.01067
G1 X163.604 Y45.227 E0.00926
G1 X163.910 Y45.132 E0.01003
G1 X164.226 Y45.085 E0.01003
G1 X164.545 Y45.085 E0.01002
G1 X164.862 Y45.132 E0.01003
G1 X165.167 Y45.227 E0.01003
G1 X165.459 Y45.367 E0.01014
G1 X165.737 Y45.562 E0.01067
G1 X165.954 Y45.763 E0.00926
G1 X166.153 Y46.013 E0.01002
G1 X166.315 Y46.293 E0.01014
G1 X166.435 Y46.611 E0.01067
G1 X166.488 Y46.841 E0.00738
G1 X166.120 Y46.924 F10800.000
;TYPE:External perimeter
G1 F1200.000
G1 X166.147 Y47.218 E0.00924
G1 X166.127 Y47.480 E0.00825
G1 X166.069 Y47.737 E0.00825
G1 X165.972 Y47.982 E0.00825
G1 X165.841 Y48.210 E0.00825
G1 X165.677 Y48.416 E0.00825
G1 X165.484 Y48.595 E0.00825
G1 X165.266 Y48.743 E0.00825
G1 X165.029 Y48.857 E0.00825
G1 X164.778 Y48.935 E0.00825
G1 X164.516 Y48.974 E0.00829
G1 X164.232 Y48.971 E0.00890
G1 X163.994 Y48.935 E0.00756
G1 X163.742 Y48.857 E0.00825
G1 X163.505 Y48.743 E0.00825
G1 X163.288 Y48.595 E0.00825
G1 X163.095 Y48.416 E0.00825
G1 X162.931 Y48.210 E0.00825
G1 X162.799 Y47.982 E0.00825
G1 X162.703 Y47.737 E0.00825
G1 X162.644 Y47.480 E0.00825
G1 X162.624 Y47.218 E0.00825
G1 X162.644 Y46.954 E0.00829
G1 X162.711 Y46.678 E0.00890
G1 X162.799 Y46.454 E0.00756
G1 X162.931 Y46.226 E0.00825
G1 X163.095 Y46.020 E0.00825
G1 X163.289 Y45.840 E0.00829
G1 X163.525 Y45.683 E0.00890
G1 X163.742 Y45.579 E0.00756
G1 X163.994 Y45.501 E0.00825
G1 X164.254 Y45.462 E0.00825
G1 X164.517 Y45.462 E0.00825
G1 X164.778 Y45.501 E0.00825
G1 X165.029 Y45.579 E0.00825
G1 X165.267 Y45.693 E0.00829
G1 X165.500 Y45.856 E0.00890
G1 X165.677 Y46.020 E0.00756
G1 X165.841 Y46.226 E0.00825
G1 X165.973 Y46.455 E0.00829
G1 X166.073 Y46.720 E0.00890
G1 X166.107 Y46.866 E0.00469
G1 X166.396 Y47.029 F10800.000
;WIPE_START
G1 F8640.000
G1 X166.147 Y47.218 E-0.08179
G1 X166.127 Y47.480 E-0.06078
G1 X166.069 Y47.737 E-0.06078
G1 X165.972 Y47.982 E-0.06078
G1 X165.841 Y48.210 E-0.06078
G1 X165.677 Y48.416 E-0.06078
G1 X165.484 Y48.595 E-0.06078
G1 X165.266 Y48.743 E-0.06078
G1 X165.029 Y48.857 E-0.06078
G1 X164.778 Y48.935 E-0.06078
G1 X164.516 Y48.974 E-0.06108
G1 X164.232 Y48.971 E-0.06552
G1 X164.212 Y48.968 E-0.00461
;WIPE_END
G1 E-0.04000 F2100.000
G1 Z0.600 F10800.000
G1 X193.403 Y28.000
G1 Z0.200
G1 E0.80000 F2100.000
;TYPE:Perimeter
G1 F1200.000
G1 X206.603 Y28.000 E0.41388
G1 X206.603 Y29.672 E0.05241
G1 X197.603 Y29.672 E0.28219
G1 X197.603 Y36.826 E0.22430
G1 X197.588 Y37.660 E0.02618
G1 X197.544 Y38.484 E0.02585
G1 X197.469 Y39.305 E0.02585
G1 X197.365 Y40.123 E0.02585
G1 X197.232 Y40.937 E0.02585
G1 X197.069 Y41.745 E0.02585
G1 X196.878 Y42.547 E0.02585
G1 X196.657 Y43.341 E0.02585
G1 X196.408 Y44.128 E0.02585
G1 X196.130 Y44.904 E0.02585
G1 X195.825 Y45.670 E0.02585
G1 X195.493 Y46.424 E0.02585
G1 X195.133 Y47.166 E0.02585
G1 X194.747 Y47.895 E0.02585
G1 X194.334 Y48.609 E0.02585
G1 X193.897 Y49.308 E0.02585
G1 X193.434 Y49.990 E0.02585
G1 X192.947 Y50.656 E0.02585
G1 X192.436 Y51.303 E0.02585
G1 X191.902 Y51.931 E0.02585
G1 X191.346 Y52.540 E0.02585
G1 X190.768 Y53.128 E0.02585
G1 X190.170 Y53.695 E0.02585
G1 X189.551 Y54.241 E0.02585
G1 X188.913 Y54.763 E0.02585
G1 X188.255 Y55.263 E0.02590
G1 X187.583 Y55.737 E0.02580
G1 X186.892 Y56.187 E0.02585
G1 X186.185 Y56.612 E0.02585
G1 X185.464 Y57.012 E0.02585
G1 X184.729 Y57.385 E0.02585
G1 X183.980 Y57.731 E0.02585
G1 X183.220 Y58.050 E0.02585
G1 X182.448 Y58.341 E0.02585
G1 X181.667 Y58.604 E0.02585
G1 X180.877 Y58.839 E0.02585
G1 X180.078 Y59.046 E0.02585
G1 X179.273 Y59.223 E0.02585
G1 X178.462 Y59.371 E0.02585
G1 X177.646 Y59.490 E0.02585
G1 X176.826 Y59.579 E0.02585
G1 X176.004 Y59.638 E0.02585
G1 X175.180 Y59.668 E0.02585
G1 X174.355 Y59.668 E0.02585
G1 X173.531 Y59.638 E0.02585
G1 X172.709 Y59.579 E0.02585
G1 X171.889 Y59.490 E0.02585
G1 X171.073 Y59.371 E0.02585
G1 X170.262 Y59.223 E0.02585
G1 X169.457 Y59.046 E0.02585
G1 X168.658 Y58.839 E0.02585
G1 X167.868 Y58.604 E0.02585
G1 X167.087 Y58.341 E0.02585
G1 X166.315 Y58.050 E0.02585
G1 X165.555 Y57.731 E0.02585
G1 X164.806 Y57.385 E0.02585
G1 X164.071 Y57.012 E0.02585
G1 X163.350 Y56.612 E0.02585
G1 X162.643 Y56.187 E0.02585
G1 X161.952 Y55.737 E0.02585
G1 X161.278 Y55.262 E0.02585
G1 X160.622 Y54.763 E0.02585
G1 X159.984 Y54.241 E0.02585
G1 X159.365 Y53.695 E0.02585
G1 X158.767 Y53.128 E0.02585
G1 X158.189 Y52.540 E0.02585
G1 X157.633 Y51.931 E0.02585
G1 X157.099 Y51.303 E0.02585
G1 X156.588 Y50.656 E0.02585
G1 X156.101 Y49.990 E0.02585
G1 X155.638 Y49.308 E0.02585
G1 X155.201 Y48.609 E0.02585
G1 X154.788 Y47.895 E0.02585
G1 X154.402 Y47.166 E0.02585
G1 X154.042 Y46.424 E0.02585
G1 X153.710 Y45.670 E0.02585
G1 X153.405 Y44.904 E0.02585
G1 X153.127 Y44.128 E0.02585
G1 X152.878 Y43.341 E0.02585
G1 X152.657 Y42.547 E0.02585
G1 X152.466 Y41.745 E0.02585
G1 X152.303 Y40.937 E0.02585
G1 X152.170 Y40.123 E0.02585
G1 X152.066 Y39.305 E0.02585
G1 X151.991 Y38.484 E0.02585
G1 X151.947 Y37.660 E0.02585
G1 X151.932 Y36.826 E0.02618
G1 X151.932 Y29.672 E0.22430
G1 X142.932 Y29.672 E0.28219
G1 X142.932 Y28.000 E0.05241
G1 X156.132 Y28.000 E0.41388
G1 X156.132 Y22.000 E0.18813
M73 Q1 S32
G1 X165.603 Y22.000 E0.29698
M73 P1 R32
G1 X165.607 Y24.257 E0.07077
G1 X165.307 Y24.112 E0.01045
G1 X164.946 Y24.000 E0.01185
G1 X164.600 Y23.948 E0.01097
G1 X164.203 Y23.943 E0.01245
G1 X163.825 Y24.000 E0.01198
G1 X163.466 Y24.111 E0.01180
G1 X163.127 Y24.274 E0.01180
G1 X162.816 Y24.486 E0.01180
G1 X162.540 Y24.742 E0.01180
G1 X162.306 Y25.036 E0.01180
G1 X162.118 Y25.362 E0.01180
G1 X161.980 Y25.712 E0.01180
G1 X161.896 Y26.079 E0.01180
G1 X161.868 Y26.454 E0.01180
G1 X161.896 Y26.829 E0.01180
G1 X161.974 Y27.170 E0.01096
G1 X162.115 Y27.541 E0.01244
G1 X162.306 Y27.872 E0.01198
G1 X162.540 Y28.166 E0.01180
G1 X162.796 Y28.404 E0.01096
G1 X163.122 Y28.632 E0.01244
G1 X163.466 Y28.798 E0.01198
G1 X163.825 Y28.908 E0.01180
G1 X164.198 Y28.965 E0.01180
G1 X164.574 Y28.965 E0.01180
G1 X164.946 Y28.908 E0.01181
G1 X165.307 Y28.797 E0.01185
G1 X165.605 Y28.652 E0.01037
G1 X165.603 Y45.018 E0.51314
G1 X165.305 Y44.875 E0.01037
G1 X164.946 Y44.764 E0.01180
G1 X164.574 Y44.708 E0.01180
G1 X164.198 Y44.708 E0.01180
G1 X163.825 Y44.764 E0.01180
G1 X163.466 Y44.875 E0.01180
G1 X163.151 Y45.026 E0.01096
G1 X162.820 Y45.246 E0.01244
G1 X162.540 Y45.506 E0.01198
G1 X162.306 Y45.800 E0.01180
G1 X162.118 Y46.126 E0.01180
G1 X161.990 Y46.451 E0.01096
G1 X161.897 Y46.837 E0.01244
G1 X161.868 Y47.218 E0.01198
G1 X161.896 Y47.593 E0.01180
G1 X161.980 Y47.960 E0.01180
G1 X162.118 Y48.310 E0.01180
G1 X162.306 Y48.636 E0.01180
G1 X162.540 Y48.930 E0.01180
G1 X162.816 Y49.186 E0.01180
G1 X163.127 Y49.398 E0.01180
G1 X163.466 Y49.561 E0.01180
G1 X163.825 Y49.672 E0.01180
G1 X164.171 Y49.724 E0.01096
G1 X164.568 Y49.729 E0.01244
G1 X164.946 Y49.672 E0.01198
G1 X165.305 Y49.561 E0.01180
G1 X165.644 Y49.398 E0.01180
G1 X165.955 Y49.186 E0.01180
G1 X166.231 Y48.930 E0.01180
G1 X166.466 Y48.636 E0.01180
G1 X166.654 Y48.310 E0.01180
G1 X166.791 Y47.960 E0.01180
G1 X166.875 Y47.593 E0.01180
G1 X166.903 Y47.218 E0.01180
G1 X166.875 Y46.843 E0.01180
G1 X166.797 Y46.502 E0.01096
G1 X166.657 Y46.131 E0.01244
G1 X166.581 Y46.000 E0.00473
G1 X182.954 Y46.000 E0.51334
G1 X182.881 Y46.126 E0.00454
G1 X182.754 Y46.451 E0.01096
G1 X182.661 Y46.837 E0.01244
G1 X182.632 Y47.218 E0.01198
G1 X182.660 Y47.593 E0.01180
G1 X182.744 Y47.960 E0.01180
G1 X182.881 Y48.310 E0.01180
G1 X183.069 Y48.636 E0.01180
G1 X183.304 Y48.930 E0.01180
G1 X183.580 Y49.186 E0.01180
G1 X183.891 Y49.398 E0.01180
G1 X184.230 Y49.561 E0.01180
G1 X184.589 Y49.672 E0.01180
G1 X184.935 Y49.724 E0.01096
G1 X185.332 Y49.729 E0.01244
G1 X185.710 Y49.672 E0.01198
G1 X186.069 Y49.561 E0.01180
G1 X186.408 Y49.398 E0.01180
G1 X186.719 Y49.186 E0.01180
G1 X186.995 Y48.930 E0.01180
G1 X187.229 Y48.636 E0.01180
G1 X187.417 Y48.310 E0.01180
G1 X187.555 Y47.960 E0.01180
G1 X187.639 Y47.593 E0.01180
G1 X187.667 Y47.218 E0.01180
G1 X187.639 Y46.843 E0.01180
G1 X187.561 Y46.502 E0.01096
G1 X187.420 Y46.131 E0.01244
G1 X187.229 Y45.800 E0.01198
G1 X186.995 Y45.506 E0.01180
G1 X186.739 Y45.268 E0.01096
G1 X186.413 Y45.040 E0.01244
G1 X186.069 Y44.875 E0.01198
G1 X185.710 Y44.764 E0.01180
G1 X185.337 Y44.708 E0.01180
G1 X184.961 Y44.708 E0.01180
G1 X184.589 Y44.764 E0.01180
G1 X184.230 Y44.875 E0.01180
G1 X183.932 Y45.018 E0.01037
G1 X183.930 Y28.652 E0.51314
G1 X184.228 Y28.797 E0.01037
G1 X184.589 Y28.908 E0.01185
G1 X184.961 Y28.965 E0.01181
G1 X185.337 Y28.965 E0.01180
G1 X185.710 Y28.908 E0.01180
G1 X186.069 Y28.798 E0.01180
G1 X186.408 Y28.634 E0.01180
G1 X186.719 Y28.422 E0.01180
