; generated by PrusaSlicer 2.3.1+win64 on 2023-05-08 at 17:07:34 UTC

; 

; external perimeters extrusion width = 0.45mm
; perimeters extrusion width = 0.45mm
; infill extrusion width = 0.45mm
; solid infill extrusion width = 0.45mm
; top infill extrusion width = 0.40mm
; first layer extrusion width = 0.42mm

M73 P0 R42
M73 Q0 S42
M201 X1000 Y1000 Z200 E5000 ; sets maximum accelerations, mm/sec^2
M203 X200 Y200 Z12 E120 ; sets maximum feedrates, mm/sec
M204 P1250 R1250 T1250 ; sets acceleration (P, T) and retract acceleration (R), mm/sec^2
M205 X8.00 Y8.00 Z0.40 E4.50 ; sets the jerk limits, mm/sec
M205 S0 T0 ; sets the minimum extruding and travel feed rate, mm/sec
M107
;TYPE:Custom
M862.3 P "MK3S" ; printer model check
M862.1 P0.4 ; nozzle diameter check
M115 U3.9.3 ; tell printer latest fw version
G90 ; use absolute coordinates
M83 ; extruder relative mode
M104 S215 ; set extruder temp
M140 S67 ; set bed temp
M190 S67 ; wait for bed temp
M109 S215 ; wait for extruder temp
G28 W ; home all without mesh bed level
G80 ; mesh bed leveling
G1 Y-3.0 F1000.0 ; go outside print area
G92 E0.0
G1 X60.0 E9.0 F1000.0 ; intro line
G1 X100.0 E12.5 F1000.0 ; intro line
G92 E0.0
M221 S95

; Don't change E values below. Excessive value can damage the printer.

M907 E538 ; set extruder motor current
G21 ; set units to millimeters
G90 ; use absolute coordinates
M83 ; use relative distances for extrusion
M900 K0.05 ; Filament gcode LA 1.5
M900 K30 ; Filament gcode LA 1.0
;LAYER_CHANGE
;Z:0.2
;HEIGHT:0.2
;BEFORE_LAYER_CHANGE
G92 E0.0
;0.2


G1 E-0.80000 F2100.000
G1 Z0.400 F10800.000
;AFTER_LAYER_CHANGE
;0.2
; printing object spacer15.4.stl id:3 copy 0
G1 X117.335 Y40.050
G1 Z0.200
G1 E0.80000 F2100.000
M204 S1000
;TYPE:Perimeter
;WIDTH:0.42
G1 F1200.000
G1 X117.559 Y39.553 E0.01710
G1 X117.719 Y39.294 E0.00952
G1 X118.051 Y38.881 E0.01663
G1 X118.479 Y38.501 E0.01794
G1 X118.955 Y38.208 E0.01753
G1 X119.473 Y38.000 E0.01749
G1 X120.006 Y37.885 E0.01710
G1 X120.309 Y37.860 E0.00953
G1 X120.842 Y37.882 E0.01671
G1 X121.141 Y37.934 E0.00953
G1 X121.663 Y38.093 E0.01710
G1 X122.161 Y38.344 E0.01749
G1 X122.609 Y38.676 E0.01749
G1 X122.996 Y39.079 E0.01749
G1 X123.308 Y39.541 E0.01748
G1 X123.527 Y40.023 E0.01662
G1 X123.621 Y40.327 E0.00998
G1 X123.714 Y40.866 E0.01713
G1 X123.714 Y41.396 E0.01662
G1 X123.676 Y41.712 E0.00998
G1 X123.538 Y42.241 E0.01713
G1 X123.320 Y42.724 E0.01662
G1 X123.155 Y42.996 E0.00998
G1 X122.819 Y43.412 E0.01675
G1 X122.599 Y43.622 E0.00953
G1 X122.161 Y43.946 E0.01710
G1 X121.663 Y44.198 E0.01749
G1 X121.129 Y44.361 E0.01749
G1 X120.576 Y44.432 E0.01749
G1 X120.018 Y44.408 E0.01749
G1 X119.485 Y44.293 E0.01710
G1 X119.199 Y44.192 E0.00953
G1 X118.712 Y43.946 E0.01710
G1 X118.263 Y43.615 E0.01749
G1 X117.877 Y43.212 E0.01749
G1 X117.565 Y42.750 E0.01748
G1 X117.346 Y42.267 E0.01662
G1 X117.251 Y41.963 E0.00998
G1 X117.159 Y41.425 E0.01713
G1 X117.158 Y40.895 E0.01662
G1 X117.197 Y40.579 E0.00998
G1 X117.320 Y40.108 E0.01526
G1 X117.685 Y40.203 F10800.000
;TYPE:External perimeter
G1 F1200.000
G1 X117.893 Y39.730 E0.01620
G1 X118.027 Y39.512 E0.00802
G1 X118.325 Y39.142 E0.01489
G1 X118.705 Y38.805 E0.01592
G1 X119.126 Y38.546 E0.01549
G1 X119.584 Y38.362 E0.01548
G1 X120.062 Y38.259 E0.01534
G1 X120.317 Y38.237 E0.00803
G1 X120.802 Y38.258 E0.01520
G1 X121.054 Y38.301 E0.00803
G1 X121.522 Y38.444 E0.01534
G1 X121.962 Y38.667 E0.01548
G1 X122.359 Y38.960 E0.01548
G1 X122.701 Y39.317 E0.01548
G1 X122.977 Y39.726 E0.01548
G1 X123.174 Y40.158 E0.01489
G1 X123.254 Y40.416 E0.00847
G1 X123.337 Y40.898 E0.01535
G1 X123.337 Y41.373 E0.01488
G1 X123.304 Y41.641 E0.00847
G1 X123.181 Y42.115 E0.01535
G1 X122.986 Y42.548 E0.01489
G1 X122.845 Y42.779 E0.00847
G1 X122.541 Y43.156 E0.01522
G1 X122.356 Y43.333 E0.00803
G1 X121.962 Y43.624 E0.01534
G1 X121.522 Y43.846 E0.01548
G1 X121.050 Y43.991 E0.01548
G1 X120.560 Y44.054 E0.01548
G1 X120.067 Y44.033 E0.01548
G1 X119.588 Y43.930 E0.01534
G1 X119.347 Y43.844 E0.00803
G1 X118.910 Y43.624 E0.01534
G1 X118.513 Y43.331 E0.01548
G1 X118.171 Y42.974 E0.01548
G1 X117.895 Y42.565 E0.01548
G1 X117.699 Y42.133 E0.01488
G1 X117.619 Y41.875 E0.00847
G1 X117.536 Y41.392 E0.01535
G1 X117.535 Y40.918 E0.01489
G1 X117.568 Y40.650 E0.00847
G1 X117.669 Y40.261 E0.01260
G1 X117.426 Y39.897 F10800.000
;WIPE_START
G1 F8640.000
G1 X117.893 Y39.730 E-0.13302
G1 X118.027 Y39.512 E-0.05907
G1 X118.325 Y39.142 E-0.10965
G1 X118.705 Y38.805 E-0.11724
G1 X119.126 Y38.546 E-0.11409
G1 X119.584 Y38.362 E-0.11400
G1 X120.062 Y38.259 E-0.11292
;WIPE_END
G1 E-0.04000 F2100.000
G1 Z0.600 F10800.000
G1 X106.223 Y26.932
G1 Z0.200
G1 E0.80000 F2100.000
;TYPE:Perimeter
G1 F1200.000
G1 X134.649 Y26.932 E0.89127
G1 X134.649 Y55.358 E0.89127
G1 X106.223 Y55.358 E0.89127
G1 X106.223 Y26.992 E0.88939
G1 X105.846 Y26.555 F10800.000
;TYPE:External perimeter
G1 F1200.000
G1 X135.026 Y26.555 E0.91492
G1 X135.026 Y55.735 E0.91492
M73 P0 R41
G1 X105.846 Y55.735 E0.91492
G1 X105.846 Y26.615 E0.91304
G1 X106.233 Y26.659 F10800.000
;WIPE_START
G1 F8640.000
G1 X109.138 Y26.609 E-0.76000
;WIPE_END
M73 Q0 S41
G1 E-0.04000 F2100.000
G1 Z0.600 F10800.000
G1 X133.767 Y27.046
G1 Z0.200
G1 E0.80000 F2100.000
;TYPE:Solid infill
;WIDTH:0.42324
G1 F1200.000
G1 X134.366 Y27.645 E0.02681
G1 X134.366 Y28.183 E0.01701
G1 X133.399 Y27.215 E0.04327
G1 X132.861 Y27.215 E0.01701
G1 X134.366 Y28.721 E0.06733
G1 X134.366 Y29.259 E0.01701
G1 X132.323 Y27.215 E0.09138
G1 X131.785 Y27.215 E0.01701
G1 X134.366 Y29.796 E0.11544
G1 X134.366 Y30.334 E0.01701
G1 X131.247 Y27.215 E0.13949
G1 X130.709 Y27.215 E0.01701
G1 X134.366 Y30.872 E0.16355
G1 X134.366 Y31.410 E0.01701
G1 X130.172 Y27.215 E0.18760
G1 X129.634 Y27.215 E0.01701
G1 X134.366 Y31.948 E0.21165
G1 X134.366 Y32.486 E0.01701
G1 X129.096 Y27.215 E0.23571
G1 X128.558 Y27.215 E0.01701
G1 X134.366 Y33.024 E0.25976
G1 X134.366 Y33.561 E0.01701
G1 X128.020 Y27.215 E0.28382
G1 X127.482 Y27.215 E0.01701
G1 X134.366 Y34.099 E0.30787
M73 P1 R41
M73 Q1 S41
G1 X134.366 Y34.637 E0.01701
G1 X126.944 Y27.215 E0.33193
G1 X126.407 Y27.215 E0.01701
G1 X134.366 Y35.175 E0.35598
G1 X134.366 Y35.713 E0.01701
G1 X125.869 Y27.215 E0.38003
G1 X125.331 Y27.215 E0.01701
G1 X134.366 Y36.251 E0.40409
G1 X134.366 Y36.789 E0.01701
G1 X124.793 Y27.215 E0.42814
G1 X124.255 Y27.215 E0.01701
G1 X134.366 Y37.326 E0.45220
G1 X134.366 Y37.864 E0.01701
G1 X123.717 Y27.215 E0.47625
G1 X123.180 Y27.215 E0.01701
G1 X134.366 Y38.402 E0.50031
G1 X134.366 Y38.940 E0.01701
G1 X122.642 Y27.215 E0.52436
G1 X122.104 Y27.215 E0.01701
G1 X134.366 Y39.478 E0.54841
G1 X134.366 Y40.016 E0.01701
G1 X121.566 Y27.215 E0.57247
G1 X121.028 Y27.215 E0.01701
G1 X134.366 Y40.554 E0.59652
G1 X134.366 Y41.091 E0.01701
G1 X120.490 Y27.215 E0.62058
G1 X119.952 Y27.215 E0.01701
G1 X134.366 Y41.629 E0.64463
G1 X134.366 Y42.167 E0.01701
G1 X119.415 Y27.215 E0.66869
G1 X118.877 Y27.215 E0.01701
G1 X134.366 Y42.705 E0.69274
G1 X134.366 Y43.243 E0.01701
G1 X118.339 Y27.215 E0.71679
G1 X117.801 Y27.215 E0.01701
G1 X134.366 Y43.781 E0.74085
G1 X134.366 Y44.319 E0.01701
G1 X117.263 Y27.215 E0.76490
G1 X116.725 Y27.215 E0.01701
G1 X134.366 Y44.856 E0.78896
G1 X134.366 Y45.394 E0.01701
G1 X116.187 Y27.215 E0.81301
G1 X115.650 Y27.215 E0.01701
G1 X134.366 Y45.932 E0.83707
G1 X134.366 Y46.470 E0.01701
G1 X115.112 Y27.215 E0.86112
G1 X114.574 Y27.215 E0.01701
G1 X134.366 Y47.008 E0.88517
G1 X134.366 Y47.546 E0.01701
G1 X114.036 Y27.215 E0.90923
M73 P2 R41
M73 Q2 S41
G1 X113.498 Y27.215 E0.01701
G1 X134.366 Y48.084 E0.93328
G1 X134.366 Y48.621 E0.01701
G1 X112.960 Y27.215 E0.95734
G1 X112.422 Y27.215 E0.01701
G1 X134.366 Y49.159 E0.98139
G1 X134.366 Y49.697 E0.01701
G1 X111.885 Y27.215 E1.00545
G1 X111.347 Y27.215 E0.01701
G1 X134.366 Y50.235 E1.02950
G1 X134.366 Y50.773 E0.01701
G1 X123.906 Y40.312 E0.46783
G1 X123.996 Y40.842 E0.01700
G1 X123.997 Y40.941 E0.00313
G1 X134.366 Y51.311 E0.46376
G1 X134.366 Y51.848 E0.01701
G1 X123.990 Y41.472 E0.46406
G1 X123.954 Y41.765 E0.00934
G1 X123.911 Y41.931 E0.00541
G1 X134.366 Y52.386 E0.46760
G1 X134.366 Y52.924 E0.01701
G1 X123.797 Y42.355 E0.47270
G1 X123.630 Y42.725 E0.01286
G1 X134.366 Y53.462 E0.48017
G1 X134.366 Y54.000 E0.01701
G1 X123.439 Y43.073 E0.48870
G1 X123.208 Y43.380 E0.01215
G1 X134.366 Y54.538 E0.49902
G1 X134.366 Y55.076 E0.01701
G1 X122.959 Y43.669 E0.51015
G1 X122.673 Y43.920 E0.01205
G1 X133.828 Y55.076 E0.49892
G1 X133.291 Y55.076 E0.01701
G1 X122.363 Y44.148 E0.48869
G1 X122.014 Y44.337 E0.01255
G1 X132.753 Y55.076 E0.48025
G1 X132.215 Y55.076 E0.01701
G1 X121.640 Y44.500 E0.47295
G1 X121.228 Y44.626 E0.01362
G1 X131.677 Y55.076 E0.46731
G1 X131.139 Y55.076 E0.01701
G1 X120.757 Y44.694 E0.46430
G1 X120.588 Y44.715 E0.00540
G1 X120.226 Y44.700 E0.01146
G1 X130.601 Y55.076 E0.46402
G1 X130.063 Y55.076 E0.01701
G1 X119.355 Y44.367 E0.47890
;WIPE_START
G1 F8640.000
G1 X121.683 Y46.695 E-0.76000
;WIPE_END
G1 E-0.04000 F2100.000
G1 Z0.600 F10800.000
G1 X121.527 Y37.933
G1 Z0.200
G1 E0.80000 F2100.000
G1 F1200.000
G1 X110.809 Y27.215 E0.47934
G1 X110.271 Y27.215 E0.01701
G1 X120.647 Y37.591 E0.46402
G1 X120.303 Y37.576 E0.01087
G1 X120.111 Y37.593 E0.00611
G1 X109.733 Y27.215 E0.46410
G1 X109.195 Y27.215 E0.01701
G1 X119.652 Y37.672 E0.46767
M73 P3 R41
M73 Q3 S41
G1 X119.390 Y37.729 E0.00849
G1 X119.234 Y37.792 E0.00532
G1 X108.657 Y27.215 E0.47300
M73 P3 R40
G1 X108.120 Y27.215 E0.01701
G1 X118.850 Y37.946 E0.47990
G1 X118.514 Y38.148 E0.01239
G1 X107.582 Y27.215 E0.48893
G1 X107.044 Y27.215 E0.01701
G1 X118.200 Y38.371 E0.49892
G1 X117.915 Y38.624 E0.01205
G1 X106.506 Y27.215 E0.51023
G1 X106.506 Y27.753 E0.01701
G1 X117.664 Y38.911 E0.49901
G1 X117.433 Y39.218 E0.01215
G1 X106.506 Y28.291 E0.48869
M73 Q3 S40
G1 X106.506 Y28.829 E0.01701
G1 X117.243 Y39.566 E0.48019
G1 X117.076 Y39.936 E0.01286
G1 X106.506 Y29.367 E0.47270
G1 X106.506 Y29.905 E0.01701
G1 X116.962 Y40.360 E0.46760
G1 X116.919 Y40.526 E0.00541
G1 X116.882 Y40.819 E0.00934
G1 X106.506 Y30.442 E0.46406
G1 X106.506 Y30.980 E0.01701
G1 X116.876 Y41.350 E0.46376
G1 X116.876 Y41.449 E0.00313
G1 X116.967 Y41.979 E0.01700
G1 X106.506 Y31.518 E0.46783
G1 X106.506 Y32.056 E0.01701
G1 X129.526 Y55.076 E1.02949
G1 X128.988 Y55.076 E0.01701
G1 X106.506 Y32.594 E1.00544
G1 X106.506 Y33.132 E0.01701
G1 X128.450 Y55.076 E0.98139
G1 X127.912 Y55.076 E0.01701
G1 X106.506 Y33.670 E0.95733
G1 X106.506 Y34.207 E0.01701
G1 X127.374 Y55.076 E0.93328
G1 X126.836 Y55.076 E0.01701
G1 X106.506 Y34.745 E0.90922
G1 X106.506 Y35.283 E0.01701
G1 X126.298 Y55.076 E0.88517
G1 X125.761 Y55.076 E0.01701
G1 X106.506 Y35.821 E0.86111
G1 X106.506 Y36.359 E0.01701
G1 X125.223 Y55.076 E0.83706
G1 X124.685 Y55.076 E0.01701
G1 X106.506 Y36.897 E0.81301
M73 P4 R40
M73 Q4 S40
G1 X106.506 Y37.435 E0.01701
G1 X124.147 Y55.076 E0.78895
G1 X123.609 Y55.076 E0.01701
G1 X106.506 Y37.972 E0.76490
G1 X106.506 Y38.510 E0.01701
G1 X123.071 Y55.076 E0.74084
G1 X122.534 Y55.076 E0.01701
G1 X106.506 Y39.048 E0.71679
G1 X106.506 Y39.586 E0.01701
G1 X121.996 Y55.076 E0.69273
G1 X121.458 Y55.076 E0.01701
G1 X106.506 Y40.124 E0.66868
G1 X106.506 Y40.662 E0.01701
G1 X120.920 Y55.076 E0.64463
G1 X120.382 Y55.076 E0.01701
G1 X106.506 Y41.200 E0.62057
G1 X106.506 Y41.737 E0.01701
G1 X119.844 Y55.076 E0.59652
G1 X119.306 Y55.076 E0.01701
G1 X106.506 Y42.275 E0.57246
G1 X106.506 Y42.813 E0.01701
G1 X118.769 Y55.076 E0.54841
G1 X118.231 Y55.076 E0.01701
G1 X106.506 Y43.351 E0.52435
G1 X106.506 Y43.889 E0.01701
G1 X117.693 Y55.076 E0.50030
G1 X117.155 Y55.076 E0.01701
G1 X106.506 Y44.427 E0.47625
G1 X106.506 Y44.965 E0.01701
G1 X116.617 Y55.076 E0.45219
G1 X116.079 Y55.076 E0.01701
G1 X106.506 Y45.502 E0.42814
G1 X106.506 Y46.040 E0.01701
G1 X115.541 Y55.076 E0.40408
G1 X115.004 Y55.076 E0.01701
G1 X106.506 Y46.578 E0.38003
G1 X106.506 Y47.116 E0.01701
G1 X114.466 Y55.076 E0.35597
G1 X113.928 Y55.076 E0.01701
G1 X106.506 Y47.654 E0.33192
G1 X106.506 Y48.192 E0.01701
G1 X113.390 Y55.076 E0.30787
G1 X112.852 Y55.076 E0.01701
G1 X106.506 Y48.730 E0.28381
G1 X106.506 Y49.267 E0.01701
G1 X112.314 Y55.076 E0.25976
G1 X111.776 Y55.076 E0.01701
G1 X106.506 Y49.805 E0.23570
G1 X106.506 Y50.343 E0.01701
G1 X111.239 Y55.076 E0.21165
G1 X110.701 Y55.076 E0.01701
G1 X106.506 Y50.881 E0.18759
G1 X106.506 Y51.419 E0.01701
G1 X110.163 Y55.076 E0.16354
G1 X109.625 Y55.076 E0.01701
G1 X106.506 Y51.957 E0.13949
G1 X106.506 Y52.494 E0.01701
G1 X109.087 Y55.076 E0.11543
G1 X108.549 Y55.076 E0.01701
G1 X106.506 Y53.032 E0.09138
G1 X106.506 Y53.570 E0.01701
G1 X108.011 Y55.076 E0.06732
G1 X107.474 Y55.076 E0.01701
G1 X106.506 Y54.108 E0.04327
G1 X106.506 Y54.646 E0.01701
G1 X107.105 Y55.245 E0.02680
; stop printing object spacer15.4.stl id:3 copy 0
; printing object spacer1.stl id:2 copy 0
;WIPE_START
G1 F8640.000
G1 X106.506 Y54.646 E-0.19571
G1 X106.506 Y54.108 E-0.12419
G1 X107.474 Y55.076 E-0.31593
G1 X108.011 Y55.076 E-0.12417
;WIPE_END
G1 E-0.04000 F2100.000
G1 Z0.600 F10800.000
G1 X150.780 Y41.965
G1 Z0.200
G1 E0.80000 F2100.000
;TYPE:Perimeter
;WIDTH:0.42
G1 F1200.000
G1 X150.695 Y41.448 E0.01643
G1 X150.683 Y41.157 E0.00914
G1 X150.722 Y40.665 E0.01547
G1 X150.852 Y40.127 E0.01735
G1 X150.958 Y39.852 E0.00923
G1 X151.204 Y39.389 E0.01643
G1 X151.523 Y38.973 E0.01643
G1 X151.727 Y38.765 E0.00914
G1 X152.111 Y38.456 E0.01547
G1 X152.603 Y38.176 E0.01773
G1 X153.098 Y37.998 E0.01650
G1 X153.382 Y37.933 E0.00914
G1 X153.873 Y37.881 E0.01547
G1 X154.437 Y37.911 E0.01773
G1 X154.962 Y38.031 E0.01688
G1 X155.458 Y38.234 E0.01679
G1 X155.878 Y38.490 E0.01545
G1 X156.122 Y38.681 E0.00970
G1 X156.328 Y38.875 E0.00887
G1 X156.663 Y39.278 E0.01643
G1 X156.929 Y39.730 E0.01643
G1 X157.045 Y39.998 E0.00916
G1 X157.192 Y40.501 E0.01643
G1 X157.256 Y41.022 E0.01643
G1 X157.256 Y41.314 E0.00916
G1 X157.192 Y41.834 E0.01643
G1 X157.041 Y42.349 E0.01681
G1 X156.814 Y42.821 E0.01643
G1 X156.656 Y43.066 E0.00914
G1 X156.342 Y43.446 E0.01547
G1 X155.917 Y43.820 E0.01773
G1 X155.459 Y44.101 E0.01688
G1 X154.973 Y44.300 E0.01643
G1 X154.691 Y44.376 E0.00916
G1 X154.172 Y44.451 E0.01643
G1 X153.636 Y44.440 E0.01681
G1 X153.121 Y44.344 E0.01643
G1 X152.842 Y44.256 E0.00916
G1 X152.376 Y44.043 E0.01606
G1 X152.128 Y43.891 E0.00914
G1 X151.742 Y43.584 E0.01547
G1 X151.360 Y43.167 E0.01773
G1 X151.075 Y42.725 E0.01650
M73 Q5 S40
G1 X150.948 Y42.461 E0.00916
G1 X150.799 Y42.022 E0.01455
M73 P5 R40
G1 X151.157 Y41.901 F10800.000
;TYPE:External perimeter
G1 F1200.000
G1 X151.071 Y41.409 E0.01565
G1 X151.061 Y41.164 E0.00770
G1 X151.095 Y40.724 E0.01382
G1 X151.213 Y40.239 E0.01564
G1 X151.301 Y40.009 E0.00774
G1 X151.522 Y39.594 E0.01474
G1 X151.808 Y39.220 E0.01474
G1 X151.980 Y39.045 E0.00770
G1 X152.324 Y38.769 E0.01382
G1 X152.761 Y38.520 E0.01578
G1 X153.204 Y38.360 E0.01477
G1 X153.444 Y38.305 E0.00770
G1 X153.882 Y38.259 E0.01382
G1 X154.385 Y38.286 E0.01578
G1 X154.848 Y38.392 E0.01490
G1 X155.287 Y38.571 E0.01487
G1 X155.663 Y38.801 E0.01382
G1 X156.053 Y39.134 E0.01607
G1 X156.354 Y39.495 E0.01474
G1 X156.592 Y39.901 E0.01474
G1 X156.689 Y40.127 E0.00771
G1 X156.822 Y40.578 E0.01474
G1 X156.879 Y41.045 E0.01474
G1 X156.879 Y41.291 E0.00771
G1 X156.822 Y41.757 E0.01474
G1 X156.688 Y42.213 E0.01488
G1 X156.484 Y42.636 E0.01474
G1 X156.351 Y42.843 E0.00770
G1 X156.070 Y43.183 E0.01382
G1 X155.692 Y43.515 E0.01578
G1 X155.287 Y43.764 E0.01490
G1 X154.852 Y43.942 E0.01474
G1 X154.615 Y44.006 E0.00771
G1 X154.149 Y44.073 E0.01474
G1 X153.675 Y44.063 E0.01488
G1 X153.213 Y43.978 E0.01474
G1 X152.978 Y43.903 E0.00771
G1 X152.554 Y43.710 E0.01461
G1 X152.345 Y43.581 E0.00770
G1 X151.999 Y43.307 E0.01382
G1 X151.659 Y42.936 E0.01578
G1 X151.405 Y42.540 E0.01477
G1 X151.298 Y42.319 E0.00771
G1 X151.176 Y41.958 E0.01195
G1 X150.773 Y41.788 F10800.000
;WIPE_START
G1 F8640.000
G1 X151.071 Y41.409 E-0.12893
G1 X151.061 Y41.164 E-0.05674
G1 X151.095 Y40.724 E-0.10181
G1 X151.213 Y40.239 E-0.11519
G1 X151.301 Y40.009 E-0.05698
G1 X151.522 Y39.594 E-0.10858
G1 X151.808 Y39.220 E-0.10858
G1 X151.980 Y39.045 E-0.05674
