; generated by PrusaSlicer 2.3.1+win64 on 2023-06-24 at 23:43:27 UTC

; 

; external perimeters extrusion width = 0.60mm
; perimeters extrusion width = 0.50mm
; infill extrusion width = 0.50mm
; solid infill extrusion width = 0.50mm
; top infill extrusion width = 0.45mm
; support material extrusion width = 0.38mm
; first layer extrusion width = 0.42mm

M73 P0 R544
M73 Q0 S548
M201 X1000 Y1000 Z200 E5000 ; sets maximum accelerations, mm/sec^2
M203 X200 Y200 Z12 E120 ; sets maximum feedrates, mm/sec
M204 P1250 R1250 T1250 ; sets acceleration (P, T) and retract acceleration (R), mm/sec^2
M205 X8.00 Y8.00 Z0.40 E4.50 ; sets the jerk limits, mm/sec
M205 S0 T0 ; sets the minimum extruding and travel feed rate, mm/sec
M107
;TYPE:Custom
M862.3 P "MK3S" ; printer model check
M862.1 P0.4 ; nozzle diameter check
M115 U3.9.3 ; tell printer latest fw version
G90 ; use absolute coordinates
M83 ; extruder relative mode
M104 S205 ; set extruder temp
M140 S67 ; set bed temp
M190 S67 ; wait for bed temp
M109 S205 ; wait for extruder temp
G28 W ; home all without mesh bed level
G80 ; mesh bed leveling
G1 Y-3.0 F1000.0 ; go outside print area
G92 E0.0
G1 X60.0 E9.0 F1000.0 ; intro line
G1 X100.0 E12.5 F1000.0 ; intro line
G92 E0.0
M221 S95

; Don't change E values below. Excessive value can damage the printer.

M907 E538 ; set extruder motor current
G21 ; set units to millimeters
G90 ; use absolute coordinates
M83 ; use relative distances for extrusion
M900 K0.05 ; Filament gcode LA 1.5
M900 K30 ; Filament gcode LA 1.0
;LAYER_CHANGE
;Z:0.2
;HEIGHT:0.2
;BEFORE_LAYER_CHANGE
G92 E0.0
;0.2


G1 E-0.80000 F2100.000
G1 Z0.400 F10800.000
;AFTER_LAYER_CHANGE
;0.2
; printing object the_box.stl id:0 copy 0
G1 X23.123 Y21.292
G1 Z0.200
G1 E0.80000 F2100.000
M204 S1000
;TYPE:Perimeter
;WIDTH:0.42
G1 F1200.000
G1 X220.050 Y21.292 E6.17452
G1 X220.050 Y116.610 E2.98861
M73 Q0 S547
G1 X23.123 Y116.610 E6.17452
G1 X23.123 Y21.352 E2.98673
G1 X22.746 Y20.915 F10800.000
G1 F1200.000
G1 X220.427 Y20.915 E6.19817
M73 P0 R543
G1 X220.427 Y116.987 E3.01226
G1 X22.746 Y116.987 E6.19817
G1 X22.746 Y20.975 E3.01038
G1 X22.369 Y20.538 F10800.000
G1 F1200.000
G1 X220.804 Y20.538 E6.22182
G1 X220.804 Y117.364 E3.03591
M73 Q0 S546
G1 X22.369 Y117.364 E6.22182
G1 X22.369 Y20.598 E3.03403
G1 X21.992 Y20.161 F10800.000
;TYPE:External perimeter
G1 F1200.000
G1 X221.182 Y20.161 E6.24546
G1 X221.182 Y117.741 E3.05955
M73 P0 R542
G1 X21.992 Y117.741 E6.24546
G1 X21.992 Y20.221 E3.05767
G1 X22.387 Y20.221 F10800.000
;WIPE_START
G1 F8640.000
G1 X25.283 Y20.220 E-0.76000
;WIPE_END
G1 E-0.04000 F2100.000
G1 Z0.600 F10800.000
G1 X219.937 Y22.168
G1 Z0.200
G1 E0.80000 F2100.000
;TYPE:Solid infill
;WIDTH:0.420217
G1 F1200.000
G1 X219.344 Y21.575 E0.02631
G1 X218.811 Y21.575 E0.01674
G1 X219.768 Y22.532 E0.04246
G1 X219.768 Y23.065 E0.01674
G1 X218.277 Y21.575 E0.06613
G1 X217.743 Y21.575 E0.01674
G1 X219.768 Y23.599 E0.08980
G1 X219.768 Y24.133 E0.01674
G1 X217.210 Y21.575 E0.11348
G1 X216.676 Y21.575 E0.01674
G1 X219.768 Y24.666 E0.13715
G1 X219.768 Y25.200 E0.01674
G1 X216.143 Y21.575 E0.16082
G1 X215.609 Y21.575 E0.01674
G1 X219.768 Y25.733 E0.18450
G1 X219.768 Y26.267 E0.01674
G1 X215.076 Y21.575 E0.20817
G1 X214.542 Y21.575 E0.01674
G1 X219.768 Y26.800 E0.23184
G1 X219.768 Y27.334 E0.01674
G1 X214.008 Y21.575 E0.25552
G1 X213.475 Y21.575 E0.01674
G1 X219.768 Y27.868 E0.27919
G1 X219.768 Y28.401 E0.01674
G1 X212.941 Y21.575 E0.30286
G1 X212.408 Y21.575 E0.01674
G1 X219.768 Y28.935 E0.32654
G1 X219.768 Y29.468 E0.01674
G1 X211.874 Y21.575 E0.35021
G1 X211.340 Y21.575 E0.01674
G1 X219.768 Y30.002 E0.37388
G1 X219.768 Y30.535 E0.01674
G1 X210.807 Y21.575 E0.39756
G1 X210.273 Y21.575 E0.01674
G1 X219.768 Y31.069 E0.42123
G1 X219.768 Y31.603 E0.01674
G1 X209.740 Y21.575 E0.44490
G1 X209.206 Y21.575 E0.01674
G1 X219.768 Y32.136 E0.46858
G1 X219.768 Y32.670 E0.01674
G1 X208.673 Y21.575 E0.49225
G1 X208.139 Y21.575 E0.01674
G1 X219.768 Y33.203 E0.51592
M73 Q0 S545
G1 X219.768 Y33.737 E0.01674
G1 X207.605 Y21.575 E0.53960
G1 X207.072 Y21.575 E0.01674
G1 X219.768 Y34.271 E0.56327
G1 X219.768 Y34.804 E0.01674
G1 X206.538 Y21.575 E0.58695
G1 X206.005 Y21.575 E0.01674
G1 X219.768 Y35.338 E0.61062
G1 X219.768 Y35.871 E0.01674
G1 X205.471 Y21.575 E0.63429
G1 X204.938 Y21.575 E0.01674
G1 X219.768 Y36.405 E0.65797
G1 X219.768 Y36.938 E0.01674
G1 X204.404 Y21.575 E0.68164
G1 X203.870 Y21.575 E0.01674
G1 X219.768 Y37.472 E0.70531
G1 X219.768 Y38.006 E0.01674
G1 X203.337 Y21.575 E0.72899
G1 X202.803 Y21.575 E0.01674
G1 X219.768 Y38.539 E0.75266
G1 X219.768 Y39.073 E0.01674
G1 X202.270 Y21.575 E0.77633
G1 X201.736 Y21.575 E0.01674
G1 X219.768 Y39.606 E0.80001
G1 X219.768 Y40.140 E0.01674
G1 X201.203 Y21.575 E0.82368
G1 X200.669 Y21.575 E0.01674
G1 X219.768 Y40.673 E0.84735
G1 X219.768 Y41.207 E0.01674
G1 X200.135 Y21.575 E0.87103
G1 X199.602 Y21.575 E0.01674
G1 X219.768 Y41.741 E0.89470
G1 X219.768 Y42.274 E0.01674
G1 X199.068 Y21.575 E0.91837
G1 X198.535 Y21.575 E0.01674
G1 X219.768 Y42.808 E0.94205
G1 X219.768 Y43.341 E0.01674
G1 X198.001 Y21.575 E0.96572
G1 X197.467 Y21.575 E0.01674
G1 X219.768 Y43.875 E0.98939
G1 X219.768 Y44.408 E0.01674
G1 X196.934 Y21.575 E1.01307
G1 X196.400 Y21.575 E0.01674
G1 X219.768 Y44.942 E1.03674
G1 X219.768 Y45.476 E0.01674
G1 X195.867 Y21.575 E1.06041
M73 P0 R541
G1 X195.333 Y21.575 E0.01674
G1 X219.768 Y46.009 E1.08409
G1 X219.768 Y46.543 E0.01674
G1 X194.800 Y21.575 E1.10776
G1 X194.266 Y21.575 E0.01674
G1 X219.768 Y47.076 E1.13143
G1 X219.768 Y47.610 E0.01674
G1 X193.732 Y21.575 E1.15511
G1 X193.199 Y21.575 E0.01674
G1 X219.768 Y48.144 E1.17878
G1 X219.768 Y48.677 E0.01674
G1 X192.665 Y21.575 E1.20245
G1 X192.132 Y21.575 E0.01674
G1 X219.768 Y49.211 E1.22613
G1 X219.768 Y49.744 E0.01674
G1 X191.598 Y21.575 E1.24980
G1 X191.065 Y21.575 E0.01674
G1 X219.768 Y50.278 E1.27347
G1 X219.768 Y50.811 E0.01674
G1 X190.531 Y21.575 E1.29715
G1 X189.997 Y21.575 E0.01674
G1 X219.768 Y51.345 E1.32082
G1 X219.768 Y51.879 E0.01674
G1 X189.464 Y21.575 E1.34449
G1 X188.930 Y21.575 E0.01674
G1 X219.768 Y52.412 E1.36817
G1 X219.768 Y52.946 E0.01674
G1 X188.397 Y21.575 E1.39184
G1 X187.863 Y21.575 E0.01674
G1 X219.768 Y53.479 E1.41551
M73 Q0 S544
G1 X219.768 Y54.013 E0.01674
G1 X187.329 Y21.575 E1.43919
G1 X186.796 Y21.575 E0.01674
G1 X219.768 Y54.546 E1.46286
G1 X219.768 Y55.080 E0.01674
G1 X186.262 Y21.575 E1.48653
G1 X185.729 Y21.575 E0.01674
G1 X219.768 Y55.614 E1.51021
G1 X219.768 Y56.147 E0.01674
G1 X185.195 Y21.575 E1.53388
G1 X184.662 Y21.575 E0.01674
G1 X219.768 Y56.681 E1.55755
G1 X219.768 Y57.214 E0.01674
G1 X184.128 Y21.575 E1.58123
G1 X183.594 Y21.575 E0.01674
G1 X219.768 Y57.748 E1.60490
G1 X219.768 Y58.282 E0.01674
G1 X183.061 Y21.575 E1.62857
G1 X182.527 Y21.575 E0.01674
G1 X219.768 Y58.815 E1.65225
G1 X219.768 Y59.349 E0.01674
G1 X181.994 Y21.575 E1.67592
G1 X181.460 Y21.575 E0.01674
G1 X219.768 Y59.882 E1.69960
M73 P0 R540
G1 X219.768 Y60.416 E0.01674
G1 X180.927 Y21.575 E1.72327
G1 X180.393 Y21.575 E0.01674
G1 X219.768 Y60.949 E1.74694
G1 X219.768 Y61.483 E0.01674
G1 X179.859 Y21.575 E1.77062
G1 X179.326 Y21.575 E0.01674
G1 X219.768 Y62.017 E1.79429
G1 X219.768 Y62.550 E0.01674
G1 X178.792 Y21.575 E1.81796
G1 X178.259 Y21.575 E0.01674
G1 X219.768 Y63.084 E1.84164
G1 X219.768 Y63.617 E0.01674
G1 X177.725 Y21.575 E1.86531
G1 X177.191 Y21.575 E0.01674
G1 X219.768 Y64.151 E1.88898
G1 X219.768 Y64.684 E0.01674
G1 X176.658 Y21.575 E1.91266
G1 X176.124 Y21.575 E0.01674
G1 X219.768 Y65.218 E1.93633
M73 Q0 S543
G1 X219.768 Y65.752 E0.01674
G1 X175.591 Y21.575 E1.96000
G1 X175.057 Y21.575 E0.01674
G1 X219.768 Y66.285 E1.98368
G1 X219.768 Y66.819 E0.01674
G1 X174.524 Y21.575 E2.00735
G1 X173.990 Y21.575 E0.01674
G1 X219.768 Y67.352 E2.03102
G1 X219.768 Y67.886 E0.01674
G1 X173.456 Y21.575 E2.05470
G1 X172.923 Y21.575 E0.01674
G1 X219.768 Y68.420 E2.07837
G1 X219.768 Y68.953 E0.01674
G1 X172.389 Y21.575 E2.10204
G1 X171.856 Y21.575 E0.01674
G1 X219.768 Y69.487 E2.12572
G1 X219.768 Y70.020 E0.01674
G1 X171.322 Y21.575 E2.14939
M73 P0 R539
G1 X170.789 Y21.575 E0.01674
G1 X219.768 Y70.554 E2.17306
G1 X219.768 Y71.087 E0.01674
G1 X170.255 Y21.575 E2.19674
G1 X169.721 Y21.575 E0.01674
G1 X219.768 Y71.621 E2.22041
G1 X219.768 Y72.155 E0.01674
G1 X169.188 Y21.575 E2.24408
G1 X168.654 Y21.575 E0.01674
G1 X219.768 Y72.688 E2.26776
G1 X219.768 Y73.222 E0.01674
G1 X168.121 Y21.575 E2.29143
G1 X167.587 Y21.575 E0.01674
G1 X219.768 Y73.755 E2.31510
G1 X219.768 Y74.289 E0.01674
G1 X167.053 Y21.575 E2.33878
M73 Q0 S542
G1 X166.520 Y21.575 E0.01674
G1 X219.768 Y74.822 E2.36245
G1 X219.768 Y75.356 E0.01674
G1 X165.986 Y21.575 E2.38612
G1 X165.453 Y21.575 E0.01674
G1 X219.768 Y75.890 E2.40980
M73 P1 R539
M73 Q1 S542
G1 X219.768 Y76.423 E0.01674
G1 X164.919 Y21.575 E2.43347
G1 X164.386 Y21.575 E0.01674
G1 X219.768 Y76.957 E2.45714
G1 X219.768 Y77.490 E0.01674
G1 X163.852 Y21.575 E2.48082
G1 X163.318 Y21.575 E0.01674
G1 X219.768 Y78.024 E2.50449
G1 X219.768 Y78.558 E0.01674
G1 X162.785 Y21.575 E2.52816
M73 P1 R538
G1 X162.251 Y21.575 E0.01674
G1 X219.768 Y79.091 E2.55184
G1 X219.768 Y79.625 E0.01674
G1 X161.718 Y21.575 E2.57551
G1 X161.184 Y21.575 E0.01674
G1 X219.768 Y80.158 E2.59918
G1 X219.768 Y80.692 E0.01674
G1 X160.651 Y21.575 E2.62286
G1 X160.117 Y21.575 E0.01674
G1 X219.768 Y81.225 E2.64653
G1 X219.768 Y81.759 E0.01674
G1 X159.583 Y21.575 E2.67020
G1 X159.050 Y21.575 E0.01674
G1 X219.768 Y82.293 E2.69388
M73 Q1 S541
G1 X219.768 Y82.826 E0.01674
G1 X158.516 Y21.575 E2.71755
G1 X157.983 Y21.575 E0.01674
G1 X219.768 Y83.360 E2.74123
G1 X219.768 Y83.893 E0.01674
G1 X157.449 Y21.575 E2.76490
G1 X156.915 Y21.575 E0.01674
G1 X219.768 Y84.427 E2.78857
G1 X219.768 Y84.960 E0.01674
G1 X156.382 Y21.575 E2.81225
G1 X155.848 Y21.575 E0.01674
G1 X219.768 Y85.494 E2.83592
G1 X219.768 Y86.028 E0.01674
G1 X155.315 Y21.575 E2.85959
M73 P1 R537
G1 X154.781 Y21.575 E0.01674
G1 X219.768 Y86.561 E2.88327
G1 X219.768 Y87.095 E0.01674
G1 X154.248 Y21.575 E2.90694
G1 X153.714 Y21.575 E0.01674
G1 X219.768 Y87.628 E2.93061
G1 X219.768 Y88.162 E0.01674
G1 X153.180 Y21.575 E2.95429
G1 X152.647 Y21.575 E0.01674
G1 X219.768 Y88.696 E2.97796
G1 X219.768 Y89.229 E0.01674
G1 X152.113 Y21.575 E3.00163
M73 Q1 S540
G1 X151.580 Y21.575 E0.01674
G1 X219.768 Y89.763 E3.02531
G1 X219.768 Y90.296 E0.01674
G1 X151.046 Y21.575 E3.04898
G1 X150.513 Y21.575 E0.01674
G1 X219.768 Y90.830 E3.07265
G1 X219.768 Y91.363 E0.01674
G1 X149.979 Y21.575 E3.09633
G1 X149.445 Y21.575 E0.01674
G1 X219.768 Y91.897 E3.12000
G1 X219.768 Y92.431 E0.01674
G1 X148.912 Y21.575 E3.14367
M73 P1 R536
G1 X148.378 Y21.575 E0.01674
G1 X219.768 Y92.964 E3.16735
G1 X219.768 Y93.498 E0.01674
G1 X147.845 Y21.575 E3.19102
G1 X147.311 Y21.575 E0.01674
G1 X219.768 Y94.031 E3.21469
G1 X219.768 Y94.565 E0.01674
G1 X146.777 Y21.575 E3.23837
G1 X146.244 Y21.575 E0.01674
G1 X219.768 Y95.098 E3.26204
G1 X219.768 Y95.632 E0.01674
G1 X145.710 Y21.575 E3.28571
M73 Q1 S539
G1 X145.177 Y21.575 E0.01674
G1 X219.768 Y96.166 E3.30939
G1 X219.768 Y96.699 E0.01674
G1 X144.643 Y21.575 E3.33306
G1 X144.110 Y21.575 E0.01674
G1 X219.768 Y97.233 E3.35673
G1 X219.768 Y97.766 E0.01674
G1 X143.576 Y21.575 E3.38041
G1 X143.042 Y21.575 E0.01674
G1 X219.768 Y98.300 E3.40408
G1 X219.768 Y98.834 E0.01674
G1 X142.509 Y21.575 E3.42775
M73 P1 R535
G1 X141.975 Y21.575 E0.01674
G1 X219.768 Y99.367 E3.45143
G1 X219.768 Y99.901 E0.01674
G1 X141.442 Y21.575 E3.47510
G1 X140.908 Y21.575 E0.01674
G1 X219.768 Y100.434 E3.49877
G1 X219.768 Y100.968 E0.01674
G1 X140.375 Y21.575 E3.52245
G1 X139.841 Y21.575 E0.01674
G1 X219.768 Y101.501 E3.54612
M73 Q1 S538
G1 X219.768 Y102.035 E0.01674
G1 X139.307 Y21.575 E3.56979
G1 X138.774 Y21.575 E0.01674
G1 X219.768 Y102.569 E3.59347
G1 X219.768 Y103.102 E0.01674
G1 X138.240 Y21.575 E3.61714
G1 X137.707 Y21.575 E0.01674
G1 X219.768 Y103.636 E3.64081
G1 X219.768 Y104.169 E0.01674
G1 X137.173 Y21.575 E3.66449
M73 P1 R534
G1 X136.640 Y21.575 E0.01674
G1 X219.768 Y104.703 E3.68816
G1 X219.768 Y105.236 E0.01674
G1 X136.106 Y21.575 E3.71183
G1 X135.572 Y21.575 E0.01674
G1 X219.768 Y105.770 E3.73551
G1 X219.768 Y106.304 E0.01674
G1 X135.039 Y21.575 E3.75918
G1 X134.505 Y21.575 E0.01674
G1 X219.768 Y106.837 E3.78285
M73 Q1 S537
G1 X219.768 Y107.371 E0.01674
G1 X133.972 Y21.575 E3.80653
G1 X133.438 Y21.575 E0.01674
G1 X219.768 Y107.904 E3.83020
G1 X219.768 Y108.438 E0.01674
G1 X132.904 Y21.575 E3.85388
G1 X132.371 Y21.575 E0.01674
G1 X219.768 Y108.972 E3.87755
G1 X219.768 Y109.505 E0.01674
G1 X131.837 Y21.575 E3.90122
M73 P1 R533
G1 X131.304 Y21.575 E0.01674
G1 X219.768 Y110.039 E3.92490
M73 P2 R533
G1 X219.768 Y110.572 E0.01674
G1 X130.770 Y21.575 E3.94857
M73 Q2 S537
G1 X130.237 Y21.575 E0.01674
G1 X219.768 Y111.106 E3.97224
G1 X219.768 Y111.639 E0.01674
G1 X129.703 Y21.575 E3.99592
G1 X129.169 Y21.575 E0.01674
G1 X219.768 Y112.173 E4.01959
M73 Q2 S536
G1 X219.768 Y112.707 E0.01674
G1 X128.636 Y21.575 E4.04326
G1 X128.102 Y21.575 E0.01674
G1 X219.768 Y113.240 E4.06694
G1 X219.768 Y113.774 E0.01674
G1 X127.569 Y21.575 E4.09061
G1 X127.035 Y21.575 E0.01674
G1 X219.768 Y114.307 E4.11428
M73 P2 R532
G1 X219.768 Y114.841 E0.01674
G1 X126.502 Y21.575 E4.13796
G1 X125.968 Y21.575 E0.01674
G1 X219.768 Y115.374 E4.16163
G1 X219.768 Y115.908 E0.01674
G1 X125.434 Y21.575 E4.18530
G1 X124.901 Y21.575 E0.01674
G1 X219.653 Y116.327 E4.20388
G1 X219.119 Y116.327 E0.01674
G1 X124.367 Y21.575 E4.20388
M73 Q2 S535
G1 X123.834 Y21.575 E0.01674
G1 X218.586 Y116.327 E4.20388
G1 X218.052 Y116.327 E0.01674
G1 X123.300 Y21.575 E4.20388
G1 X122.766 Y21.575 E0.01674
G1 X217.518 Y116.327 E4.20388
G1 X216.985 Y116.327 E0.01674
G1 X122.233 Y21.575 E4.20388
M73 P2 R531
G1 X121.699 Y21.575 E0.01674
G1 X216.451 Y116.327 E4.20388
G1 X215.918 Y116.327 E0.01674
G1 X121.166 Y21.575 E4.20388
G1 X120.632 Y21.575 E0.01674
G1 X215.384 Y116.327 E4.20388
G1 X214.850 Y116.327 E0.01674
G1 X120.099 Y21.575 E4.20388
G1 X119.565 Y21.575 E0.01674
G1 X214.317 Y116.327 E4.20388
M73 Q2 S534
G1 X213.783 Y116.327 E0.01674
G1 X119.031 Y21.575 E4.20388
G1 X118.498 Y21.575 E0.01674
G1 X213.250 Y116.327 E4.20388
G1 X212.716 Y116.327 E0.01674
G1 X117.964 Y21.575 E4.20388
G1 X117.431 Y21.575 E0.01674
G1 X212.183 Y116.327 E4.20388
M73 P2 R530
G1 X211.649 Y116.327 E0.01674
G1 X116.897 Y21.575 E4.20388
G1 X116.364 Y21.575 E0.01674
G1 X211.115 Y116.327 E4.20388
G1 X210.582 Y116.327 E0.01674
G1 X115.830 Y21.575 E4.20388
G1 X115.296 Y21.575 E0.01674
G1 X210.048 Y116.327 E4.20388
G1 X209.515 Y116.327 E0.01674
G1 X114.763 Y21.575 E4.20388
M73 Q2 S533
G1 X114.229 Y21.575 E0.01674
G1 X208.981 Y116.327 E4.20388
G1 X208.448 Y116.327 E0.01674
G1 X113.696 Y21.575 E4.20388
G1 X113.162 Y21.575 E0.01674
G1 X207.914 Y116.327 E4.20388
G1 X207.380 Y116.327 E0.01674
G1 X112.628 Y21.575 E4.20388
M73 P2 R529
G1 X112.095 Y21.575 E0.01674
G1 X206.847 Y116.327 E4.20388
G1 X206.313 Y116.327 E0.01674
G1 X111.561 Y21.575 E4.20388
G1 X111.028 Y21.575 E0.01674
G1 X205.780 Y116.327 E4.20388
G1 X205.246 Y116.327 E0.01674
G1 X110.494 Y21.575 E4.20388
G1 X109.961 Y21.575 E0.01674
G1 X204.713 Y116.327 E4.20388
M73 Q2 S532
G1 X204.179 Y116.327 E0.01674
G1 X109.427 Y21.575 E4.20388
G1 X108.893 Y21.575 E0.01674
G1 X203.645 Y116.327 E4.20388
G1 X203.112 Y116.327 E0.01674
G1 X108.360 Y21.575 E4.20388
G1 X107.826 Y21.575 E0.01674
G1 X202.578 Y116.327 E4.20388
M73 P2 R528
G1 X202.045 Y116.327 E0.01674
G1 X107.293 Y21.575 E4.20388
G1 X106.759 Y21.575 E0.01674
G1 X201.511 Y116.327 E4.20388
G1 X200.977 Y116.327 E0.01674
G1 X106.226 Y21.575 E4.20388
G1 X105.692 Y21.575 E0.01674
G1 X200.444 Y116.327 E4.20388
G1 X199.910 Y116.327 E0.01674
G1 X105.158 Y21.575 E4.20388
M73 P3 R528
M73 Q2 S531
G1 X104.625 Y21.575 E0.01674
G1 X199.377 Y116.327 E4.20388
M73 Q3 S531
G1 X198.843 Y116.327 E0.01674
G1 X104.091 Y21.575 E4.20388
G1 X103.558 Y21.575 E0.01674
G1 X198.310 Y116.327 E4.20388
G1 X197.776 Y116.327 E0.01674
G1 X103.024 Y21.575 E4.20388
M73 P3 R527
G1 X102.490 Y21.575 E0.01674
G1 X197.242 Y116.327 E4.20388
G1 X196.709 Y116.327 E0.01674
