; generated by PrusaSlicer 2.3.1+win64 on 2023-04-27 at 21:06:07 UTC

; 

; external perimeters extrusion width = 0.60mm
; perimeters extrusion width = 0.50mm
; infill extrusion width = 0.50mm
; solid infill extrusion width = 0.50mm
; top infill extrusion width = 0.45mm
; support material extrusion width = 0.38mm
; first layer extrusion width = 0.42mm

M73 P0 R544
M73 Q0 S548
M201 X1000 Y1000 Z200 E5000 ; sets maximum accelerations, mm/sec^2
M203 X200 Y200 Z12 E120 ; sets maximum feedrates, mm/sec
M204 P1250 R1250 T1250 ; sets acceleration (P, T) and retract acceleration (R), mm/sec^2
M205 X8.00 Y8.00 Z0.40 E4.50 ; sets the jerk limits, mm/sec
M205 S0 T0 ; sets the minimum extruding and travel feed rate, mm/sec
M107
;TYPE:Custom
M862.3 P "MK3S" ; printer model check
M862.1 P0.4 ; nozzle diameter check
M115 U3.9.3 ; tell printer latest fw version
G90 ; use absolute coordinates
M83 ; extruder relative mode
M104 S205 ; set extruder temp
M140 S67 ; set bed temp
M190 S67 ; wait for bed temp
M109 S205 ; wait for extruder temp
G28 W ; home all without mesh bed level
G80 ; mesh bed leveling
G1 Y-3.0 F1000.0 ; go outside print area
G92 E0.0
G1 X60.0 E9.0 F1000.0 ; intro line
G1 X100.0 E12.5 F1000.0 ; intro line
G92 E0.0
M221 S95

; Don't change E values below. Excessive value can damage the printer.

M907 E538 ; set extruder motor current
G21 ; set units to millimeters
G90 ; use absolute coordinates
M83 ; use relative distances for extrusion
M900 K0.05 ; Filament gcode LA 1.5
M900 K30 ; Filament gcode LA 1.0
;LAYER_CHANGE
;Z:0.2
;HEIGHT:0.2
;BEFORE_LAYER_CHANGE
G92 E0.0
;0.2


G1 E-0.80000 F2100.000
G1 Z0.400 F10800.000
;AFTER_LAYER_CHANGE
;0.2
; printing object the_box_v3.1.stl id:0 copy 0
G1 X23.198 Y33.218
G1 Z0.200
G1 E0.80000 F2100.000
M204 S1000
;TYPE:Perimeter
;WIDTH:0.42
G1 F1200.000
G1 X220.125 Y33.218 E6.17452
G1 X220.125 Y128.536 E2.98861
G1 X23.198 Y128.536 E6.17452
M73 Q0 S547
G1 X23.198 Y33.278 E2.98673
G1 X22.820 Y32.841 F10800.000
G1 F1200.000
G1 X220.502 Y32.841 E6.19817
G1 X220.502 Y128.913 E3.01226
G1 X22.820 Y128.913 E6.19817
M73 P0 R543
G1 X22.820 Y32.901 E3.01038
G1 X22.443 Y32.464 F10800.000
G1 F1200.000
G1 X220.879 Y32.464 E6.22182
G1 X220.879 Y129.290 E3.03591
G1 X22.443 Y129.290 E6.22182
M73 Q0 S546
G1 X22.443 Y32.524 E3.03403
G1 X22.066 Y32.087 F10800.000
;TYPE:External perimeter
G1 F1200.000
G1 X221.256 Y32.087 E6.24546
G1 X221.256 Y129.667 E3.05955
G1 X22.066 Y129.667 E6.24546
M73 P0 R542
G1 X22.066 Y32.147 E3.05767
G1 X22.462 Y32.148 F10800.000
;WIPE_START
G1 F8640.000
G1 X25.358 Y32.146 E-0.76000
;WIPE_END
G1 E-0.04000 F2100.000
G1 Z0.600 F10800.000
G1 X220.012 Y34.094
G1 Z0.200
G1 E0.80000 F2100.000
;TYPE:Solid infill
;WIDTH:0.420217
G1 F1200.000
G1 X219.419 Y33.501 E0.02631
G1 X218.885 Y33.501 E0.01674
G1 X219.842 Y34.458 E0.04246
G1 X219.842 Y34.992 E0.01674
G1 X218.352 Y33.501 E0.06613
G1 X217.818 Y33.501 E0.01674
G1 X219.842 Y35.525 E0.08980
G1 X219.842 Y36.059 E0.01674
G1 X217.285 Y33.501 E0.11348
G1 X216.751 Y33.501 E0.01674
G1 X219.842 Y36.592 E0.13715
G1 X219.842 Y37.126 E0.01674
G1 X216.217 Y33.501 E0.16082
G1 X215.684 Y33.501 E0.01674
G1 X219.842 Y37.660 E0.18450
G1 X219.842 Y38.193 E0.01674
G1 X215.150 Y33.501 E0.20817
G1 X214.617 Y33.501 E0.01674
G1 X219.842 Y38.727 E0.23184
G1 X219.842 Y39.260 E0.01674
G1 X214.083 Y33.501 E0.25552
G1 X213.550 Y33.501 E0.01674
G1 X219.842 Y39.794 E0.27919
G1 X219.842 Y40.327 E0.01674
G1 X213.016 Y33.501 E0.30286
G1 X212.482 Y33.501 E0.01674
G1 X219.842 Y40.861 E0.32654
G1 X219.842 Y41.395 E0.01674
G1 X211.949 Y33.501 E0.35021
G1 X211.415 Y33.501 E0.01674
G1 X219.842 Y41.928 E0.37388
G1 X219.842 Y42.462 E0.01674
G1 X210.882 Y33.501 E0.39756
G1 X210.348 Y33.501 E0.01674
G1 X219.842 Y42.995 E0.42123
G1 X219.842 Y43.529 E0.01674
G1 X209.815 Y33.501 E0.44490
G1 X209.281 Y33.501 E0.01674
G1 X219.842 Y44.062 E0.46858
G1 X219.842 Y44.596 E0.01674
G1 X208.747 Y33.501 E0.49225
G1 X208.214 Y33.501 E0.01674
G1 X219.842 Y45.130 E0.51592
G1 X219.842 Y45.663 E0.01674
G1 X207.680 Y33.501 E0.53960
G1 X207.147 Y33.501 E0.01674
G1 X219.842 Y46.197 E0.56327
G1 X219.842 Y46.730 E0.01674
G1 X206.613 Y33.501 E0.58695
G1 X206.079 Y33.501 E0.01674
G1 X219.842 Y47.264 E0.61062
G1 X219.842 Y47.798 E0.01674
G1 X205.546 Y33.501 E0.63429
G1 X205.012 Y33.501 E0.01674
G1 X219.842 Y48.331 E0.65797
G1 X219.842 Y48.865 E0.01674
G1 X204.479 Y33.501 E0.68164
G1 X203.945 Y33.501 E0.01674
G1 X219.842 Y49.398 E0.70531
G1 X219.842 Y49.932 E0.01674
G1 X203.412 Y33.501 E0.72899
M73 Q0 S545
G1 X202.878 Y33.501 E0.01674
G1 X219.842 Y50.465 E0.75266
G1 X219.842 Y50.999 E0.01674
G1 X202.344 Y33.501 E0.77633
G1 X201.811 Y33.501 E0.01674
G1 X219.842 Y51.533 E0.80001
G1 X219.842 Y52.066 E0.01674
G1 X201.277 Y33.501 E0.82368
G1 X200.744 Y33.501 E0.01674
G1 X219.842 Y52.600 E0.84735
G1 X219.842 Y53.133 E0.01674
G1 X200.210 Y33.501 E0.87103
G1 X199.677 Y33.501 E0.01674
G1 X219.842 Y53.667 E0.89470
G1 X219.842 Y54.200 E0.01674
G1 X199.143 Y33.501 E0.91837
G1 X198.609 Y33.501 E0.01674
G1 X219.842 Y54.734 E0.94205
G1 X219.842 Y55.268 E0.01674
G1 X198.076 Y33.501 E0.96572
G1 X197.542 Y33.501 E0.01674
G1 X219.842 Y55.801 E0.98939
G1 X219.842 Y56.335 E0.01674
G1 X197.009 Y33.501 E1.01307
G1 X196.475 Y33.501 E0.01674
G1 X219.842 Y56.868 E1.03674
G1 X219.842 Y57.402 E0.01674
G1 X195.941 Y33.501 E1.06041
G1 X195.408 Y33.501 E0.01674
G1 X219.842 Y57.936 E1.08409
G1 X219.842 Y58.469 E0.01674
G1 X194.874 Y33.501 E1.10776
G1 X194.341 Y33.501 E0.01674
G1 X219.842 Y59.003 E1.13143
G1 X219.842 Y59.536 E0.01674
G1 X193.807 Y33.501 E1.15511
G1 X193.274 Y33.501 E0.01674
G1 X219.842 Y60.070 E1.17878
G1 X219.842 Y60.603 E0.01674
G1 X192.740 Y33.501 E1.20245
M73 P0 R541
G1 X192.206 Y33.501 E0.01674
G1 X219.842 Y61.137 E1.22613
G1 X219.842 Y61.671 E0.01674
G1 X191.673 Y33.501 E1.24980
G1 X191.139 Y33.501 E0.01674
G1 X219.842 Y62.204 E1.27347
G1 X219.842 Y62.738 E0.01674
G1 X190.606 Y33.501 E1.29715
G1 X190.072 Y33.501 E0.01674
G1 X219.842 Y63.271 E1.32082
G1 X219.842 Y63.805 E0.01674
G1 X189.539 Y33.501 E1.34449
G1 X189.005 Y33.501 E0.01674
G1 X219.842 Y64.338 E1.36817
G1 X219.842 Y64.872 E0.01674
G1 X188.471 Y33.501 E1.39184
G1 X187.938 Y33.501 E0.01674
G1 X219.842 Y65.406 E1.41551
G1 X219.842 Y65.939 E0.01674
G1 X187.404 Y33.501 E1.43919
G1 X186.871 Y33.501 E0.01674
G1 X219.842 Y66.473 E1.46286
G1 X219.842 Y67.006 E0.01674
G1 X186.337 Y33.501 E1.48653
G1 X185.803 Y33.501 E0.01674
G1 X219.842 Y67.540 E1.51021
M73 Q0 S544
G1 X219.842 Y68.074 E0.01674
G1 X185.270 Y33.501 E1.53388
G1 X184.736 Y33.501 E0.01674
G1 X219.842 Y68.607 E1.55755
G1 X219.842 Y69.141 E0.01674
G1 X184.203 Y33.501 E1.58123
G1 X183.669 Y33.501 E0.01674
G1 X219.842 Y69.674 E1.60490
G1 X219.842 Y70.208 E0.01674
G1 X183.136 Y33.501 E1.62857
G1 X182.602 Y33.501 E0.01674
G1 X219.842 Y70.741 E1.65225
G1 X219.842 Y71.275 E0.01674
G1 X182.068 Y33.501 E1.67592
G1 X181.535 Y33.501 E0.01674
G1 X219.842 Y71.809 E1.69960
G1 X219.842 Y72.342 E0.01674
G1 X181.001 Y33.501 E1.72327
G1 X180.468 Y33.501 E0.01674
G1 X219.842 Y72.876 E1.74694
G1 X219.842 Y73.409 E0.01674
G1 X179.934 Y33.501 E1.77062
G1 X179.401 Y33.501 E0.01674
G1 X219.842 Y73.943 E1.79429
M73 P0 R540
G1 X219.842 Y74.476 E0.01674
G1 X178.867 Y33.501 E1.81796
G1 X178.333 Y33.501 E0.01674
G1 X219.842 Y75.010 E1.84164
G1 X219.842 Y75.544 E0.01674
G1 X177.800 Y33.501 E1.86531
G1 X177.266 Y33.501 E0.01674
G1 X219.842 Y76.077 E1.88898
G1 X219.842 Y76.611 E0.01674
G1 X176.733 Y33.501 E1.91266
G1 X176.199 Y33.501 E0.01674
G1 X219.842 Y77.144 E1.93633
G1 X219.842 Y77.678 E0.01674
G1 X175.665 Y33.501 E1.96000
G1 X175.132 Y33.501 E0.01674
G1 X219.842 Y78.212 E1.98368
G1 X219.842 Y78.745 E0.01674
G1 X174.598 Y33.501 E2.00735
M73 Q0 S543
G1 X174.065 Y33.501 E0.01674
G1 X219.842 Y79.279 E2.03102
G1 X219.842 Y79.812 E0.01674
G1 X173.531 Y33.501 E2.05470
G1 X172.998 Y33.501 E0.01674
G1 X219.842 Y80.346 E2.07837
G1 X219.842 Y80.879 E0.01674
G1 X172.464 Y33.501 E2.10204
G1 X171.930 Y33.501 E0.01674
G1 X219.842 Y81.413 E2.12572
G1 X219.842 Y81.947 E0.01674
G1 X171.397 Y33.501 E2.14939
G1 X170.863 Y33.501 E0.01674
G1 X219.842 Y82.480 E2.17306
G1 X219.842 Y83.014 E0.01674
G1 X170.330 Y33.501 E2.19674
G1 X169.796 Y33.501 E0.01674
G1 X219.842 Y83.547 E2.22041
M73 P0 R539
G1 X219.842 Y84.081 E0.01674
G1 X169.263 Y33.501 E2.24408
G1 X168.729 Y33.501 E0.01674
G1 X219.842 Y84.614 E2.26776
G1 X219.842 Y85.148 E0.01674
G1 X168.195 Y33.501 E2.29143
G1 X167.662 Y33.501 E0.01674
G1 X219.842 Y85.682 E2.31510
G1 X219.842 Y86.215 E0.01674
G1 X167.128 Y33.501 E2.33878
G1 X166.595 Y33.501 E0.01674
G1 X219.842 Y86.749 E2.36245
G1 X219.842 Y87.282 E0.01674
G1 X166.061 Y33.501 E2.38612
G1 X165.527 Y33.501 E0.01674
G1 X219.842 Y87.816 E2.40980
M73 P1 R539
M73 Q1 S542
G1 X219.842 Y88.350 E0.01674
G1 X164.994 Y33.501 E2.43347
G1 X164.460 Y33.501 E0.01674
G1 X219.842 Y88.883 E2.45714
G1 X219.842 Y89.417 E0.01674
G1 X163.927 Y33.501 E2.48082
G1 X163.393 Y33.501 E0.01674
G1 X219.842 Y89.950 E2.50449
G1 X219.842 Y90.484 E0.01674
G1 X162.860 Y33.501 E2.52816
G1 X162.326 Y33.501 E0.01674
G1 X219.842 Y91.017 E2.55184
G1 X219.842 Y91.551 E0.01674
G1 X161.792 Y33.501 E2.57551
G1 X161.259 Y33.501 E0.01674
G1 X219.842 Y92.085 E2.59918
M73 P1 R538
G1 X219.842 Y92.618 E0.01674
G1 X160.725 Y33.501 E2.62286
G1 X160.192 Y33.501 E0.01674
G1 X219.842 Y93.152 E2.64653
G1 X219.842 Y93.685 E0.01674
G1 X159.658 Y33.501 E2.67020
G1 X159.125 Y33.501 E0.01674
G1 X219.842 Y94.219 E2.69388
G1 X219.842 Y94.752 E0.01674
G1 X158.591 Y33.501 E2.71755
G1 X158.057 Y33.501 E0.01674
G1 X219.842 Y95.286 E2.74123
G1 X219.842 Y95.820 E0.01674
M73 Q1 S541
G1 X157.524 Y33.501 E2.76490
G1 X156.990 Y33.501 E0.01674
G1 X219.842 Y96.353 E2.78857
G1 X219.842 Y96.887 E0.01674
G1 X156.457 Y33.501 E2.81225
G1 X155.923 Y33.501 E0.01674
G1 X219.842 Y97.420 E2.83592
G1 X219.842 Y97.954 E0.01674
G1 X155.390 Y33.501 E2.85959
G1 X154.856 Y33.501 E0.01674
G1 X219.842 Y98.488 E2.88327
G1 X219.842 Y99.021 E0.01674
G1 X154.322 Y33.501 E2.90694
M73 P1 R537
G1 X153.789 Y33.501 E0.01674
G1 X219.842 Y99.555 E2.93061
G1 X219.842 Y100.088 E0.01674
G1 X153.255 Y33.501 E2.95429
G1 X152.722 Y33.501 E0.01674
G1 X219.842 Y100.622 E2.97796
G1 X219.842 Y101.155 E0.01674
G1 X152.188 Y33.501 E3.00163
G1 X151.654 Y33.501 E0.01674
G1 X219.842 Y101.689 E3.02531
G1 X219.842 Y102.223 E0.01674
G1 X151.121 Y33.501 E3.04898
M73 Q1 S540
G1 X150.587 Y33.501 E0.01674
G1 X219.842 Y102.756 E3.07265
G1 X219.842 Y103.290 E0.01674
G1 X150.054 Y33.501 E3.09633
G1 X149.520 Y33.501 E0.01674
G1 X219.842 Y103.823 E3.12000
G1 X219.842 Y104.357 E0.01674
G1 X148.987 Y33.501 E3.14367
G1 X148.453 Y33.501 E0.01674
G1 X219.842 Y104.890 E3.16735
G1 X219.842 Y105.424 E0.01674
G1 X147.919 Y33.501 E3.19102
M73 P1 R536
G1 X147.386 Y33.501 E0.01674
G1 X219.842 Y105.958 E3.21469
G1 X219.842 Y106.491 E0.01674
G1 X146.852 Y33.501 E3.23837
G1 X146.319 Y33.501 E0.01674
G1 X219.842 Y107.025 E3.26204
G1 X219.842 Y107.558 E0.01674
G1 X145.785 Y33.501 E3.28571
G1 X145.252 Y33.501 E0.01674
G1 X219.842 Y108.092 E3.30939
G1 X219.842 Y108.625 E0.01674
G1 X144.718 Y33.501 E3.33306
M73 Q1 S539
G1 X144.184 Y33.501 E0.01674
G1 X219.842 Y109.159 E3.35673
G1 X219.842 Y109.693 E0.01674
G1 X143.651 Y33.501 E3.38041
G1 X143.117 Y33.501 E0.01674
G1 X219.842 Y110.226 E3.40408
G1 X219.842 Y110.760 E0.01674
G1 X142.584 Y33.501 E3.42775
G1 X142.050 Y33.501 E0.01674
G1 X219.842 Y111.293 E3.45143
G1 X219.842 Y111.827 E0.01674
G1 X141.516 Y33.501 E3.47510
M73 P1 R535
G1 X140.983 Y33.501 E0.01674
G1 X219.842 Y112.361 E3.49877
G1 X219.842 Y112.894 E0.01674
G1 X140.449 Y33.501 E3.52245
G1 X139.916 Y33.501 E0.01674
G1 X219.842 Y113.428 E3.54612
G1 X219.842 Y113.961 E0.01674
G1 X139.382 Y33.501 E3.56979
G1 X138.849 Y33.501 E0.01674
G1 X219.842 Y114.495 E3.59347
M73 Q1 S538
G1 X219.842 Y115.028 E0.01674
G1 X138.315 Y33.501 E3.61714
G1 X137.781 Y33.501 E0.01674
G1 X219.842 Y115.562 E3.64081
G1 X219.842 Y116.096 E0.01674
G1 X137.248 Y33.501 E3.66449
G1 X136.714 Y33.501 E0.01674
G1 X219.842 Y116.629 E3.68816
G1 X219.842 Y117.163 E0.01674
G1 X136.181 Y33.501 E3.71183
M73 P1 R534
G1 X135.647 Y33.501 E0.01674
G1 X219.842 Y117.696 E3.73551
G1 X219.842 Y118.230 E0.01674
G1 X135.114 Y33.501 E3.75918
G1 X134.580 Y33.501 E0.01674
G1 X219.842 Y118.763 E3.78285
G1 X219.842 Y119.297 E0.01674
G1 X134.046 Y33.501 E3.80653
G1 X133.513 Y33.501 E0.01674
G1 X219.842 Y119.831 E3.83020
M73 Q1 S537
G1 X219.842 Y120.364 E0.01674
G1 X132.979 Y33.501 E3.85388
G1 X132.446 Y33.501 E0.01674
G1 X219.842 Y120.898 E3.87755
G1 X219.842 Y121.431 E0.01674
G1 X131.912 Y33.501 E3.90122
G1 X131.378 Y33.501 E0.01674
G1 X219.842 Y121.965 E3.92490
M73 P2 R534
G1 X219.842 Y122.499 E0.01674
G1 X130.845 Y33.501 E3.94857
M73 P2 R533
M73 Q2 S537
G1 X130.311 Y33.501 E0.01674
G1 X219.842 Y123.032 E3.97224
G1 X219.842 Y123.566 E0.01674
G1 X129.778 Y33.501 E3.99592
G1 X129.244 Y33.501 E0.01674
G1 X219.842 Y124.099 E4.01959
G1 X219.842 Y124.633 E0.01674
G1 X128.711 Y33.501 E4.04326
M73 Q2 S536
G1 X128.177 Y33.501 E0.01674
G1 X219.842 Y125.166 E4.06694
G1 X219.842 Y125.700 E0.01674
G1 X127.643 Y33.501 E4.09061
G1 X127.110 Y33.501 E0.01674
G1 X219.842 Y126.234 E4.11428
G1 X219.842 Y126.767 E0.01674
G1 X126.576 Y33.501 E4.13796
G1 X126.043 Y33.501 E0.01674
G1 X219.842 Y127.301 E4.16163
M73 P2 R532
G1 X219.842 Y127.834 E0.01674
G1 X125.509 Y33.501 E4.18530
G1 X124.976 Y33.501 E0.01674
G1 X219.727 Y128.253 E4.20388
G1 X219.194 Y128.253 E0.01674
G1 X124.442 Y33.501 E4.20388
G1 X123.908 Y33.501 E0.01674
G1 X218.660 Y128.253 E4.20388
M73 Q2 S535
G1 X218.127 Y128.253 E0.01674
G1 X123.375 Y33.501 E4.20388
G1 X122.841 Y33.501 E0.01674
G1 X217.593 Y128.253 E4.20388
G1 X217.060 Y128.253 E0.01674
G1 X122.308 Y33.501 E4.20388
G1 X121.774 Y33.501 E0.01674
G1 X216.526 Y128.253 E4.20388
G1 X215.992 Y128.253 E0.01674
G1 X121.240 Y33.501 E4.20388
M73 P2 R531
G1 X120.707 Y33.501 E0.01674
G1 X215.459 Y128.253 E4.20388
G1 X214.925 Y128.253 E0.01674
G1 X120.173 Y33.501 E4.20388
G1 X119.640 Y33.501 E0.01674
G1 X214.392 Y128.253 E4.20388
G1 X213.858 Y128.253 E0.01674
G1 X119.106 Y33.501 E4.20388
M73 Q2 S534
G1 X118.573 Y33.501 E0.01674
G1 X213.325 Y128.253 E4.20388
G1 X212.791 Y128.253 E0.01674
G1 X118.039 Y33.501 E4.20388
G1 X117.505 Y33.501 E0.01674
G1 X212.257 Y128.253 E4.20388
G1 X211.724 Y128.253 E0.01674
G1 X116.972 Y33.501 E4.20388
G1 X116.438 Y33.501 E0.01674
G1 X211.190 Y128.253 E4.20388
M73 P2 R530
G1 X210.657 Y128.253 E0.01674
G1 X115.905 Y33.501 E4.20388
G1 X115.371 Y33.501 E0.01674
G1 X210.123 Y128.253 E4.20388
G1 X209.589 Y128.253 E0.01674
G1 X114.838 Y33.501 E4.20388
G1 X114.304 Y33.501 E0.01674
G1 X209.056 Y128.253 E4.20388
M73 Q2 S533
G1 X208.522 Y128.253 E0.01674
G1 X113.770 Y33.501 E4.20388
G1 X113.237 Y33.501 E0.01674
G1 X207.989 Y128.253 E4.20388
G1 X207.455 Y128.253 E0.01674
G1 X112.703 Y33.501 E4.20388
G1 X112.170 Y33.501 E0.01674
G1 X206.922 Y128.253 E4.20388
G1 X206.388 Y128.253 E0.01674
G1 X111.636 Y33.501 E4.20388
M73 P2 R529
G1 X111.102 Y33.501 E0.01674
G1 X205.854 Y128.253 E4.20388
G1 X205.321 Y128.253 E0.01674
G1 X110.569 Y33.501 E4.20388
G1 X110.035 Y33.501 E0.01674
G1 X204.787 Y128.253 E4.20388
G1 X204.254 Y128.253 E0.01674
G1 X109.502 Y33.501 E4.20388
M73 Q2 S532
G1 X108.968 Y33.501 E0.01674
G1 X203.720 Y128.253 E4.20388
G1 X203.187 Y128.253 E0.01674
G1 X108.435 Y33.501 E4.20388
G1 X107.901 Y33.501 E0.01674
G1 X202.653 Y128.253 E4.20388
G1 X202.119 Y128.253 E0.01674
G1 X107.367 Y33.501 E4.20388
G1 X106.834 Y33.501 E0.01674
G1 X201.586 Y128.253 E4.20388
M73 P2 R528
G1 X201.052 Y128.253 E0.01674
G1 X106.300 Y33.501 E4.20388
G1 X105.767 Y33.501 E0.01674
G1 X200.519 Y128.253 E4.20388
G1 X199.985 Y128.253 E0.01674
G1 X105.233 Y33.501 E4.20388
M73 P3 R528
G1 X104.700 Y33.501 E0.01674
G1 X199.451 Y128.253 E4.20388
M73 Q3 S531
G1 X198.918 Y128.253 E0.01674
G1 X104.166 Y33.501 E4.20388
G1 X103.632 Y33.501 E0.01674
G1 X198.384 Y128.253 E4.20388
G1 X197.851 Y128.253 E0.01674
G1 X103.099 Y33.501 E4.20388
G1 X102.565 Y33.501 E0.01674
G1 X197.317 Y128.253 E4.20388
G1 X196.784 Y128.253 E0.01674
G1 X102.032 Y33.501 E4.20388
