; generated by PrusaSlicer 2.3.1+win64 on 2023-03-27 at 20:29:40 UTC

; 

; external perimeters extrusion width = 0.60mm
; perimeters extrusion width = 0.50mm
; infill extrusion width = 0.50mm
; solid infill extrusion width = 0.50mm
; top infill extrusion width = 0.45mm
; support material extrusion width = 0.38mm
; first layer extrusion width = 0.42mm

M73 P0 R547
M73 Q0 S550
M201 X1000 Y1000 Z200 E5000 ; sets maximum accelerations, mm/sec^2
M203 X200 Y200 Z12 E120 ; sets maximum feedrates, mm/sec
M204 P1250 R1250 T1250 ; sets acceleration (P, T) and retract acceleration (R), mm/sec^2
M205 X8.00 Y8.00 Z0.40 E4.50 ; sets the jerk limits, mm/sec
M205 S0 T0 ; sets the minimum extruding and travel feed rate, mm/sec
M107
;TYPE:Custom
M862.3 P "MK3S" ; printer model check
M862.1 P0.4 ; nozzle diameter check
M115 U3.9.3 ; tell printer latest fw version
G90 ; use absolute coordinates
M83 ; extruder relative mode
M104 S205 ; set extruder temp
M140 S67 ; set bed temp
M190 S67 ; wait for bed temp
M109 S205 ; wait for extruder temp
G28 W ; home all without mesh bed level
G80 ; mesh bed leveling
G1 Y-3.0 F1000.0 ; go outside print area
G92 E0.0
G1 X60.0 E9.0 F1000.0 ; intro line
G1 X100.0 E12.5 F1000.0 ; intro line
G92 E0.0
M221 S95

; Don't change E values below. Excessive value can damage the printer.

M907 E538 ; set extruder motor current
G21 ; set units to millimeters
G90 ; use absolute coordinates
M83 ; use relative distances for extrusion
M900 K0.05 ; Filament gcode LA 1.5
M900 K30 ; Filament gcode LA 1.0
;LAYER_CHANGE
;Z:0.2
;HEIGHT:0.2
;BEFORE_LAYER_CHANGE
G92 E0.0
;0.2


G1 E-0.80000 F2100.000
G1 Z0.400 F10800.000
;AFTER_LAYER_CHANGE
;0.2
; printing object the_box.stl id:0 copy 0
G1 X24.348 Y44.888
G1 Z0.200
G1 E0.80000 F2100.000
M204 S1000
;TYPE:Perimeter
;WIDTH:0.42
G1 F1200.000
G1 X221.276 Y44.888 E6.17452
G1 X221.276 Y140.205 E2.98861
M73 P0 R546
G1 X24.348 Y140.205 E6.17452
G1 X24.348 Y44.948 E2.98673
G1 X23.971 Y44.511 F10800.000
G1 F1200.000
G1 X221.653 Y44.511 E6.19817
M73 Q0 S549
G1 X221.653 Y140.582 E3.01226
G1 X23.971 Y140.582 E6.19817
G1 X23.971 Y44.571 E3.01038
G1 X23.594 Y44.134 F10800.000
G1 F1200.000
G1 X222.030 Y44.134 E6.22182
G1 X222.030 Y140.960 E3.03591
M73 P0 R545
G1 X23.594 Y140.960 E6.22182
G1 X23.594 Y44.194 E3.03403
G1 X23.217 Y43.757 F10800.000
;TYPE:External perimeter
G1 F1200.000
G1 X222.407 Y43.757 E6.24546
M73 Q0 S548
G1 X222.407 Y141.337 E3.05955
G1 X23.217 Y141.337 E6.24546
G1 X23.217 Y43.817 E3.05767
G1 X23.612 Y43.817 F10800.000
;WIPE_START
G1 F8640.000
G1 X26.508 Y43.816 E-0.76000
;WIPE_END
G1 E-0.04000 F2100.000
G1 Z0.600 F10800.000
G1 X221.163 Y45.764
G1 Z0.200
G1 E0.80000 F2100.000
;TYPE:Solid infill
;WIDTH:0.420217
G1 F1200.000
G1 X220.569 Y45.171 E0.02631
G1 X220.036 Y45.171 E0.01674
G1 X220.993 Y46.128 E0.04246
G1 X220.993 Y46.661 E0.01674
G1 X219.502 Y45.171 E0.06613
G1 X218.969 Y45.171 E0.01674
G1 X220.993 Y47.195 E0.08980
G1 X220.993 Y47.728 E0.01674
G1 X218.435 Y45.171 E0.11348
G1 X217.902 Y45.171 E0.01674
G1 X220.993 Y48.262 E0.13715
G1 X220.993 Y48.795 E0.01674
G1 X217.368 Y45.171 E0.16082
G1 X216.834 Y45.171 E0.01674
G1 X220.993 Y49.329 E0.18450
G1 X220.993 Y49.863 E0.01674
G1 X216.301 Y45.171 E0.20817
G1 X215.767 Y45.171 E0.01674
G1 X220.993 Y50.396 E0.23184
G1 X220.993 Y50.930 E0.01674
G1 X215.234 Y45.171 E0.25552
G1 X214.700 Y45.171 E0.01674
G1 X220.993 Y51.463 E0.27919
G1 X220.993 Y51.997 E0.01674
G1 X214.167 Y45.171 E0.30286
G1 X213.633 Y45.171 E0.01674
G1 X220.993 Y52.531 E0.32654
G1 X220.993 Y53.064 E0.01674
G1 X213.099 Y45.171 E0.35021
G1 X212.566 Y45.171 E0.01674
G1 X220.993 Y53.598 E0.37388
G1 X220.993 Y54.131 E0.01674
G1 X212.032 Y45.171 E0.39756
G1 X211.499 Y45.171 E0.01674
G1 X220.993 Y54.665 E0.42123
G1 X220.993 Y55.198 E0.01674
G1 X210.965 Y45.171 E0.44490
G1 X210.431 Y45.171 E0.01674
G1 X220.993 Y55.732 E0.46858
G1 X220.993 Y56.266 E0.01674
G1 X209.898 Y45.171 E0.49225
G1 X209.364 Y45.171 E0.01674
G1 X220.993 Y56.799 E0.51592
G1 X220.993 Y57.333 E0.01674
G1 X208.831 Y45.171 E0.53960
G1 X208.297 Y45.171 E0.01674
G1 X220.993 Y57.866 E0.56327
G1 X220.993 Y58.400 E0.01674
G1 X207.764 Y45.171 E0.58695
M73 P0 R544
G1 X207.230 Y45.171 E0.01674
G1 X220.993 Y58.933 E0.61062
G1 X220.993 Y59.467 E0.01674
G1 X206.696 Y45.171 E0.63429
G1 X206.163 Y45.171 E0.01674
G1 X220.993 Y60.001 E0.65797
G1 X220.993 Y60.534 E0.01674
G1 X205.629 Y45.171 E0.68164
G1 X205.096 Y45.171 E0.01674
G1 X220.993 Y61.068 E0.70531
G1 X220.993 Y61.601 E0.01674
G1 X204.562 Y45.171 E0.72899
G1 X204.029 Y45.171 E0.01674
G1 X220.993 Y62.135 E0.75266
G1 X220.993 Y62.669 E0.01674
G1 X203.495 Y45.171 E0.77633
G1 X202.961 Y45.171 E0.01674
G1 X220.993 Y63.202 E0.80001
G1 X220.993 Y63.736 E0.01674
G1 X202.428 Y45.171 E0.82368
G1 X201.894 Y45.171 E0.01674
G1 X220.993 Y64.269 E0.84735
G1 X220.993 Y64.803 E0.01674
G1 X201.361 Y45.171 E0.87103
G1 X200.827 Y45.171 E0.01674
G1 X220.993 Y65.336 E0.89470
G1 X220.993 Y65.870 E0.01674
G1 X200.294 Y45.171 E0.91837
G1 X199.760 Y45.171 E0.01674
G1 X220.993 Y66.404 E0.94205
G1 X220.993 Y66.937 E0.01674
G1 X199.226 Y45.171 E0.96572
G1 X198.693 Y45.171 E0.01674
G1 X220.993 Y67.471 E0.98939
G1 X220.993 Y68.004 E0.01674
G1 X198.159 Y45.171 E1.01307
G1 X197.626 Y45.171 E0.01674
G1 X220.993 Y68.538 E1.03674
M73 Q0 S547
G1 X220.993 Y69.071 E0.01674
G1 X197.092 Y45.171 E1.06041
G1 X196.558 Y45.171 E0.01674
G1 X220.993 Y69.605 E1.08409
G1 X220.993 Y70.139 E0.01674
G1 X196.025 Y45.171 E1.10776
G1 X195.491 Y45.171 E0.01674
G1 X220.993 Y70.672 E1.13143
G1 X220.993 Y71.206 E0.01674
G1 X194.958 Y45.171 E1.15511
G1 X194.424 Y45.171 E0.01674
G1 X220.993 Y71.739 E1.17878
G1 X220.993 Y72.273 E0.01674
G1 X193.891 Y45.171 E1.20245
G1 X193.357 Y45.171 E0.01674
G1 X220.993 Y72.807 E1.22613
G1 X220.993 Y73.340 E0.01674
G1 X192.823 Y45.171 E1.24980
G1 X192.290 Y45.171 E0.01674
G1 X220.993 Y73.874 E1.27347
G1 X220.993 Y74.407 E0.01674
G1 X191.756 Y45.171 E1.29715
G1 X191.223 Y45.171 E0.01674
G1 X220.993 Y74.941 E1.32082
G1 X220.993 Y75.474 E0.01674
G1 X190.689 Y45.171 E1.34449
G1 X190.156 Y45.171 E0.01674
G1 X220.993 Y76.008 E1.36817
G1 X220.993 Y76.542 E0.01674
G1 X189.622 Y45.171 E1.39184
G1 X189.088 Y45.171 E0.01674
G1 X220.993 Y77.075 E1.41551
G1 X220.993 Y77.609 E0.01674
G1 X188.555 Y45.171 E1.43919
M73 P0 R543
G1 X188.021 Y45.171 E0.01674
G1 X220.993 Y78.142 E1.46286
G1 X220.993 Y78.676 E0.01674
G1 X187.488 Y45.171 E1.48653
G1 X186.954 Y45.171 E0.01674
G1 X220.993 Y79.209 E1.51021
G1 X220.993 Y79.743 E0.01674
G1 X186.420 Y45.171 E1.53388
G1 X185.887 Y45.171 E0.01674
G1 X220.993 Y80.277 E1.55755
G1 X220.993 Y80.810 E0.01674
G1 X185.353 Y45.171 E1.58123
G1 X184.820 Y45.171 E0.01674
G1 X220.993 Y81.344 E1.60490
G1 X220.993 Y81.877 E0.01674
G1 X184.286 Y45.171 E1.62857
G1 X183.753 Y45.171 E0.01674
G1 X220.993 Y82.411 E1.65225
G1 X220.993 Y82.945 E0.01674
G1 X183.219 Y45.171 E1.67592
M73 Q0 S546
G1 X182.685 Y45.171 E0.01674
G1 X220.993 Y83.478 E1.69960
G1 X220.993 Y84.012 E0.01674
G1 X182.152 Y45.171 E1.72327
G1 X181.618 Y45.171 E0.01674
G1 X220.993 Y84.545 E1.74694
G1 X220.993 Y85.079 E0.01674
G1 X181.085 Y45.171 E1.77062
G1 X180.551 Y45.171 E0.01674
G1 X220.993 Y85.612 E1.79429
G1 X220.993 Y86.146 E0.01674
G1 X180.018 Y45.171 E1.81796
G1 X179.484 Y45.171 E0.01674
G1 X220.993 Y86.680 E1.84164
G1 X220.993 Y87.213 E0.01674
G1 X178.950 Y45.171 E1.86531
G1 X178.417 Y45.171 E0.01674
G1 X220.993 Y87.747 E1.88898
G1 X220.993 Y88.280 E0.01674
G1 X177.883 Y45.171 E1.91266
G1 X177.350 Y45.171 E0.01674
G1 X220.993 Y88.814 E1.93633
G1 X220.993 Y89.347 E0.01674
G1 X176.816 Y45.171 E1.96000
M73 P0 R542
G1 X176.282 Y45.171 E0.01674
G1 X220.993 Y89.881 E1.98368
G1 X220.993 Y90.415 E0.01674
G1 X175.749 Y45.171 E2.00735
G1 X175.215 Y45.171 E0.01674
G1 X220.993 Y90.948 E2.03102
G1 X220.993 Y91.482 E0.01674
G1 X174.682 Y45.171 E2.05470
G1 X174.148 Y45.171 E0.01674
G1 X220.993 Y92.015 E2.07837
G1 X220.993 Y92.549 E0.01674
G1 X173.615 Y45.171 E2.10204
G1 X173.081 Y45.171 E0.01674
G1 X220.993 Y93.083 E2.12572
M73 Q0 S545
G1 X220.993 Y93.616 E0.01674
G1 X172.547 Y45.171 E2.14939
G1 X172.014 Y45.171 E0.01674
G1 X220.993 Y94.150 E2.17306
G1 X220.993 Y94.683 E0.01674
G1 X171.480 Y45.171 E2.19674
G1 X170.947 Y45.171 E0.01674
G1 X220.993 Y95.217 E2.22041
G1 X220.993 Y95.750 E0.01674
G1 X170.413 Y45.171 E2.24408
G1 X169.880 Y45.171 E0.01674
G1 X220.993 Y96.284 E2.26776
G1 X220.993 Y96.818 E0.01674
G1 X169.346 Y45.171 E2.29143
G1 X168.812 Y45.171 E0.01674
G1 X220.993 Y97.351 E2.31510
G1 X220.993 Y97.885 E0.01674
G1 X168.279 Y45.171 E2.33878
G1 X167.745 Y45.171 E0.01674
G1 X220.993 Y98.418 E2.36245
M73 P0 R541
G1 X220.993 Y98.952 E0.01674
G1 X167.212 Y45.171 E2.38612
G1 X166.678 Y45.171 E0.01674
G1 X220.993 Y99.485 E2.40980
G1 X220.993 Y100.019 E0.01674
G1 X166.144 Y45.171 E2.43347
M73 P1 R541
M73 Q1 S545
G1 X165.611 Y45.171 E0.01674
G1 X220.993 Y100.553 E2.45714
G1 X220.993 Y101.086 E0.01674
G1 X165.077 Y45.171 E2.48082
G1 X164.544 Y45.171 E0.01674
G1 X220.993 Y101.620 E2.50449
G1 X220.993 Y102.153 E0.01674
G1 X164.010 Y45.171 E2.52816
M73 Q1 S544
G1 X163.477 Y45.171 E0.01674
G1 X220.993 Y102.687 E2.55184
G1 X220.993 Y103.220 E0.01674
G1 X162.943 Y45.171 E2.57551
G1 X162.409 Y45.171 E0.01674
G1 X220.993 Y103.754 E2.59918
G1 X220.993 Y104.288 E0.01674
G1 X161.876 Y45.171 E2.62286
G1 X161.342 Y45.171 E0.01674
G1 X220.993 Y104.821 E2.64653
G1 X220.993 Y105.355 E0.01674
G1 X160.809 Y45.171 E2.67020
G1 X160.275 Y45.171 E0.01674
G1 X220.993 Y105.888 E2.69388
G1 X220.993 Y106.422 E0.01674
G1 X159.742 Y45.171 E2.71755
M73 P1 R540
G1 X159.208 Y45.171 E0.01674
G1 X220.993 Y106.956 E2.74123
G1 X220.993 Y107.489 E0.01674
G1 X158.674 Y45.171 E2.76490
G1 X158.141 Y45.171 E0.01674
G1 X220.993 Y108.023 E2.78857
G1 X220.993 Y108.556 E0.01674
G1 X157.607 Y45.171 E2.81225
G1 X157.074 Y45.171 E0.01674
G1 X220.993 Y109.090 E2.83592
M73 Q1 S543
G1 X220.993 Y109.623 E0.01674
G1 X156.540 Y45.171 E2.85959
G1 X156.006 Y45.171 E0.01674
G1 X220.993 Y110.157 E2.88327
G1 X220.993 Y110.691 E0.01674
G1 X155.473 Y45.171 E2.90694
G1 X154.939 Y45.171 E0.01674
G1 X220.993 Y111.224 E2.93061
G1 X220.993 Y111.758 E0.01674
G1 X154.406 Y45.171 E2.95429
G1 X153.872 Y45.171 E0.01674
G1 X220.993 Y112.291 E2.97796
G1 X220.993 Y112.825 E0.01674
G1 X153.339 Y45.171 E3.00163
G1 X152.805 Y45.171 E0.01674
G1 X220.993 Y113.358 E3.02531
M73 P1 R539
G1 X220.993 Y113.892 E0.01674
G1 X152.271 Y45.171 E3.04898
G1 X151.738 Y45.171 E0.01674
G1 X220.993 Y114.426 E3.07265
G1 X220.993 Y114.959 E0.01674
G1 X151.204 Y45.171 E3.09633
G1 X150.671 Y45.171 E0.01674
G1 X220.993 Y115.493 E3.12000
G1 X220.993 Y116.026 E0.01674
G1 X150.137 Y45.171 E3.14367
M73 Q1 S542
G1 X149.604 Y45.171 E0.01674
G1 X220.993 Y116.560 E3.16735
G1 X220.993 Y117.094 E0.01674
G1 X149.070 Y45.171 E3.19102
G1 X148.536 Y45.171 E0.01674
G1 X220.993 Y117.627 E3.21469
G1 X220.993 Y118.161 E0.01674
G1 X148.003 Y45.171 E3.23837
G1 X147.469 Y45.171 E0.01674
G1 X220.993 Y118.694 E3.26204
G1 X220.993 Y119.228 E0.01674
G1 X146.936 Y45.171 E3.28571
G1 X146.402 Y45.171 E0.01674
G1 X220.993 Y119.761 E3.30939
M73 P1 R538
G1 X220.993 Y120.295 E0.01674
G1 X145.868 Y45.171 E3.33306
G1 X145.335 Y45.171 E0.01674
G1 X220.993 Y120.829 E3.35673
G1 X220.993 Y121.362 E0.01674
G1 X144.801 Y45.171 E3.38041
G1 X144.268 Y45.171 E0.01674
G1 X220.993 Y121.896 E3.40408
M73 Q1 S541
G1 X220.993 Y122.429 E0.01674
G1 X143.734 Y45.171 E3.42775
G1 X143.201 Y45.171 E0.01674
G1 X220.993 Y122.963 E3.45143
G1 X220.993 Y123.496 E0.01674
G1 X142.667 Y45.171 E3.47510
G1 X142.133 Y45.171 E0.01674
G1 X220.993 Y124.030 E3.49877
G1 X220.993 Y124.564 E0.01674
G1 X141.600 Y45.171 E3.52245
G1 X141.066 Y45.171 E0.01674
G1 X220.993 Y125.097 E3.54612
G1 X220.993 Y125.631 E0.01674
G1 X140.533 Y45.171 E3.56979
M73 P1 R537
G1 X139.999 Y45.171 E0.01674
G1 X220.993 Y126.164 E3.59347
G1 X220.993 Y126.698 E0.01674
G1 X139.466 Y45.171 E3.61714
G1 X138.932 Y45.171 E0.01674
G1 X220.993 Y127.232 E3.64081
G1 X220.993 Y127.765 E0.01674
G1 X138.398 Y45.171 E3.66449
M73 Q1 S540
G1 X137.865 Y45.171 E0.01674
G1 X220.993 Y128.299 E3.68816
G1 X220.993 Y128.832 E0.01674
G1 X137.331 Y45.171 E3.71183
G1 X136.798 Y45.171 E0.01674
G1 X220.993 Y129.366 E3.73551
G1 X220.993 Y129.899 E0.01674
G1 X136.264 Y45.171 E3.75918
G1 X135.731 Y45.171 E0.01674
G1 X220.993 Y130.433 E3.78285
G1 X220.993 Y130.967 E0.01674
G1 X135.197 Y45.171 E3.80653
M73 P1 R536
G1 X134.663 Y45.171 E0.01674
G1 X220.993 Y131.500 E3.83020
G1 X220.993 Y132.034 E0.01674
G1 X134.130 Y45.171 E3.85388
G1 X133.596 Y45.171 E0.01674
G1 X220.993 Y132.567 E3.87755
G1 X220.993 Y133.101 E0.01674
G1 X133.063 Y45.171 E3.90122
M73 Q1 S539
G1 X132.529 Y45.171 E0.01674
G1 X220.993 Y133.634 E3.92490
G1 X220.993 Y134.168 E0.01674
G1 X131.995 Y45.171 E3.94857
M73 P2 R536
M73 Q2 S539
G1 X131.462 Y45.171 E0.01674
G1 X220.993 Y134.702 E3.97224
G1 X220.993 Y135.235 E0.01674
G1 X130.928 Y45.171 E3.99592
G1 X130.395 Y45.171 E0.01674
G1 X220.993 Y135.769 E4.01959
M73 P2 R535
G1 X220.993 Y136.302 E0.01674
G1 X129.861 Y45.171 E4.04326
G1 X129.328 Y45.171 E0.01674
G1 X220.993 Y136.836 E4.06694
G1 X220.993 Y137.370 E0.01674
G1 X128.794 Y45.171 E4.09061
G1 X128.260 Y45.171 E0.01674
G1 X220.993 Y137.903 E4.11428
M73 Q2 S538
G1 X220.993 Y138.437 E0.01674
G1 X127.727 Y45.171 E4.13796
G1 X127.193 Y45.171 E0.01674
G1 X220.993 Y138.970 E4.16163
G1 X220.993 Y139.504 E0.01674
G1 X126.660 Y45.171 E4.18530
G1 X126.126 Y45.171 E0.01674
G1 X220.878 Y139.923 E4.20388
G1 X220.344 Y139.923 E0.01674
G1 X125.593 Y45.171 E4.20388
M73 P2 R534
G1 X125.059 Y45.171 E0.01674
G1 X219.811 Y139.923 E4.20388
G1 X219.277 Y139.923 E0.01674
G1 X124.525 Y45.171 E4.20388
G1 X123.992 Y45.171 E0.01674
G1 X218.744 Y139.923 E4.20388
G1 X218.210 Y139.923 E0.01674
G1 X123.458 Y45.171 E4.20388
M73 Q2 S537
G1 X122.925 Y45.171 E0.01674
G1 X217.677 Y139.923 E4.20388
G1 X217.143 Y139.923 E0.01674
G1 X122.391 Y45.171 E4.20388
G1 X121.857 Y45.171 E0.01674
G1 X216.609 Y139.923 E4.20388
G1 X216.076 Y139.923 E0.01674
G1 X121.324 Y45.171 E4.20388
G1 X120.790 Y45.171 E0.01674
G1 X215.542 Y139.923 E4.20388
M73 P2 R533
G1 X215.009 Y139.923 E0.01674
G1 X120.257 Y45.171 E4.20388
G1 X119.723 Y45.171 E0.01674
G1 X214.475 Y139.923 E4.20388
G1 X213.941 Y139.923 E0.01674
G1 X119.190 Y45.171 E4.20388
G1 X118.656 Y45.171 E0.01674
G1 X213.408 Y139.923 E4.20388
M73 Q2 S536
G1 X212.874 Y139.923 E0.01674
G1 X118.122 Y45.171 E4.20388
G1 X117.589 Y45.171 E0.01674
G1 X212.341 Y139.923 E4.20388
G1 X211.807 Y139.923 E0.01674
G1 X117.055 Y45.171 E4.20388
G1 X116.522 Y45.171 E0.01674
G1 X211.274 Y139.923 E4.20388
G1 X210.740 Y139.923 E0.01674
G1 X115.988 Y45.171 E4.20388
M73 P2 R532
G1 X115.455 Y45.171 E0.01674
G1 X210.206 Y139.923 E4.20388
G1 X209.673 Y139.923 E0.01674
G1 X114.921 Y45.171 E4.20388
G1 X114.387 Y45.171 E0.01674
G1 X209.139 Y139.923 E4.20388
G1 X208.606 Y139.923 E0.01674
G1 X113.854 Y45.171 E4.20388
M73 Q2 S535
G1 X113.320 Y45.171 E0.01674
G1 X208.072 Y139.923 E4.20388
G1 X207.539 Y139.923 E0.01674
G1 X112.787 Y45.171 E4.20388
G1 X112.253 Y45.171 E0.01674
G1 X207.005 Y139.923 E4.20388
G1 X206.471 Y139.923 E0.01674
G1 X111.719 Y45.171 E4.20388
G1 X111.186 Y45.171 E0.01674
G1 X205.938 Y139.923 E4.20388
M73 P2 R531
G1 X205.404 Y139.923 E0.01674
G1 X110.652 Y45.171 E4.20388
G1 X110.119 Y45.171 E0.01674
G1 X204.871 Y139.923 E4.20388
G1 X204.337 Y139.923 E0.01674
G1 X109.585 Y45.171 E4.20388
G1 X109.052 Y45.171 E0.01674
G1 X203.804 Y139.923 E4.20388
M73 Q2 S534
G1 X203.270 Y139.923 E0.01674
G1 X108.518 Y45.171 E4.20388
G1 X107.984 Y45.171 E0.01674
G1 X202.736 Y139.923 E4.20388
G1 X202.203 Y139.923 E0.01674
G1 X107.451 Y45.171 E4.20388
G1 X106.917 Y45.171 E0.01674
G1 X201.669 Y139.923 E4.20388
G1 X201.136 Y139.923 E0.01674
G1 X106.384 Y45.171 E4.20388
M73 P2 R530
G1 X105.850 Y45.171 E0.01674
G1 X200.602 Y139.923 E4.20388
M73 P3 R530
G1 X200.068 Y139.923 E0.01674
G1 X105.317 Y45.171 E4.20388
M73 Q3 S534
G1 X104.783 Y45.171 E0.01674
G1 X199.535 Y139.923 E4.20388
G1 X199.001 Y139.923 E0.01674
G1 X104.249 Y45.171 E4.20388
M73 Q3 S533
G1 X103.716 Y45.171 E0.01674
G1 X198.468 Y139.923 E4.20388
