; generated by PrusaSlicer 2.3.1+win64 on 2023-06-08 at 00:00:21 UTC

; 

; external perimeters extrusion width = 0.60mm
; perimeters extrusion width = 0.50mm
; infill extrusion width = 0.50mm
; solid infill extrusion width = 0.50mm
; top infill extrusion width = 0.45mm
; support material extrusion width = 0.38mm
; first layer extrusion width = 0.42mm

M73 P0 R550
M73 Q0 S554
M201 X1000 Y1000 Z200 E5000 ; sets maximum accelerations, mm/sec^2
M203 X200 Y200 Z12 E120 ; sets maximum feedrates, mm/sec
M204 P1250 R1250 T1250 ; sets acceleration (P, T) and retract acceleration (R), mm/sec^2
M205 X8.00 Y8.00 Z0.40 E4.50 ; sets the jerk limits, mm/sec
M205 S0 T0 ; sets the minimum extruding and travel feed rate, mm/sec
M107
;TYPE:Custom
M862.3 P "MK3S" ; printer model check
M862.1 P0.4 ; nozzle diameter check
M115 U3.9.3 ; tell printer latest fw version
G90 ; use absolute coordinates
M83 ; extruder relative mode
M104 S205 ; set extruder temp
M140 S67 ; set bed temp
M190 S67 ; wait for bed temp
M109 S205 ; wait for extruder temp
G28 W ; home all without mesh bed level
G80 ; mesh bed leveling
G1 Y-3.0 F1000.0 ; go outside print area
G92 E0.0
G1 X60.0 E9.0 F1000.0 ; intro line
G1 X100.0 E12.5 F1000.0 ; intro line
G92 E0.0
M221 S95

; Don't change E values below. Excessive value can damage the printer.

M907 E538 ; set extruder motor current
G21 ; set units to millimeters
G90 ; use absolute coordinates
M83 ; use relative distances for extrusion
M900 K0.05 ; Filament gcode LA 1.5
M900 K30 ; Filament gcode LA 1.0
;LAYER_CHANGE
;Z:0.2
;HEIGHT:0.2
;BEFORE_LAYER_CHANGE
G92 E0.0
;0.2


G1 E-0.80000 F2100.000
G1 Z0.400 F10800.000
;AFTER_LAYER_CHANGE
;0.2
; printing object the_box.stl id:0 copy 0
G1 X20.992 Y28.455
G1 Z0.200
G1 E0.80000 F2100.000
M204 S1000
;TYPE:Perimeter
;WIDTH:0.42
G1 F1200.000
G1 X217.919 Y28.455 E6.17452
G1 X217.919 Y123.773 E2.98861
M73 Q0 S553
G1 X20.992 Y123.773 E6.17452
M73 P0 R549
G1 X20.992 Y28.515 E2.98673
G1 X20.615 Y28.078 F10800.000
G1 F1200.000
G1 X218.296 Y28.078 E6.19817
G1 X218.296 Y124.150 E3.01226
G1 X20.615 Y124.150 E6.19817
G1 X20.615 Y28.138 E3.01038
G1 X20.237 Y27.701 F10800.000
G1 F1200.000
G1 X218.673 Y27.701 E6.22182
G1 X218.673 Y124.527 E3.03591
M73 Q0 S552
G1 X20.237 Y124.527 E6.22182
M73 P0 R548
G1 X20.237 Y27.761 E3.03403
G1 X19.860 Y27.324 F10800.000
;TYPE:External perimeter
G1 F1200.000
G1 X219.050 Y27.324 E6.24546
G1 X219.050 Y124.904 E3.05955
G1 X19.860 Y124.904 E6.24546
G1 X19.860 Y27.384 E3.05767
G1 X20.256 Y27.385 F10800.000
;WIPE_START
G1 F8640.000
G1 X23.152 Y27.383 E-0.76000
;WIPE_END
G1 E-0.04000 F2100.000
G1 Z0.600 F10800.000
G1 X217.806 Y29.331
G1 Z0.200
G1 E0.80000 F2100.000
;TYPE:Solid infill
;WIDTH:0.420217
G1 F1200.000
G1 X217.213 Y28.738 E0.02631
G1 X216.679 Y28.738 E0.01674
G1 X217.636 Y29.695 E0.04246
G1 X217.636 Y30.229 E0.01674
G1 X216.146 Y28.738 E0.06613
G1 X215.612 Y28.738 E0.01674
G1 X217.636 Y30.762 E0.08980
G1 X217.636 Y31.296 E0.01674
G1 X215.079 Y28.738 E0.11348
G1 X214.545 Y28.738 E0.01674
G1 X217.636 Y31.830 E0.13715
G1 X217.636 Y32.363 E0.01674
G1 X214.012 Y28.738 E0.16082
G1 X213.478 Y28.738 E0.01674
G1 X217.636 Y32.897 E0.18450
G1 X217.636 Y33.430 E0.01674
G1 X212.944 Y28.738 E0.20817
G1 X212.411 Y28.738 E0.01674
G1 X217.636 Y33.964 E0.23184
G1 X217.636 Y34.497 E0.01674
G1 X211.877 Y28.738 E0.25552
G1 X211.344 Y28.738 E0.01674
G1 X217.636 Y35.031 E0.27919
G1 X217.636 Y35.565 E0.01674
G1 X210.810 Y28.738 E0.30286
G1 X210.276 Y28.738 E0.01674
G1 X217.636 Y36.098 E0.32654
G1 X217.636 Y36.632 E0.01674
G1 X209.743 Y28.738 E0.35021
G1 X209.209 Y28.738 E0.01674
G1 X217.636 Y37.165 E0.37388
G1 X217.636 Y37.699 E0.01674
G1 X208.676 Y28.738 E0.39756
G1 X208.142 Y28.738 E0.01674
G1 X217.636 Y38.232 E0.42123
G1 X217.636 Y38.766 E0.01674
G1 X207.609 Y28.738 E0.44490
G1 X207.075 Y28.738 E0.01674
G1 X217.636 Y39.300 E0.46858
G1 X217.636 Y39.833 E0.01674
G1 X206.541 Y28.738 E0.49225
G1 X206.008 Y28.738 E0.01674
G1 X217.636 Y40.367 E0.51592
M73 Q0 S551
G1 X217.636 Y40.900 E0.01674
G1 X205.474 Y28.738 E0.53960
G1 X204.941 Y28.738 E0.01674
G1 X217.636 Y41.434 E0.56327
G1 X217.636 Y41.967 E0.01674
G1 X204.407 Y28.738 E0.58695
G1 X203.874 Y28.738 E0.01674
G1 X217.636 Y42.501 E0.61062
G1 X217.636 Y43.035 E0.01674
G1 X203.340 Y28.738 E0.63429
G1 X202.806 Y28.738 E0.01674
G1 X217.636 Y43.568 E0.65797
G1 X217.636 Y44.102 E0.01674
G1 X202.273 Y28.738 E0.68164
G1 X201.739 Y28.738 E0.01674
G1 X217.636 Y44.635 E0.70531
G1 X217.636 Y45.169 E0.01674
G1 X201.206 Y28.738 E0.72899
G1 X200.672 Y28.738 E0.01674
G1 X217.636 Y45.703 E0.75266
G1 X217.636 Y46.236 E0.01674
G1 X200.138 Y28.738 E0.77633
G1 X199.605 Y28.738 E0.01674
G1 X217.636 Y46.770 E0.80001
G1 X217.636 Y47.303 E0.01674
G1 X199.071 Y28.738 E0.82368
M73 P0 R547
G1 X198.538 Y28.738 E0.01674
G1 X217.636 Y47.837 E0.84735
G1 X217.636 Y48.370 E0.01674
G1 X198.004 Y28.738 E0.87103
G1 X197.471 Y28.738 E0.01674
G1 X217.636 Y48.904 E0.89470
G1 X217.636 Y49.438 E0.01674
G1 X196.937 Y28.738 E0.91837
G1 X196.403 Y28.738 E0.01674
G1 X217.636 Y49.971 E0.94205
G1 X217.636 Y50.505 E0.01674
G1 X195.870 Y28.738 E0.96572
G1 X195.336 Y28.738 E0.01674
G1 X217.636 Y51.038 E0.98939
G1 X217.636 Y51.572 E0.01674
G1 X194.803 Y28.738 E1.01307
G1 X194.269 Y28.738 E0.01674
G1 X217.636 Y52.105 E1.03674
G1 X217.636 Y52.639 E0.01674
G1 X193.736 Y28.738 E1.06041
G1 X193.202 Y28.738 E0.01674
G1 X217.636 Y53.173 E1.08409
G1 X217.636 Y53.706 E0.01674
G1 X192.668 Y28.738 E1.10776
G1 X192.135 Y28.738 E0.01674
G1 X217.636 Y54.240 E1.13143
G1 X217.636 Y54.773 E0.01674
G1 X191.601 Y28.738 E1.15511
G1 X191.068 Y28.738 E0.01674
G1 X217.636 Y55.307 E1.17878
G1 X217.636 Y55.841 E0.01674
G1 X190.534 Y28.738 E1.20245
G1 X190.000 Y28.738 E0.01674
G1 X217.636 Y56.374 E1.22613
G1 X217.636 Y56.908 E0.01674
G1 X189.467 Y28.738 E1.24980
G1 X188.933 Y28.738 E0.01674
G1 X217.636 Y57.441 E1.27347
G1 X217.636 Y57.975 E0.01674
G1 X188.400 Y28.738 E1.29715
G1 X187.866 Y28.738 E0.01674
G1 X217.636 Y58.508 E1.32082
G1 X217.636 Y59.042 E0.01674
G1 X187.333 Y28.738 E1.34449
G1 X186.799 Y28.738 E0.01674
G1 X217.636 Y59.576 E1.36817
G1 X217.636 Y60.109 E0.01674
G1 X186.265 Y28.738 E1.39184
G1 X185.732 Y28.738 E0.01674
G1 X217.636 Y60.643 E1.41551
M73 Q0 S550
G1 X217.636 Y61.176 E0.01674
G1 X185.198 Y28.738 E1.43919
G1 X184.665 Y28.738 E0.01674
G1 X217.636 Y61.710 E1.46286
G1 X217.636 Y62.243 E0.01674
G1 X184.131 Y28.738 E1.48653
G1 X183.598 Y28.738 E0.01674
G1 X217.636 Y62.777 E1.51021
G1 X217.636 Y63.311 E0.01674
G1 X183.064 Y28.738 E1.53388
G1 X182.530 Y28.738 E0.01674
G1 X217.636 Y63.844 E1.55755
M73 P0 R546
G1 X217.636 Y64.378 E0.01674
G1 X181.997 Y28.738 E1.58123
G1 X181.463 Y28.738 E0.01674
G1 X217.636 Y64.911 E1.60490
G1 X217.636 Y65.445 E0.01674
G1 X180.930 Y28.738 E1.62857
G1 X180.396 Y28.738 E0.01674
G1 X217.636 Y65.979 E1.65225
G1 X217.636 Y66.512 E0.01674
G1 X179.862 Y28.738 E1.67592
G1 X179.329 Y28.738 E0.01674
G1 X217.636 Y67.046 E1.69960
G1 X217.636 Y67.579 E0.01674
G1 X178.795 Y28.738 E1.72327
G1 X178.262 Y28.738 E0.01674
G1 X217.636 Y68.113 E1.74694
G1 X217.636 Y68.646 E0.01674
G1 X177.728 Y28.738 E1.77062
G1 X177.195 Y28.738 E0.01674
G1 X217.636 Y69.180 E1.79429
G1 X217.636 Y69.714 E0.01674
G1 X176.661 Y28.738 E1.81796
G1 X176.127 Y28.738 E0.01674
G1 X217.636 Y70.247 E1.84164
G1 X217.636 Y70.781 E0.01674
G1 X175.594 Y28.738 E1.86531
G1 X175.060 Y28.738 E0.01674
G1 X217.636 Y71.314 E1.88898
G1 X217.636 Y71.848 E0.01674
G1 X174.527 Y28.738 E1.91266
G1 X173.993 Y28.738 E0.01674
G1 X217.636 Y72.381 E1.93633
M73 Q0 S549
G1 X217.636 Y72.915 E0.01674
G1 X173.460 Y28.738 E1.96000
G1 X172.926 Y28.738 E0.01674
G1 X217.636 Y73.449 E1.98368
G1 X217.636 Y73.982 E0.01674
G1 X172.392 Y28.738 E2.00735
G1 X171.859 Y28.738 E0.01674
G1 X217.636 Y74.516 E2.03102
M73 P0 R545
G1 X217.636 Y75.049 E0.01674
G1 X171.325 Y28.738 E2.05470
G1 X170.792 Y28.738 E0.01674
G1 X217.636 Y75.583 E2.07837
G1 X217.636 Y76.117 E0.01674
G1 X170.258 Y28.738 E2.10204
G1 X169.724 Y28.738 E0.01674
G1 X217.636 Y76.650 E2.12572
G1 X217.636 Y77.184 E0.01674
G1 X169.191 Y28.738 E2.14939
G1 X168.657 Y28.738 E0.01674
G1 X217.636 Y77.717 E2.17306
G1 X217.636 Y78.251 E0.01674
G1 X168.124 Y28.738 E2.19674
G1 X167.590 Y28.738 E0.01674
G1 X217.636 Y78.784 E2.22041
G1 X217.636 Y79.318 E0.01674
G1 X167.057 Y28.738 E2.24408
G1 X166.523 Y28.738 E0.01674
G1 X217.636 Y79.852 E2.26776
G1 X217.636 Y80.385 E0.01674
G1 X165.989 Y28.738 E2.29143
G1 X165.456 Y28.738 E0.01674
G1 X217.636 Y80.919 E2.31510
G1 X217.636 Y81.452 E0.01674
G1 X164.922 Y28.738 E2.33878
G1 X164.389 Y28.738 E0.01674
G1 X217.636 Y81.986 E2.36245
M73 Q0 S548
G1 X217.636 Y82.519 E0.01674
G1 X163.855 Y28.738 E2.38612
G1 X163.322 Y28.738 E0.01674
G1 X217.636 Y83.053 E2.40980
G1 X217.636 Y83.587 E0.01674
G1 X162.788 Y28.738 E2.43347
M73 P1 R544
M73 Q1 S548
G1 X162.254 Y28.738 E0.01674
G1 X217.636 Y84.120 E2.45714
G1 X217.636 Y84.654 E0.01674
G1 X161.721 Y28.738 E2.48082
G1 X161.187 Y28.738 E0.01674
G1 X217.636 Y85.187 E2.50449
G1 X217.636 Y85.721 E0.01674
G1 X160.654 Y28.738 E2.52816
G1 X160.120 Y28.738 E0.01674
G1 X217.636 Y86.255 E2.55184
G1 X217.636 Y86.788 E0.01674
G1 X159.587 Y28.738 E2.57551
G1 X159.053 Y28.738 E0.01674
G1 X217.636 Y87.322 E2.59918
G1 X217.636 Y87.855 E0.01674
G1 X158.519 Y28.738 E2.62286
G1 X157.986 Y28.738 E0.01674
G1 X217.636 Y88.389 E2.64653
G1 X217.636 Y88.922 E0.01674
G1 X157.452 Y28.738 E2.67020
G1 X156.919 Y28.738 E0.01674
G1 X217.636 Y89.456 E2.69388
M73 Q1 S547
G1 X217.636 Y89.990 E0.01674
G1 X156.385 Y28.738 E2.71755
G1 X155.851 Y28.738 E0.01674
G1 X217.636 Y90.523 E2.74123
G1 X217.636 Y91.057 E0.01674
G1 X155.318 Y28.738 E2.76490
M73 P1 R543
G1 X154.784 Y28.738 E0.01674
G1 X217.636 Y91.590 E2.78857
G1 X217.636 Y92.124 E0.01674
G1 X154.251 Y28.738 E2.81225
G1 X153.717 Y28.738 E0.01674
G1 X217.636 Y92.657 E2.83592
G1 X217.636 Y93.191 E0.01674
G1 X153.184 Y28.738 E2.85959
G1 X152.650 Y28.738 E0.01674
G1 X217.636 Y93.725 E2.88327
G1 X217.636 Y94.258 E0.01674
G1 X152.116 Y28.738 E2.90694
G1 X151.583 Y28.738 E0.01674
G1 X217.636 Y94.792 E2.93061
G1 X217.636 Y95.325 E0.01674
G1 X151.049 Y28.738 E2.95429
G1 X150.516 Y28.738 E0.01674
G1 X217.636 Y95.859 E2.97796
G1 X217.636 Y96.393 E0.01674
G1 X149.982 Y28.738 E3.00163
M73 Q1 S546
G1 X149.449 Y28.738 E0.01674
G1 X217.636 Y96.926 E3.02531
G1 X217.636 Y97.460 E0.01674
G1 X148.915 Y28.738 E3.04898
G1 X148.381 Y28.738 E0.01674
G1 X217.636 Y97.993 E3.07265
M73 P1 R542
G1 X217.636 Y98.527 E0.01674
G1 X147.848 Y28.738 E3.09633
G1 X147.314 Y28.738 E0.01674
G1 X217.636 Y99.060 E3.12000
G1 X217.636 Y99.594 E0.01674
G1 X146.781 Y28.738 E3.14367
G1 X146.247 Y28.738 E0.01674
G1 X217.636 Y100.128 E3.16735
G1 X217.636 Y100.661 E0.01674
G1 X145.713 Y28.738 E3.19102
G1 X145.180 Y28.738 E0.01674
G1 X217.636 Y101.195 E3.21469
G1 X217.636 Y101.728 E0.01674
G1 X144.646 Y28.738 E3.23837
G1 X144.113 Y28.738 E0.01674
G1 X217.636 Y102.262 E3.26204
G1 X217.636 Y102.795 E0.01674
G1 X143.579 Y28.738 E3.28571
M73 Q1 S545
G1 X143.046 Y28.738 E0.01674
G1 X217.636 Y103.329 E3.30939
G1 X217.636 Y103.863 E0.01674
G1 X142.512 Y28.738 E3.33306
G1 X141.978 Y28.738 E0.01674
G1 X217.636 Y104.396 E3.35673
M73 P1 R541
G1 X217.636 Y104.930 E0.01674
G1 X141.445 Y28.738 E3.38041
G1 X140.911 Y28.738 E0.01674
G1 X217.636 Y105.463 E3.40408
G1 X217.636 Y105.997 E0.01674
G1 X140.378 Y28.738 E3.42775
G1 X139.844 Y28.738 E0.01674
G1 X217.636 Y106.530 E3.45143
G1 X217.636 Y107.064 E0.01674
G1 X139.311 Y28.738 E3.47510
G1 X138.777 Y28.738 E0.01674
G1 X217.636 Y107.598 E3.49877
G1 X217.636 Y108.131 E0.01674
G1 X138.243 Y28.738 E3.52245
G1 X137.710 Y28.738 E0.01674
G1 X217.636 Y108.665 E3.54612
M73 Q1 S544
G1 X217.636 Y109.198 E0.01674
G1 X137.176 Y28.738 E3.56979
G1 X136.643 Y28.738 E0.01674
G1 X217.636 Y109.732 E3.59347
G1 X217.636 Y110.266 E0.01674
G1 X136.109 Y28.738 E3.61714
M73 P1 R540
G1 X135.575 Y28.738 E0.01674
G1 X217.636 Y110.799 E3.64081
G1 X217.636 Y111.333 E0.01674
G1 X135.042 Y28.738 E3.66449
G1 X134.508 Y28.738 E0.01674
G1 X217.636 Y111.866 E3.68816
G1 X217.636 Y112.400 E0.01674
G1 X133.975 Y28.738 E3.71183
G1 X133.441 Y28.738 E0.01674
G1 X217.636 Y112.933 E3.73551
G1 X217.636 Y113.467 E0.01674
G1 X132.908 Y28.738 E3.75918
G1 X132.374 Y28.738 E0.01674
G1 X217.636 Y114.001 E3.78285
M73 Q1 S543
G1 X217.636 Y114.534 E0.01674
G1 X131.840 Y28.738 E3.80653
G1 X131.307 Y28.738 E0.01674
G1 X217.636 Y115.068 E3.83020
G1 X217.636 Y115.601 E0.01674
G1 X130.773 Y28.738 E3.85388
M73 P1 R539
G1 X130.240 Y28.738 E0.01674
G1 X217.636 Y116.135 E3.87755
G1 X217.636 Y116.668 E0.01674
G1 X129.706 Y28.738 E3.90122
G1 X129.173 Y28.738 E0.01674
G1 X217.636 Y117.202 E3.92490
G1 X217.636 Y117.736 E0.01674
G1 X128.639 Y28.738 E3.94857
M73 P2 R539
G1 X128.105 Y28.738 E0.01674
G1 X217.636 Y118.269 E3.97224
M73 Q2 S543
G1 X217.636 Y118.803 E0.01674
G1 X127.572 Y28.738 E3.99592
G1 X127.038 Y28.738 E0.01674
G1 X217.636 Y119.336 E4.01959
M73 Q2 S542
G1 X217.636 Y119.870 E0.01674
G1 X126.505 Y28.738 E4.04326
G1 X125.971 Y28.738 E0.01674
G1 X217.636 Y120.404 E4.06694
M73 P2 R538
G1 X217.636 Y120.937 E0.01674
G1 X125.437 Y28.738 E4.09061
G1 X124.904 Y28.738 E0.01674
G1 X217.636 Y121.471 E4.11428
G1 X217.636 Y122.004 E0.01674
G1 X124.370 Y28.738 E4.13796
G1 X123.837 Y28.738 E0.01674
G1 X217.636 Y122.538 E4.16163
G1 X217.636 Y123.071 E0.01674
G1 X123.303 Y28.738 E4.18530
G1 X122.770 Y28.738 E0.01674
G1 X217.522 Y123.490 E4.20388
G1 X216.988 Y123.490 E0.01674
G1 X122.236 Y28.738 E4.20388
M73 Q2 S541
G1 X121.702 Y28.738 E0.01674
G1 X216.454 Y123.490 E4.20388
G1 X215.921 Y123.490 E0.01674
G1 X121.169 Y28.738 E4.20388
M73 P2 R537
G1 X120.635 Y28.738 E0.01674
G1 X215.387 Y123.490 E4.20388
G1 X214.854 Y123.490 E0.01674
G1 X120.102 Y28.738 E4.20388
G1 X119.568 Y28.738 E0.01674
G1 X214.320 Y123.490 E4.20388
G1 X213.786 Y123.490 E0.01674
G1 X119.035 Y28.738 E4.20388
G1 X118.501 Y28.738 E0.01674
G1 X213.253 Y123.490 E4.20388
G1 X212.719 Y123.490 E0.01674
G1 X117.967 Y28.738 E4.20388
G1 X117.434 Y28.738 E0.01674
G1 X212.186 Y123.490 E4.20388
M73 Q2 S540
G1 X211.652 Y123.490 E0.01674
G1 X116.900 Y28.738 E4.20388
G1 X116.367 Y28.738 E0.01674
G1 X211.119 Y123.490 E4.20388
M73 P2 R536
G1 X210.585 Y123.490 E0.01674
G1 X115.833 Y28.738 E4.20388
G1 X115.299 Y28.738 E0.01674
G1 X210.051 Y123.490 E4.20388
G1 X209.518 Y123.490 E0.01674
G1 X114.766 Y28.738 E4.20388
G1 X114.232 Y28.738 E0.01674
G1 X208.984 Y123.490 E4.20388
G1 X208.451 Y123.490 E0.01674
G1 X113.699 Y28.738 E4.20388
G1 X113.165 Y28.738 E0.01674
G1 X207.917 Y123.490 E4.20388
G1 X207.384 Y123.490 E0.01674
G1 X112.632 Y28.738 E4.20388
M73 Q2 S539
G1 X112.098 Y28.738 E0.01674
G1 X206.850 Y123.490 E4.20388
G1 X206.316 Y123.490 E0.01674
G1 X111.564 Y28.738 E4.20388
M73 P2 R535
G1 X111.031 Y28.738 E0.01674
G1 X205.783 Y123.490 E4.20388
G1 X205.249 Y123.490 E0.01674
G1 X110.497 Y28.738 E4.20388
G1 X109.964 Y28.738 E0.01674
G1 X204.716 Y123.490 E4.20388
G1 X204.182 Y123.490 E0.01674
G1 X109.430 Y28.738 E4.20388
G1 X108.897 Y28.738 E0.01674
G1 X203.648 Y123.490 E4.20388
G1 X203.115 Y123.490 E0.01674
G1 X108.363 Y28.738 E4.20388
G1 X107.829 Y28.738 E0.01674
G1 X202.581 Y123.490 E4.20388
M73 Q2 S538
G1 X202.048 Y123.490 E0.01674
G1 X107.296 Y28.738 E4.20388
G1 X106.762 Y28.738 E0.01674
G1 X201.514 Y123.490 E4.20388
M73 P2 R534
G1 X200.981 Y123.490 E0.01674
G1 X106.229 Y28.738 E4.20388
G1 X105.695 Y28.738 E0.01674
G1 X200.447 Y123.490 E4.20388
G1 X199.913 Y123.490 E0.01674
G1 X105.161 Y28.738 E4.20388
G1 X104.628 Y28.738 E0.01674
G1 X199.380 Y123.490 E4.20388
G1 X198.846 Y123.490 E0.01674
G1 X104.094 Y28.738 E4.20388
G1 X103.561 Y28.738 E0.01674
G1 X198.313 Y123.490 E4.20388
G1 X197.779 Y123.490 E0.01674
G1 X103.027 Y28.738 E4.20388
M73 Q2 S537
G1 X102.494 Y28.738 E0.01674
G1 X197.246 Y123.490 E4.20388
G1 X196.712 Y123.490 E0.01674
G1 X101.960 Y28.738 E4.20388
M73 P3 R533
G1 X101.426 Y28.738 E0.01674
M73 Q3 S537
G1 X196.178 Y123.490 E4.20388
G1 X195.645 Y123.490 E0.01674
G1 X100.893 Y28.738 E4.20388
G1 X100.359 Y28.738 E0.01674
G1 X195.111 Y123.490 E4.20388
G1 X194.578 Y123.490 E0.01674
G1 X99.826 Y28.738 E4.20388
