; generated by PrusaSlicer 2.3.1+win64 on 2023-06-25 at 18:17:43 UTC

; 

; external perimeters extrusion width = 0.60mm
; perimeters extrusion width = 0.50mm
; infill extrusion width = 0.50mm
; solid infill extrusion width = 0.50mm
; top infill extrusion width = 0.45mm
; first layer extrusion width = 0.42mm

M73 P0 R199
M73 Q0 S200
M201 X1000 Y1000 Z200 E5000 ; sets maximum accelerations, mm/sec^2
M203 X200 Y200 Z12 E120 ; sets maximum feedrates, mm/sec
M204 P1250 R1250 T1250 ; sets acceleration (P, T) and retract acceleration (R), mm/sec^2
M205 X8.00 Y8.00 Z0.40 E4.50 ; sets the jerk limits, mm/sec
M205 S0 T0 ; sets the minimum extruding and travel feed rate, mm/sec
M107
;TYPE:Custom
M862.3 P "MK3S" ; printer model check
M862.1 P0.4 ; nozzle diameter check
M115 U3.9.3 ; tell printer latest fw version
G90 ; use absolute coordinates
M83 ; extruder relative mode
M104 S205 ; set extruder temp
M140 S67 ; set bed temp
M190 S67 ; wait for bed temp
M109 S205 ; wait for extruder temp
G28 W ; home all without mesh bed level
G80 ; mesh bed leveling
G1 Y-3.0 F1000.0 ; go outside print area
G92 E0.0
G1 X60.0 E9.0 F1000.0 ; intro line
G1 X100.0 E12.5 F1000.0 ; intro line
G92 E0.0
M221 S95

; Don't change E values below. Excessive value can damage the printer.

M907 E538 ; set extruder motor current
G21 ; set units to millimeters
G90 ; use absolute coordinates
M83 ; use relative distances for extrusion
M900 K0.05 ; Filament gcode LA 1.5
M900 K30 ; Filament gcode LA 1.0
;LAYER_CHANGE
;Z:0.2
;HEIGHT:0.2
;BEFORE_LAYER_CHANGE
G92 E0.0
;0.2


G1 E-0.80000 F2100.000
G1 Z0.400 F10800.000
;AFTER_LAYER_CHANGE
;0.2
; printing object ups_top.stl id:1 copy 0
G1 X152.371 Y25.175
G1 Z0.200
G1 E0.80000 F2100.000
M204 S1000
;TYPE:Perimeter
;WIDTH:0.42
G1 F1200.000
G1 X187.962 Y25.175 E1.11592
G1 X187.962 Y54.766 E0.92780
M73 P0 R198
G1 X152.371 Y54.766 E1.11592
G1 X152.371 Y25.235 E0.92592
G1 X152.748 Y25.552 F10800.000
G1 F1200.000
G1 X187.585 Y25.552 E1.09228
G1 X187.585 Y54.388 E0.90415
G1 X152.748 Y54.388 E1.09228
G1 X152.748 Y25.612 E0.90227
G1 X153.125 Y25.929 F10800.000
G1 F1200.000
G1 X187.208 Y25.929 E1.06863
G1 X187.208 Y54.011 E0.88051
G1 X153.125 Y54.011 E1.06863
G1 X153.125 Y25.989 E0.87862
G1 X153.502 Y26.306 F10800.000
G1 F1200.000
G1 X186.831 Y26.306 E1.04499
G1 X186.831 Y53.634 E0.85686
G1 X153.502 Y53.634 E1.04499
G1 X153.502 Y26.366 E0.85498
;WIPE_START
G1 F8640.000
G1 X156.794 Y26.360 E-0.76000
;WIPE_END
G1 E-0.04000 F2100.000
G1 Z0.600 F10800.000
G1 X170.451 Y26.683
G1 Z0.200
G1 E0.80000 F2100.000
G1 F1200.000
G1 X174.025 Y26.683 E0.11207
G1 X174.025 Y53.257 E0.83321
G1 X170.451 Y53.257 E0.11207
G1 X170.451 Y26.743 E0.83133
G1 X170.828 Y27.060 F10800.000
;TYPE:External perimeter
G1 F1200.000
G1 X173.648 Y27.060 E0.08842
G1 X173.648 Y52.880 E0.80957
G1 X170.828 Y52.880 E0.08842
G1 X170.828 Y27.120 E0.80769
G1 X170.813 Y26.660 F10800.000
;WIPE_START
G1 F8640.000
G1 X173.648 Y27.060 E-0.65129
G1 X173.648 Y27.531 E-0.10871
;WIPE_END
G1 E-0.04000 F2100.000
G1 Z0.600 F10800.000
G1 X166.308 Y26.683
G1 Z0.200
G1 E0.80000 F2100.000
;TYPE:Perimeter
G1 F1200.000
G1 X169.882 Y26.683 E0.11207
G1 X169.882 Y53.257 E0.83321
G1 X166.308 Y53.257 E0.11207
G1 X166.308 Y26.743 E0.83133
G1 X166.685 Y27.060 F10800.000
;TYPE:External perimeter
G1 F1200.000
G1 X169.505 Y27.060 E0.08842
G1 X169.505 Y52.880 E0.80957
G1 X166.685 Y52.880 E0.08842
G1 X166.685 Y27.120 E0.80769
G1 X166.671 Y26.660 F10800.000
;WIPE_START
G1 F8640.000
G1 X169.505 Y27.060 E-0.65129
G1 X169.505 Y27.531 E-0.10871
;WIPE_END
G1 E-0.04000 F2100.000
G1 Z0.600 F10800.000
G1 X162.165 Y26.683
G1 Z0.200
G1 E0.80000 F2100.000
;TYPE:Perimeter
G1 F1200.000
G1 X165.739 Y26.683 E0.11207
G1 X165.739 Y53.257 E0.83321
G1 X162.165 Y53.257 E0.11207
G1 X162.165 Y26.743 E0.83133
G1 X162.542 Y27.060 F10800.000
;TYPE:External perimeter
G1 F1200.000
G1 X165.362 Y27.060 E0.08842
G1 X165.362 Y52.880 E0.80957
M73 Q0 S199
G1 X162.542 Y52.880 E0.08842
G1 X162.542 Y27.120 E0.80769
G1 X162.528 Y26.660 F10800.000
;WIPE_START
G1 F8640.000
G1 X165.362 Y27.060 E-0.65129
G1 X165.362 Y27.531 E-0.10871
;WIPE_END
G1 E-0.04000 F2100.000
G1 Z0.600 F10800.000
G1 X158.022 Y26.683
G1 Z0.200
G1 E0.80000 F2100.000
;TYPE:Perimeter
G1 F1200.000
G1 X161.596 Y26.683 E0.11207
G1 X161.596 Y53.257 E0.83321
G1 X158.022 Y53.257 E0.11207
G1 X158.022 Y26.743 E0.83133
G1 X158.399 Y27.060 F10800.000
;TYPE:External perimeter
G1 F1200.000
G1 X161.219 Y27.060 E0.08842
G1 X161.219 Y52.880 E0.80957
G1 X158.399 Y52.880 E0.08842
G1 X158.399 Y27.120 E0.80769
G1 X158.385 Y26.660 F10800.000
;WIPE_START
G1 F8640.000
G1 X161.219 Y27.060 E-0.65129
G1 X161.219 Y27.531 E-0.10871
;WIPE_END
G1 E-0.04000 F2100.000
G1 Z0.600 F10800.000
G1 X153.879 Y26.683
G1 Z0.200
G1 E0.80000 F2100.000
;TYPE:Perimeter
G1 F1200.000
G1 X157.454 Y26.683 E0.11207
G1 X157.454 Y53.257 E0.83321
G1 X153.879 Y53.257 E0.11207
G1 X153.879 Y26.743 E0.83133
G1 X154.257 Y27.060 F10800.000
;TYPE:External perimeter
G1 F1200.000
G1 X157.077 Y27.060 E0.08842
G1 X157.077 Y52.880 E0.80957
G1 X154.257 Y52.880 E0.08842
G1 X154.257 Y27.120 E0.80769
G1 X154.242 Y26.660 F10800.000
;WIPE_START
G1 F8640.000
G1 X157.077 Y27.060 E-0.65129
G1 X157.077 Y27.531 E-0.10871
;WIPE_END
G1 E-0.04000 F2100.000
G1 Z0.600 F10800.000
G1 X174.594 Y26.683
G1 Z0.200
G1 E0.80000 F2100.000
;TYPE:Perimeter
G1 F1200.000
G1 X178.168 Y26.683 E0.11207
G1 X178.168 Y53.257 E0.83321
G1 X174.594 Y53.257 E0.11207
G1 X174.594 Y26.743 E0.83133
G1 X174.971 Y27.060 F10800.000
;TYPE:External perimeter
G1 F1200.000
G1 X177.791 Y27.060 E0.08842
G1 X177.791 Y52.880 E0.80957
G1 X174.971 Y52.880 E0.08842
G1 X174.971 Y27.120 E0.80769
M73 P0 R197
G1 X174.956 Y26.660 F10800.000
;WIPE_START
G1 F8640.000
G1 X177.791 Y27.060 E-0.65129
G1 X177.791 Y27.531 E-0.10871
;WIPE_END
G1 E-0.04000 F2100.000
G1 Z0.600 F10800.000
G1 X178.737 Y26.683
G1 Z0.200
G1 E0.80000 F2100.000
;TYPE:Perimeter
G1 F1200.000
G1 X182.311 Y26.683 E0.11207
G1 X182.311 Y53.257 E0.83321
G1 X178.737 Y53.257 E0.11207
G1 X178.737 Y26.743 E0.83133
G1 X179.114 Y27.060 F10800.000
;TYPE:External perimeter
G1 F1200.000
G1 X181.934 Y27.060 E0.08842
G1 X181.934 Y52.880 E0.80957
G1 X179.114 Y52.880 E0.08842
G1 X179.114 Y27.120 E0.80769
G1 X179.099 Y26.660 F10800.000
;WIPE_START
G1 F8640.000
G1 X181.934 Y27.060 E-0.65129
G1 X181.934 Y27.531 E-0.10871
;WIPE_END
G1 E-0.04000 F2100.000
G1 Z0.600 F10800.000
G1 X182.879 Y26.683
G1 Z0.200
G1 E0.80000 F2100.000
;TYPE:Perimeter
G1 F1200.000
G1 X186.454 Y26.683 E0.11207
G1 X186.454 Y53.257 E0.83321
G1 X182.879 Y53.257 E0.11207
G1 X182.879 Y26.743 E0.83133
G1 X183.257 Y27.060 F10800.000
;TYPE:External perimeter
G1 F1200.000
G1 X186.077 Y27.060 E0.08842
G1 X186.077 Y52.880 E0.80957
G1 X183.257 Y52.880 E0.08842
G1 X183.257 Y27.120 E0.80769
G1 X183.242 Y26.660 F10800.000
;WIPE_START
G1 F8640.000
G1 X186.077 Y27.060 E-0.65129
G1 X186.077 Y27.531 E-0.10871
;WIPE_END
G1 E-0.04000 F2100.000
G1 Z0.600 F10800.000
G1 X141.962 Y47.175
G1 Z0.200
G1 E0.80000 F2100.000
;TYPE:Perimeter
G1 F1200.000
G1 X141.962 Y54.206 E0.22046
G1 X134.337 Y54.206 E0.23907
G1 X134.337 Y47.175 E0.22046
G1 X141.902 Y47.175 E0.23719
G1 X141.585 Y47.552 F10800.000
G1 F1200.000
G1 X141.585 Y53.829 E0.19681
G1 X134.714 Y53.829 E0.21542
G1 X134.714 Y47.552 E0.19681
G1 X141.525 Y47.552 E0.21354
G1 X141.208 Y47.929 F10800.000
G1 F1200.000
G1 X141.208 Y53.452 E0.17317
G1 X135.091 Y53.452 E0.19178
G1 X135.091 Y47.929 E0.17317
G1 X141.148 Y47.929 E0.18989
G1 X140.831 Y48.306 F10800.000
G1 F1200.000
G1 X140.831 Y53.075 E0.14952
G1 X135.468 Y53.075 E0.16813
G1 X135.468 Y48.306 E0.14952
G1 X140.771 Y48.306 E0.16625
G1 X140.454 Y48.683 F10800.000
G1 F1200.000
G1 X140.454 Y52.698 E0.12587
G1 X135.845 Y52.698 E0.14448
G1 X135.845 Y48.683 E0.12587
G1 X140.394 Y48.683 E0.14260
G1 X140.077 Y49.060 F10800.000
;TYPE:External perimeter
G1 F1200.000
G1 X140.077 Y52.321 E0.10223
G1 X136.223 Y52.321 E0.12084
G1 X136.223 Y49.060 E0.10223
G1 X140.017 Y49.060 E0.11896
G1 X140.466 Y48.967 F10800.000
;WIPE_START
G1 F8640.000
G1 X140.077 Y52.321 E-0.75296
G1 X140.046 Y52.321 E-0.00704
;WIPE_END
G1 E-0.04000 F2100.000
G1 Z0.600 F10800.000
G1 X194.371 Y27.766
G1 Z0.200
G1 E0.80000 F2100.000
;TYPE:Perimeter
G1 F1200.000
G1 X194.371 Y20.175 E0.23800
G1 X203.962 Y20.175 E0.30071
G1 X203.962 Y27.766 E0.23800
G1 X194.431 Y27.766 E0.29883
G1 X194.748 Y27.388 F10800.000
G1 F1200.000
G1 X194.748 Y20.552 E0.21436
G1 X203.585 Y20.552 E0.27707
G1 X203.585 Y27.388 E0.21436
G1 X194.808 Y27.388 E0.27519
G1 X195.125 Y27.011 F10800.000
G1 F1200.000
G1 X195.125 Y20.929 E0.19071
G1 X203.208 Y20.929 E0.25342
G1 X203.208 Y27.011 E0.19071
G1 X195.185 Y27.011 E0.25154
G1 X195.502 Y26.634 F10800.000
G1 F1200.000
G1 X195.502 Y21.306 E0.16707
G1 X202.831 Y21.306 E0.22977
G1 X202.831 Y26.634 E0.16707
G1 X195.562 Y26.634 E0.22789
G1 X195.879 Y26.257 F10800.000
G1 F1200.000
G1 X195.879 Y21.683 E0.14342
G1 X202.454 Y21.683 E0.20613
G1 X202.454 Y26.257 E0.14342
G1 X195.939 Y26.257 E0.20425
G1 X196.257 Y25.880 F10800.000
;TYPE:External perimeter
G1 F1200.000
G1 X196.257 Y22.060 E0.11977
G1 X202.077 Y22.060 E0.18248
G1 X202.077 Y25.880 E0.11977
G1 X196.317 Y25.880 E0.18060
G1 X195.864 Y25.957 F10800.000
;WIPE_START
G1 F8640.000
G1 X196.265 Y22.589 E-0.76000
;WIPE_END
G1 E-0.04000 F2100.000
G1 Z0.600 F10800.000
G1 X216.371 Y16.766
G1 Z0.200
G1 E0.80000 F2100.000
;TYPE:Perimeter
G1 F1200.000
G1 X216.371 Y64.175 E1.48648
G1 X122.962 Y64.175 E2.92878
G1 X122.962 Y16.766 E1.48648
M73 Q0 S198
G1 X216.311 Y16.766 E2.92690
G1 X216.748 Y16.388 F10800.000
G1 F1200.000
G1 X216.748 Y64.552 E1.51013
G1 X122.585 Y64.552 E2.95243
M73 P1 R197
M73 Q1 S198
G1 X122.585 Y16.388 E1.51013
G1 X216.688 Y16.388 E2.95055
G1 X217.125 Y16.011 F10800.000
G1 F1200.000
G1 X217.125 Y64.929 E1.53377
M73 P1 R196
G1 X122.208 Y64.929 E2.97607
G1 X122.208 Y16.011 E1.53377
G1 X217.065 Y16.011 E2.97419
G1 X217.502 Y15.634 F10800.000
G1 F1200.000
G1 X217.502 Y65.306 E1.55742
G1 X121.831 Y65.306 E2.99972
G1 X121.831 Y15.634 E1.55742
G1 X217.442 Y15.634 E2.99784
G1 X217.879 Y15.257 F10800.000
G1 F1200.000
G1 X217.879 Y65.683 E1.58107
G1 X121.454 Y65.683 E3.02336
G1 X121.454 Y15.257 E1.58107
G1 X217.819 Y15.257 E3.02148
M73 Q1 S197
G1 X218.257 Y14.880 F10800.000
;TYPE:External perimeter
G1 F1200.000
G1 X218.257 Y66.060 E1.60471
G1 X121.077 Y66.060 E3.04701
G1 X121.077 Y14.880 E1.60471
G1 X218.197 Y14.880 E3.04513
G1 X218.115 Y15.254 F10800.000
;WIPE_START
G1 F8640.000
G1 X218.200 Y18.172 E-0.76000
;WIPE_END
G1 E-0.04000 F2100.000
G1 Z0.600 F10800.000
G1 X216.258 Y17.642
G1 Z0.200
G1 E0.80000 F2100.000
;TYPE:Solid infill
;WIDTH:0.420513
G1 F1200.000
G1 X215.664 Y17.048 E0.02636
G1 X215.130 Y17.048 E0.01677
G1 X216.088 Y18.006 E0.04254
G1 X216.088 Y18.540 E0.01677
G1 X214.596 Y17.048 E0.06625
G1 X214.062 Y17.048 E0.01677
G1 X216.088 Y19.074 E0.08996
G1 X216.088 Y19.608 E0.01677
G1 X213.528 Y17.048 E0.11367
G1 X212.994 Y17.048 E0.01677
G1 X216.088 Y20.142 E0.13738
G1 X216.088 Y20.676 E0.01677
G1 X212.460 Y17.048 E0.16109
M73 P1 R195
G1 X211.926 Y17.048 E0.01677
G1 X216.088 Y21.210 E0.18480
G1 X216.088 Y21.744 E0.01677
G1 X211.392 Y17.048 E0.20851
G1 X210.858 Y17.048 E0.01677
G1 X216.088 Y22.278 E0.23222
G1 X216.088 Y22.812 E0.01677
G1 X210.324 Y17.048 E0.25593
G1 X209.790 Y17.048 E0.01677
G1 X216.088 Y23.346 E0.27964
G1 X216.088 Y23.880 E0.01677
G1 X209.256 Y17.048 E0.30335
G1 X208.722 Y17.048 E0.01677
G1 X216.088 Y24.414 E0.32706
G1 X216.088 Y24.948 E0.01677
G1 X208.188 Y17.048 E0.35077
G1 X207.654 Y17.048 E0.01677
G1 X216.088 Y25.482 E0.37448
G1 X216.088 Y26.016 E0.01677
G1 X207.120 Y17.048 E0.39820
G1 X206.586 Y17.048 E0.01677
G1 X216.088 Y26.550 E0.42191
G1 X216.088 Y27.084 E0.01677
G1 X206.052 Y17.048 E0.44562
G1 X205.518 Y17.048 E0.01677
G1 X216.088 Y27.618 E0.46933
G1 X216.088 Y28.152 E0.01677
G1 X204.984 Y17.048 E0.49304
G1 X204.450 Y17.048 E0.01677
G1 X216.088 Y28.686 E0.51675
G1 X216.088 Y29.220 E0.01677
G1 X203.916 Y17.048 E0.54046
G1 X203.382 Y17.048 E0.01677
G1 X216.088 Y29.754 E0.56417
G1 X216.088 Y30.288 E0.01677
G1 X202.848 Y17.048 E0.58788
G1 X202.314 Y17.048 E0.01677
G1 X216.088 Y30.822 E0.61159
G1 X216.088 Y31.356 E0.01677
G1 X201.780 Y17.048 E0.63530
G1 X201.246 Y17.048 E0.01677
G1 X216.088 Y31.890 E0.65901
G1 X216.088 Y32.424 E0.01677
G1 X204.245 Y20.581 E0.52588
G1 X204.245 Y21.115 E0.01677
G1 X216.088 Y32.958 E0.52588
G1 X216.088 Y33.492 E0.01677
G1 X204.245 Y21.649 E0.52588
G1 X204.245 Y22.183 E0.01677
G1 X216.088 Y34.026 E0.52588
G1 X216.088 Y34.560 E0.01677
G1 X204.245 Y22.717 E0.52588
G1 X204.245 Y23.251 E0.01677
G1 X216.088 Y35.094 E0.52588
G1 X216.088 Y35.628 E0.01677
G1 X204.245 Y23.785 E0.52588
G1 X204.245 Y24.319 E0.01677
G1 X216.088 Y36.162 E0.52588
G1 X216.088 Y36.696 E0.01677
G1 X204.245 Y24.853 E0.52588
G1 X204.245 Y25.387 E0.01677
G1 X216.088 Y37.230 E0.52588
G1 X216.088 Y37.764 E0.01677
G1 X204.245 Y25.921 E0.52588
G1 X204.245 Y26.455 E0.01677
G1 X216.088 Y38.298 E0.52588
G1 X216.088 Y38.832 E0.01677
G1 X204.245 Y26.989 E0.52588
G1 X204.245 Y27.523 E0.01677
G1 X216.088 Y39.366 E0.52588
G1 X216.088 Y39.900 E0.01677
G1 X204.236 Y28.048 E0.52625
G1 X203.702 Y28.048 E0.01677
G1 X216.088 Y40.434 E0.54996
G1 X216.088 Y40.968 E0.01677
G1 X203.168 Y28.048 E0.57367
G1 X202.634 Y28.048 E0.01677
G1 X216.088 Y41.502 E0.59738
G1 X216.088 Y42.036 E0.01677
G1 X202.100 Y28.048 E0.62109
G1 X201.566 Y28.048 E0.01677
G1 X216.088 Y42.570 E0.64480
G1 X216.088 Y43.104 E0.01677
G1 X201.032 Y28.048 E0.66851
G1 X200.498 Y28.048 E0.01677
G1 X216.088 Y43.638 E0.69222
G1 X216.088 Y44.172 E0.01677
G1 X199.964 Y28.048 E0.71593
G1 X199.430 Y28.048 E0.01677
G1 X216.088 Y44.706 E0.73964
G1 X216.088 Y45.240 E0.01677
G1 X198.896 Y28.048 E0.76335
G1 X198.362 Y28.048 E0.01677
G1 X216.088 Y45.774 E0.78706
M73 Q1 S196
G1 X216.088 Y46.308 E0.01677
G1 X197.828 Y28.048 E0.81077
G1 X197.294 Y28.048 E0.01677
G1 X216.088 Y46.842 E0.83448
G1 X216.088 Y47.376 E0.01677
G1 X196.760 Y28.048 E0.85820
G1 X196.226 Y28.048 E0.01677
G1 X216.088 Y47.910 E0.88191
G1 X216.088 Y48.444 E0.01677
G1 X195.692 Y28.048 E0.90562
G1 X195.158 Y28.048 E0.01677
G1 X216.088 Y48.978 E0.92933
M73 P2 R195
G1 X216.088 Y49.512 E0.01677
G1 X194.455 Y27.879 E0.96057
;WIPE_START
M73 Q2 S196
G1 F8640.000
G1 X196.782 Y30.206 E-0.76000
;WIPE_END
G1 E-0.04000 F2100.000
G1 Z0.600 F10800.000
G1 X203.726 Y20.062
G1 Z0.200
G1 E0.80000 F2100.000
G1 F1200.000
G1 X200.712 Y17.048 E0.13380
G1 X200.178 Y17.048 E0.01677
G1 X203.022 Y19.892 E0.12626
G1 X202.488 Y19.892 E0.01677
G1 X199.644 Y17.048 E0.12626
G1 X199.110 Y17.048 E0.01677
G1 X201.954 Y19.892 E0.12626
G1 X201.420 Y19.892 E0.01677
G1 X198.576 Y17.048 E0.12626
G1 X198.042 Y17.048 E0.01677
G1 X200.886 Y19.892 E0.12626
G1 X200.352 Y19.892 E0.01677
G1 X197.508 Y17.048 E0.12626
G1 X196.974 Y17.048 E0.01677
G1 X199.818 Y19.892 E0.12626
G1 X199.284 Y19.892 E0.01677
G1 X196.440 Y17.048 E0.12626
G1 X195.906 Y17.048 E0.01677
G1 X198.750 Y19.892 E0.12626
G1 X198.216 Y19.892 E0.01677
G1 X195.372 Y17.048 E0.12626
G1 X194.838 Y17.048 E0.01677
G1 X197.682 Y19.892 E0.12626
G1 X197.148 Y19.892 E0.01677
G1 X194.304 Y17.048 E0.12626
G1 X193.770 Y17.048 E0.01677
G1 X196.614 Y19.892 E0.12626
G1 X196.080 Y19.892 E0.01677
G1 X193.236 Y17.048 E0.12626
G1 X192.702 Y17.048 E0.01677
G1 X195.546 Y19.892 E0.12626
G1 X195.012 Y19.892 E0.01677
G1 X192.168 Y17.048 E0.12626
G1 X191.634 Y17.048 E0.01677
G1 X194.478 Y19.892 E0.12626
G1 X194.088 Y19.892 E0.01224
G1 X194.088 Y20.036 E0.00453
G1 X191.100 Y17.048 E0.13267
G1 X190.566 Y17.048 E0.01677
G1 X194.088 Y20.570 E0.15638
G1 X194.088 Y21.104 E0.01677
G1 X190.032 Y17.048 E0.18009
G1 X189.498 Y17.048 E0.01677
G1 X194.088 Y21.638 E0.20380
G1 X194.088 Y22.172 E0.01677
G1 X188.964 Y17.048 E0.22751
G1 X188.430 Y17.048 E0.01677
G1 X194.088 Y22.706 E0.25122
G1 X194.088 Y23.240 E0.01677
G1 X187.896 Y17.048 E0.27493
G1 X187.362 Y17.048 E0.01677
G1 X194.088 Y23.774 E0.29864
G1 X194.088 Y24.308 E0.01677
G1 X186.828 Y17.048 E0.32235
G1 X186.294 Y17.048 E0.01677
G1 X194.088 Y24.842 E0.34606
G1 X194.088 Y25.376 E0.01677
G1 X185.760 Y17.048 E0.36977
