; generated by PrusaSlicer 2.3.1+win64 on 2023-06-01 at 19:30:47 UTC

; 

; external perimeters extrusion width = 0.60mm
; perimeters extrusion width = 0.50mm
; infill extrusion width = 0.50mm
; solid infill extrusion width = 0.50mm
; top infill extrusion width = 0.45mm
; first layer extrusion width = 0.42mm

M73 P0 R30
M73 Q0 S30
M201 X1000 Y1000 Z200 E5000 ; sets maximum accelerations, mm/sec^2
M203 X200 Y200 Z12 E120 ; sets maximum feedrates, mm/sec
M204 P1250 R1250 T1250 ; sets acceleration (P, T) and retract acceleration (R), mm/sec^2
M205 X8.00 Y8.00 Z0.40 E4.50 ; sets the jerk limits, mm/sec
M205 S0 T0 ; sets the minimum extruding and travel feed rate, mm/sec
M107
;TYPE:Custom
M862.3 P "MK3S" ; printer model check
M862.1 P0.4 ; nozzle diameter check
M115 U3.9.3 ; tell printer latest fw version
G90 ; use absolute coordinates
M83 ; extruder relative mode
M104 S205 ; set extruder temp
M140 S67 ; set bed temp
M190 S67 ; wait for bed temp
M109 S205 ; wait for extruder temp
G28 W ; home all without mesh bed level
G80 ; mesh bed leveling
G1 Y-3.0 F1000.0 ; go outside print area
G92 E0.0
G1 X60.0 E9.0 F1000.0 ; intro line
G1 X100.0 E12.5 F1000.0 ; intro line
G92 E0.0
M221 S95

; Don't change E values below. Excessive value can damage the printer.

M907 E538 ; set extruder motor current
G21 ; set units to millimeters
G90 ; use absolute coordinates
M83 ; use relative distances for extrusion
M900 K0.05 ; Filament gcode LA 1.5
M900 K30 ; Filament gcode LA 1.0
;LAYER_CHANGE
;Z:0.2
;HEIGHT:0.2
;BEFORE_LAYER_CHANGE
G92 E0.0
;0.2


G1 E-0.80000 F2100.000
G1 Z0.400 F10800.000
;AFTER_LAYER_CHANGE
;0.2
; printing object usb_micro_mount.stl id:1 copy 0
G1 X191.491 Y37.164
M73 P0 R29
G1 Z0.200
G1 E0.80000 F2100.000
M204 S1000
;TYPE:Perimeter
;WIDTH:0.42
G1 F1200.000
G1 X191.600 Y36.701 E0.01492
G1 X191.745 Y36.357 E0.01168
G1 X192.031 Y35.933 E0.01604
G1 X192.380 Y35.610 E0.01492
G1 X192.692 Y35.406 E0.01168
G1 X193.166 Y35.214 E0.01604
G1 X193.636 Y35.142 E0.01492
G1 X194.009 Y35.147 E0.01168
G1 X194.512 Y35.253 E0.01614
G1 X194.968 Y35.470 E0.01581
G1 X195.221 Y35.651 E0.00978
G1 X195.451 Y35.862 E0.00978
G1 X195.757 Y36.262 E0.01581
G1 X195.976 Y36.761 E0.01707
G1 X196.073 Y37.296 E0.01707
G1 X196.040 Y37.840 E0.01707
G1 X195.882 Y38.357 E0.01696
G1 X195.642 Y38.768 E0.01493
G1 X195.404 Y39.054 E0.01168
G1 X195.035 Y39.353 E0.01488
G1 X194.762 Y39.504 E0.00977
G1 X194.473 Y39.621 E0.00978
G1 X194.019 Y39.716 E0.01455
G1 X193.668 Y39.727 E0.01103
G1 X193.169 Y39.652 E0.01581
G1 X192.668 Y39.449 E0.01696
G1 X192.280 Y39.173 E0.01492
G1 X192.016 Y38.910 E0.01168
G1 X191.751 Y38.517 E0.01488
G1 X191.609 Y38.195 E0.01103
G1 X191.491 Y37.705 E0.01581
G1 X191.491 Y37.224 E0.01508
G1 X191.868 Y37.224 F10800.000
G1 F1200.000
G1 X191.960 Y36.818 E0.01305
G1 X192.078 Y36.538 E0.00954
G1 X192.319 Y36.180 E0.01351
G1 X192.613 Y35.909 E0.01256
G1 X192.868 Y35.742 E0.00954
G1 X193.267 Y35.580 E0.01351
G1 X193.663 Y35.519 E0.01256
G1 X193.967 Y35.523 E0.00954
G1 X194.391 Y35.613 E0.01359
G1 X194.775 Y35.796 E0.01334
G1 X194.983 Y35.945 E0.00802
G1 X195.172 Y36.117 E0.00802
G1 X195.430 Y36.456 E0.01334
G1 X195.613 Y36.872 E0.01425
G1 X195.693 Y37.319 E0.01425
G1 X195.667 Y37.773 E0.01425
G1 X195.534 Y38.205 E0.01417
G1 X195.333 Y38.551 E0.01256
G1 X195.138 Y38.784 E0.00954
G1 X194.824 Y39.039 E0.01268
G1 X194.600 Y39.163 E0.00802
G1 X194.363 Y39.259 E0.00802
G1 X193.974 Y39.340 E0.01244
G1 X193.690 Y39.349 E0.00892
G1 X193.269 Y39.286 E0.01334
G1 X192.850 Y39.116 E0.01417
G1 X192.524 Y38.884 E0.01256
G1 X192.308 Y38.669 E0.00954
G1 X192.082 Y38.334 E0.01268
G1 X191.968 Y38.074 E0.00892
G1 X191.868 Y37.660 E0.01334
G1 X191.868 Y37.284 E0.01179
;WIPE_START
G1 F8640.000
G1 X191.960 Y36.818 E-0.10964
G1 X192.078 Y36.538 E-0.07025
G1 X192.319 Y36.180 E-0.09949
G1 X192.613 Y35.909 E-0.09248
G1 X192.868 Y35.742 E-0.07025
G1 X193.267 Y35.580 E-0.09949
G1 X193.663 Y35.519 E-0.09247
G1 X193.967 Y35.523 E-0.07025
G1 X194.203 Y35.573 E-0.05569
;WIPE_END
G1 E-0.04000 F2100.000
G1 Z0.600 F10800.000
G1 X194.745 Y36.238
G1 Z0.200
G1 E0.80000 F2100.000
G1 F1200.000
G1 X194.892 Y36.373 E0.00626
G1 X195.103 Y36.649 E0.01088
G1 X195.250 Y36.982 E0.01143
G1 X195.314 Y37.341 E0.01143
G1 X195.293 Y37.705 E0.01143
G1 X195.187 Y38.053 E0.01139
G1 X195.023 Y38.333 E0.01019
G1 X194.872 Y38.515 E0.00740
G1 X194.612 Y38.725 E0.01048
G1 X194.437 Y38.822 E0.00626
G1 X194.252 Y38.897 E0.00626
G1 X193.930 Y38.965 E0.01033
G1 X193.712 Y38.971 E0.00681
G1 X193.369 Y38.920 E0.01088
G1 X193.033 Y38.783 E0.01139
G1 X192.768 Y38.595 E0.01019
G1 X192.601 Y38.428 E0.00740
G1 X192.414 Y38.151 E0.01048
G1 X192.326 Y37.952 E0.00681
G1 X192.245 Y37.615 E0.01088
G1 X192.245 Y37.252 E0.01139
G1 X192.319 Y36.936 E0.01019
G1 X192.411 Y36.718 E0.00740
G1 X192.607 Y36.427 E0.01098
G1 X192.846 Y36.207 E0.01019
G1 X193.043 Y36.078 E0.00740
G1 X193.368 Y35.946 E0.01098
G1 X193.689 Y35.897 E0.01019
G1 X193.925 Y35.900 E0.00740
G1 X194.269 Y35.972 E0.01103
G1 X194.583 Y36.122 E0.01088
G1 X194.696 Y36.203 E0.00438
G1 X194.507 Y36.531 F10800.000
;TYPE:External perimeter
G1 F1200.000
G1 X194.613 Y36.628 E0.00451
G1 X194.776 Y36.842 E0.00842
G1 X194.887 Y37.093 E0.00862
G1 X194.935 Y37.364 E0.00862
G1 X194.919 Y37.638 E0.00862
G1 X194.839 Y37.900 E0.00860
G1 X194.713 Y38.116 E0.00782
G1 X194.606 Y38.245 E0.00526
G1 X194.401 Y38.411 E0.00828
G1 X194.275 Y38.481 E0.00451
G1 X194.141 Y38.535 E0.00451
G1 X193.885 Y38.589 E0.00822
G1 X193.735 Y38.593 E0.00470
G1 X193.469 Y38.553 E0.00842
G1 X193.215 Y38.450 E0.00860
G1 X193.012 Y38.306 E0.00782
G1 X192.893 Y38.187 E0.00526
G1 X192.745 Y37.968 E0.00828
G1 X192.685 Y37.831 E0.00470
G1 X192.622 Y37.570 E0.00842
G1 X192.622 Y37.296 E0.00860
G1 X192.679 Y37.053 E0.00782
G1 X192.744 Y36.898 E0.00526
G1 X192.895 Y36.675 E0.00846
G1 X193.078 Y36.505 E0.00782
G1 X193.219 Y36.413 E0.00526
G1 X193.469 Y36.312 E0.00846
G1 X193.715 Y36.274 E0.00782
G1 X193.883 Y36.276 E0.00526
G1 X194.148 Y36.332 E0.00847
G1 X194.458 Y36.496 E0.01102
G1 X194.638 Y36.472 F10800.000
;WIPE_START
G1 F8640.000
G1 X194.613 Y36.628 E-0.04699
G1 X194.776 Y36.842 E-0.06201
G1 X194.887 Y37.093 E-0.06346
G1 X194.935 Y37.364 E-0.06346
G1 X194.919 Y37.638 E-0.06346
G1 X194.839 Y37.900 E-0.06334
G1 X194.713 Y38.116 E-0.05760
G1 X194.606 Y38.245 E-0.03876
G1 X194.401 Y38.411 E-0.06094
G1 X194.275 Y38.481 E-0.03320
G1 X194.141 Y38.535 E-0.03320
G1 X193.885 Y38.589 E-0.06055
G1 X193.735 Y38.593 E-0.03464
G1 X193.469 Y38.553 E-0.06201
G1 X193.403 Y38.527 E-0.01639
;WIPE_END
G1 E-0.04000 F2100.000
G1 Z0.600 F10800.000
G1 X186.976 Y36.761
G1 Z0.200
G1 E0.80000 F2100.000
;TYPE:Perimeter
G1 F1200.000
G1 X187.065 Y37.257 E0.01581
G1 X187.065 Y37.609 E0.01103
G1 X186.976 Y38.105 E0.01581
G1 X186.757 Y38.603 E0.01707
G1 X186.427 Y39.035 E0.01707
G1 X186.035 Y39.353 E0.01581
G1 X185.762 Y39.504 E0.00977
G1 X185.473 Y39.621 E0.00978
G1 X185.019 Y39.716 E0.01455
G1 X184.668 Y39.727 E0.01103
G1 X184.169 Y39.652 E0.01581
G1 X183.665 Y39.448 E0.01707
G1 X183.225 Y39.132 E0.01696
G1 X182.913 Y38.773 E0.01492
G1 X182.739 Y38.490 E0.01042
G1 X182.609 Y38.195 E0.01011
G1 X182.491 Y37.705 E0.01581
G1 X182.491 Y37.164 E0.01696
G1 X182.600 Y36.701 E0.01492
G1 X182.745 Y36.357 E0.01168
G1 X183.031 Y35.933 E0.01604
G1 X183.380 Y35.610 E0.01492
G1 X183.692 Y35.406 E0.01168
G1 X184.166 Y35.214 E0.01604
G1 X184.636 Y35.142 E0.01492
G1 X185.009 Y35.147 E0.01168
G1 X185.512 Y35.253 E0.01614
G1 X185.968 Y35.470 E0.01581
G1 X186.221 Y35.651 E0.00978
G1 X186.451 Y35.862 E0.00978
G1 X186.757 Y36.262 E0.01581
G1 X186.952 Y36.706 E0.01519
G1 X186.607 Y36.858 F10800.000
G1 F1200.000
G1 X186.688 Y37.290 E0.01380
G1 X186.688 Y37.575 E0.00892
G1 X186.613 Y37.994 E0.01334
G1 X186.430 Y38.410 E0.01425
G1 X186.154 Y38.771 E0.01425
G1 X185.824 Y39.039 E0.01334
G1 X185.600 Y39.163 E0.00802
G1 X185.363 Y39.259 E0.00802
G1 X184.974 Y39.340 E0.01244
G1 X184.690 Y39.349 E0.00892
G1 X184.269 Y39.286 E0.01334
G1 X183.848 Y39.115 E0.01425
G1 X183.481 Y38.852 E0.01417
G1 X183.218 Y38.550 E0.01256
G1 X183.074 Y38.315 E0.00864
G1 X182.968 Y38.074 E0.00826
G1 X182.868 Y37.660 E0.01334
G1 X182.868 Y37.208 E0.01417
G1 X182.960 Y36.818 E0.01256
G1 X183.078 Y36.538 E0.00954
G1 X183.319 Y36.180 E0.01351
G1 X183.613 Y35.909 E0.01256
G1 X183.868 Y35.742 E0.00954
G1 X184.267 Y35.580 E0.01351
G1 X184.663 Y35.519 E0.01256
G1 X184.967 Y35.523 E0.00954
G1 X185.391 Y35.613 E0.01359
G1 X185.775 Y35.796 E0.01334
G1 X185.983 Y35.945 E0.00802
G1 X186.172 Y36.117 E0.00802
G1 X186.430 Y36.456 E0.01334
G1 X186.583 Y36.803 E0.01190
;WIPE_START
G1 F8640.000
G1 X186.688 Y37.290 E-0.11520
G1 X186.688 Y37.575 E-0.06569
G1 X186.613 Y37.994 E-0.09827
G1 X186.430 Y38.410 E-0.10494
G1 X186.154 Y38.771 E-0.10494
G1 X185.824 Y39.039 E-0.09827
G1 X185.600 Y39.163 E-0.05906
G1 X185.363 Y39.259 E-0.05906
G1 X185.131 Y39.307 E-0.05457
;WIPE_END
G1 E-0.04000 F2100.000
G1 Z0.600 F10800.000
G1 X185.745 Y36.238
G1 Z0.200
G1 E0.80000 F2100.000
G1 F1200.000
G1 X185.892 Y36.373 E0.00626
G1 X186.103 Y36.649 E0.01088
G1 X186.250 Y36.982 E0.01143
G1 X186.311 Y37.324 E0.01088
G1 X186.311 Y37.541 E0.00681
G1 X186.250 Y37.883 E0.01088
G1 X186.103 Y38.217 E0.01143
G1 X185.882 Y38.506 E0.01143
G1 X185.612 Y38.725 E0.01088
G1 X185.437 Y38.822 E0.00626
G1 X185.252 Y38.897 E0.00626
G1 X184.930 Y38.965 E0.01033
G1 X184.712 Y38.971 E0.00681
G1 X184.369 Y38.920 E0.01088
G1 X184.031 Y38.783 E0.01143
G1 X183.736 Y38.571 E0.01139
G1 X183.523 Y38.326 E0.01019
G1 X183.409 Y38.139 E0.00685
G1 X183.326 Y37.952 E0.00641
G1 X183.245 Y37.615 E0.01088
G1 X183.245 Y37.252 E0.01139
G1 X183.319 Y36.936 E0.01019
G1 X183.411 Y36.718 E0.00740
G1 X183.607 Y36.427 E0.01098
G1 X183.846 Y36.207 E0.01019
G1 X184.043 Y36.078 E0.00740
G1 X184.368 Y35.946 E0.01098
G1 X184.689 Y35.897 E0.01019
G1 X184.925 Y35.900 E0.00740
G1 X185.269 Y35.972 E0.01103
G1 X185.583 Y36.122 E0.01088
G1 X185.696 Y36.203 E0.00438
G1 X185.507 Y36.531 F10800.000
;TYPE:External perimeter
G1 F1200.000
G1 X185.613 Y36.628 E0.00451
G1 X185.776 Y36.842 E0.00842
G1 X185.887 Y37.093 E0.00862
G1 X185.934 Y37.358 E0.00842
G1 X185.934 Y37.508 E0.00470
G1 X185.887 Y37.772 E0.00842
G1 X185.776 Y38.023 E0.00862
G1 X185.609 Y38.242 E0.00862
G1 X185.401 Y38.411 E0.00842
G1 X185.275 Y38.481 E0.00451
G1 X185.141 Y38.535 E0.00451
G1 X184.885 Y38.589 E0.00822
G1 X184.735 Y38.593 E0.00470
G1 X184.469 Y38.553 E0.00842
G1 X184.215 Y38.450 E0.00862
G1 X183.992 Y38.290 E0.00860
G1 X183.828 Y38.102 E0.00782
G1 X183.744 Y37.964 E0.00507
G1 X183.685 Y37.831 E0.00456
G1 X183.622 Y37.570 E0.00842
G1 X183.622 Y37.296 E0.00860
G1 X183.679 Y37.053 E0.00782
G1 X183.744 Y36.898 E0.00526
G1 X183.895 Y36.675 E0.00846
G1 X184.078 Y36.505 E0.00782
G1 X184.219 Y36.413 E0.00526
G1 X184.469 Y36.312 E0.00846
G1 X184.715 Y36.274 E0.00782
G1 X184.883 Y36.276 E0.00526
G1 X185.148 Y36.332 E0.00847
G1 X185.458 Y36.496 E0.01102
G1 X185.638 Y36.472 F10800.000
;WIPE_START
G1 F8640.000
G1 X185.613 Y36.628 E-0.04699
G1 X185.776 Y36.842 E-0.06201
G1 X185.887 Y37.093 E-0.06346
G1 X185.934 Y37.358 E-0.06201
G1 X185.934 Y37.508 E-0.03464
G1 X185.887 Y37.772 E-0.06201
G1 X185.776 Y38.023 E-0.06346
G1 X185.609 Y38.242 E-0.06346
G1 X185.401 Y38.411 E-0.06201
G1 X185.275 Y38.481 E-0.03320
G1 X185.141 Y38.535 E-0.03320
G1 X184.885 Y38.589 E-0.06055
G1 X184.735 Y38.593 E-0.03464
G1 X184.469 Y38.553 E-0.06201
G1 X184.404 Y38.527 E-0.01637
;WIPE_END
G1 E-0.04000 F2100.000
G1 Z0.600 F10800.000
G1 X181.817 Y31.724
G1 Z0.200
G1 E0.80000 F2100.000
;TYPE:Perimeter
G1 F1200.000
G1 X196.734 Y31.724 E0.46773
G1 X196.734 Y45.036 E0.41739
M73 Q0 S29
G1 X181.817 Y45.036 E0.46773
G1 X181.817 Y31.784 E0.41550
G1 X181.440 Y31.347 F10800.000
G1 F1200.000
G1 X197.111 Y31.347 E0.49137
G1 X197.111 Y45.413 E0.44103
M73 Q1 S29
G1 X181.440 Y45.413 E0.49137
M73 P1 R29
G1 X181.440 Y31.407 E0.43915
G1 X181.063 Y30.970 F10800.000
G1 F1200.000
G1 X197.488 Y30.970 E0.51502
G1 X197.488 Y45.790 E0.46468
G1 X181.063 Y45.790 E0.51502
G1 X181.063 Y31.030 E0.46280
G1 X180.685 Y30.593 F10800.000
;TYPE:External perimeter
G1 F1200.000
G1 X197.865 Y30.593 E0.53867
G1 X197.865 Y46.167 E0.48832
G1 X180.685 Y46.167 E0.53867
G1 X180.685 Y30.653 E0.48644
G1 X181.074 Y30.690 F10800.000
;WIPE_START
G1 F8640.000
G1 X183.977 Y30.641 E-0.76000
;WIPE_END
G1 E-0.04000 F2100.000
G1 Z0.600 F10800.000
G1 X182.334 Y36.986
G1 Z0.200
G1 E0.80000 F2100.000
;TYPE:Gap fill
;WIDTH:0.341955
G1 F1200.000
G1 X182.155 Y37.116 E0.00550
G1 X182.154 Y37.142 E0.00065
G1 X182.154 Y37.747 E0.01504
G1 X182.330 Y37.876 E0.00542
;WIPE_START
G1 F8640.000
G1 X182.154 Y37.747 E-0.05031
G1 X182.154 Y37.142 E-0.13968
G1 X182.155 Y37.116 E-0.00599
G1 X182.334 Y36.986 E-0.05109
;WIPE_END
G1 E-0.55293 F2100.000
G1 Z0.600 F10800.000
G1 X196.386 Y37.907
G1 Z0.200
G1 E0.80000 F2100.000
;WIDTH:0.353902
G1 F1200.000
G1 X196.404 Y37.293 E0.01586
;WIDTH:0.328828
G1 X196.374 Y36.936 E0.00852
;WIPE_START
G1 F8640.000
G1 X196.404 Y37.293 E-0.08277
;WIPE_END
G1 E-0.71723 F2100.000
G1 Z0.600 F10800.000
G1 X195.855 Y31.837
G1 Z0.200
G1 E0.80000 F2100.000
;TYPE:Solid infill
;WIDTH:0.421662
G1 F1200.000
G1 X196.451 Y32.433 E0.02655
G1 X196.451 Y32.969 E0.01687
G1 X195.489 Y32.007 E0.04285
G1 X194.954 Y32.007 E0.01687
G1 X196.451 Y33.504 E0.06670
G1 X196.451 Y34.040 E0.01687
G1 X194.418 Y32.007 E0.09056
G1 X193.883 Y32.007 E0.01687
G1 X196.451 Y34.576 E0.11441
G1 X196.451 Y35.111 E0.01687
G1 X193.347 Y32.007 E0.13827
G1 X192.811 Y32.007 E0.01687
G1 X196.451 Y35.647 E0.16212
G1 X196.451 Y36.182 E0.01687
G1 X192.276 Y32.007 E0.18598
G1 X191.740 Y32.007 E0.01687
G1 X194.819 Y35.085 E0.13712
G1 X195.112 Y35.225 E0.01022
G1 X195.399 Y35.431 E0.01114
G1 X195.660 Y35.670 E0.01114
G1 X196.002 Y36.118 E0.01773
G1 X196.121 Y36.388 E0.00929
G1 X196.541 Y36.808 E0.01872
;WIPE_START
G1 F8640.000
G1 X196.121 Y36.388 E-0.13723
G1 X196.002 Y36.118 E-0.06810
G1 X195.660 Y35.670 E-0.13000
G1 X195.399 Y35.431 E-0.08168
G1 X195.112 Y35.225 E-0.08168
G1 X194.819 Y35.085 E-0.07496
G1 X194.248 Y34.515 E-0.18634
;WIPE_END
G1 E-0.04000 F2100.000
G1 Z0.600 F10800.000
G1 X194.288 Y35.090
G1 Z0.200
G1 E0.80000 F2100.000
G1 F1200.000
G1 X191.204 Y32.007 E0.13732
G1 X190.669 Y32.007 E0.01687
G1 X193.533 Y34.871 E0.12758
G1 X193.073 Y34.947 E0.01469
G1 X190.133 Y32.007 E0.13094
G1 X189.598 Y32.007 E0.01687
G1 X192.692 Y35.101 E0.13782
G1 X192.560 Y35.155 E0.00448
G1 X192.348 Y35.293 E0.00797
G1 X189.062 Y32.007 E0.14637
G1 X188.526 Y32.007 E0.01687
G1 X192.050 Y35.530 E0.15693
G1 X191.781 Y35.797 E0.01193
G1 X187.991 Y32.007 E0.16882
G1 X187.455 Y32.007 E0.01687
G1 X191.566 Y36.117 E0.18307
G1 X191.495 Y36.222 E0.00399
G1 X191.388 Y36.475 E0.00865
G1 X186.919 Y32.007 E0.19902
G1 X186.384 Y32.007 E0.01687
G1 X191.265 Y36.888 E0.21740
G1 X191.208 Y37.131 E0.00786
G1 X191.208 Y37.366 E0.00741
G1 X185.848 Y32.007 E0.23870
G1 X185.313 Y32.007 E0.01687
G1 X191.490 Y38.184 E0.27513
;WIPE_START
G1 F8640.000
G1 X189.163 Y35.857 E-0.76000
;WIPE_END
G1 E-0.04000 F2100.000
G1 Z0.600 F10800.000
G1 X196.139 Y38.012
G1 Z0.200
G1 E0.80000 F2100.000
G1 F1200.000
G1 X196.451 Y38.325 E0.01392
G1 X196.451 Y38.861 E0.01687
G1 X196.113 Y38.522 E0.01506
G1 X195.916 Y38.861 E0.01233
G1 X196.451 Y39.396 E0.02386
G1 X196.451 Y39.932 E0.01687
G1 X195.682 Y39.162 E0.03428
G1 X195.603 Y39.256 E0.00386
G1 X195.403 Y39.419 E0.00812
G1 X196.451 Y40.467 E0.04670
G1 X196.451 Y41.003 E0.01687
G1 X195.093 Y39.644 E0.06052
G1 X194.733 Y39.820 E0.01261
G1 X196.451 Y41.539 E0.07652
G1 X196.451 Y42.074 E0.01687
G1 X194.319 Y39.942 E0.09496
G1 X194.053 Y39.998 E0.00858
G1 X193.846 Y40.004 E0.00652
G1 X196.451 Y42.610 E0.11604
G1 X196.451 Y43.146 E0.01687
G1 X193.020 Y39.714 E0.15283
;WIPE_START
G1 F8640.000
G1 X195.347 Y42.041 E-0.76000
;WIPE_END
G1 E-0.04000 F2100.000
G1 Z0.600 F10800.000
G1 X196.621 Y43.851
M73 Q2 S29
G1 Z0.200
G1 E0.80000 F2100.000
G1 F1200.000
G1 X184.777 Y32.007 E0.52751
M73 P2 R29
G1 X184.241 Y32.007 E0.01687
G1 X196.451 Y44.217 E0.54380
G1 X196.451 Y44.752 E0.01687
G1 X183.706 Y32.007 E0.56766
G1 X183.170 Y32.007 E0.01687
