; generated by PrusaSlicer 2.3.1+win64 on 2023-06-14 at 19:11:42 UTC

; 

; external perimeters extrusion width = 0.60mm
; perimeters extrusion width = 0.50mm
; infill extrusion width = 0.50mm
; solid infill extrusion width = 0.50mm
; top infill extrusion width = 0.45mm
; first layer extrusion width = 0.42mm

M73 P0 R4
M73 Q0 S4
M201 X1000 Y1000 Z200 E5000 ; sets maximum accelerations, mm/sec^2
M203 X200 Y200 Z12 E120 ; sets maximum feedrates, mm/sec
M204 P1250 R1250 T1250 ; sets acceleration (P, T) and retract acceleration (R), mm/sec^2
M205 X8.00 Y8.00 Z0.40 E4.50 ; sets the jerk limits, mm/sec
M205 S0 T0 ; sets the minimum extruding and travel feed rate, mm/sec
M107
;TYPE:Custom
M862.3 P "MK3S" ; printer model check
M862.1 P0.4 ; nozzle diameter check
M115 U3.9.3 ; tell printer latest fw version
G90 ; use absolute coordinates
M83 ; extruder relative mode
M104 S205 ; set extruder temp
M140 S67 ; set bed temp
M190 S67 ; wait for bed temp
M109 S205 ; wait for extruder temp
G28 W ; home all without mesh bed level
G80 ; mesh bed leveling
G1 Y-3.0 F1000.0 ; go outside print area
G92 E0.0
G1 X60.0 E9.0 F1000.0 ; intro line
M73 P1 R4
M73 Q1 S4
G1 X100.0 E12.5 F1000.0 ; intro line
G92 E0.0
M221 S95

; Don't change E values below. Excessive value can damage the printer.

M907 E538 ; set extruder motor current
G21 ; set units to millimeters
G90 ; use absolute coordinates
M83 ; use relative distances for extrusion
M900 K0.05 ; Filament gcode LA 1.5
M900 K30 ; Filament gcode LA 1.0
;LAYER_CHANGE
;Z:0.2
;HEIGHT:0.2
;BEFORE_LAYER_CHANGE
G92 E0.0
;0.2


M73 P2 R4
M73 Q2 S4
G1 E-0.80000 F2100.000
G1 Z0.400 F10800.000
;AFTER_LAYER_CHANGE
;0.2
; printing object washer.stl id:1 copy 0
G1 X203.580 Y34.857
M73 Q3 S4
G1 Z0.200
G1 E0.80000 F2100.000
M204 S1000
;TYPE:Perimeter
;WIDTH:0.42
G1 F1200.000
G1 X203.693 Y34.329 E0.01691
G1 X203.957 Y33.369 E0.03124
M73 P3 R4
G1 X204.299 Y32.415 E0.03175
G1 X204.714 Y31.491 E0.03175
G1 X205.189 Y30.616 E0.03124
G1 X205.465 Y30.172 E0.01639
G1 X205.757 Y29.740 E0.01636
G1 X206.325 Y28.993 E0.02942
G1 X207.022 Y28.205 E0.03299
G1 X207.406 Y27.821 E0.01700
G1 X208.150 Y27.158 E0.03124
G1 X208.955 Y26.544 E0.03175
G1 X209.805 Y25.994 E0.03175
G1 X210.680 Y25.518 E0.03124
G1 X211.634 Y25.090 E0.03278
G1 X212.572 Y24.754 E0.03124
G1 X213.532 Y24.490 E0.03124
G1 X214.060 Y24.377 E0.01691
G1 X215.028 Y24.227 E0.03072
G1 X215.564 Y24.176 E0.01688
G1 X216.501 Y24.139 E0.02942
G1 X217.570 Y24.176 E0.03351
G1 X218.562 Y24.291 E0.03133
G1 X219.077 Y24.380 E0.01639
G1 X219.588 Y24.490 E0.01639
G1 X220.549 Y24.754 E0.03124
G1 X221.502 Y25.096 E0.03175
G1 X222.426 Y25.510 E0.03175
G1 X223.301 Y25.986 E0.03124
G1 X223.760 Y26.271 E0.01691
G1 X224.561 Y26.834 E0.03072
G1 X224.984 Y27.169 E0.01691
G1 X225.727 Y27.832 E0.03124
G1 X226.418 Y28.550 E0.03124
G1 X226.769 Y28.959 E0.01691
G1 X227.373 Y29.752 E0.03124
G1 X227.915 Y30.588 E0.03124
G1 X228.181 Y31.057 E0.01691
G1 X228.623 Y31.949 E0.03124
G1 X228.996 Y32.873 E0.03124
G1 X229.168 Y33.384 E0.01691
G1 X229.428 Y34.329 E0.03072
G1 X229.541 Y34.855 E0.01688
G1 X229.682 Y35.766 E0.02888
G1 X229.742 Y36.358 E0.01867
G1 X229.780 Y37.357 E0.03135
G1 X229.742 Y38.353 E0.03124
G1 X229.690 Y38.890 E0.01691
G1 X229.541 Y39.858 E0.03072
G1 X229.428 Y40.385 E0.01691
G1 X229.168 Y41.330 E0.03072
M73 Q4 S4
G1 X228.996 Y41.841 E0.01691
G1 X228.623 Y42.765 E0.03124
G1 X228.174 Y43.672 E0.03175
G1 X227.665 Y44.529 E0.03124
G1 X227.363 Y44.976 E0.01691
G1 X226.769 Y45.755 E0.03072
G1 X226.418 Y46.164 E0.01691
G1 X225.727 Y46.882 E0.03124
M73 P4 R4
G1 X224.984 Y47.545 E0.03124
G1 X224.561 Y47.880 E0.01691
G1 X223.760 Y48.444 E0.03072
G1 X223.301 Y48.728 E0.01691
G1 X222.426 Y49.204 E0.03124
G1 X221.502 Y49.618 E0.03175
G1 X220.549 Y49.961 E0.03175
G1 X219.588 Y50.225 E0.03124
G1 X219.077 Y50.334 E0.01639
G1 X218.562 Y50.424 E0.01639
G1 X217.572 Y50.538 E0.03124
G1 X216.560 Y50.577 E0.03175
G1 X215.549 Y50.538 E0.03175
G1 X214.559 Y50.424 E0.03124
G1 X214.044 Y50.334 E0.01639
G1 X213.532 Y50.225 E0.01639
G1 X212.588 Y49.965 E0.03072
G1 X212.078 Y49.793 E0.01688
G1 X211.207 Y49.443 E0.02942
G1 X210.248 Y48.972 E0.03351
G1 X209.389 Y48.462 E0.03133
G1 X208.942 Y48.160 E0.01691
G1 X208.150 Y47.556 E0.03124
G1 X207.406 Y46.893 E0.03124
G1 X207.025 Y46.512 E0.01691
G1 X206.362 Y45.768 E0.03124
G1 X205.758 Y44.976 E0.03124
G1 X205.189 Y44.098 E0.03278
G1 X204.714 Y43.223 E0.03124
G1 X204.299 Y42.299 E0.03175
G1 X203.957 Y41.346 E0.03175
G1 X203.693 Y40.385 E0.03124
G1 X203.580 Y39.859 E0.01688
G1 X203.439 Y38.949 E0.02888
G1 X203.379 Y38.356 E0.01867
G1 X203.341 Y37.357 E0.03135
G1 X203.379 Y36.362 E0.03124
G1 X203.431 Y35.825 E0.01691
G1 X203.571 Y34.916 E0.02884
G1 X203.944 Y34.973 F10800.000
G1 F1200.000
G1 X204.059 Y34.419 E0.01777
G1 X204.317 Y33.482 E0.03044
G1 X204.649 Y32.557 E0.03085
G1 X205.052 Y31.659 E0.03085
G1 X205.516 Y30.806 E0.03044
G1 X205.782 Y30.377 E0.01583
G1 X206.064 Y29.959 E0.01580
G1 X206.617 Y29.232 E0.02865
G1 X207.297 Y28.463 E0.03219
M73 Q5 S4
G1 X207.665 Y28.096 E0.01630
G1 X208.390 Y27.450 E0.03044
G1 X209.172 Y26.853 E0.03085
G1 X209.998 Y26.318 E0.03085
G1 X210.851 Y25.855 E0.03044
G1 X211.772 Y25.442 E0.03165
G1 X212.686 Y25.113 E0.03044
M73 P5 R4
G1 X213.622 Y24.856 E0.03044
G1 X214.128 Y24.748 E0.01623
G1 X215.075 Y24.602 E0.03004
G1 X215.589 Y24.552 E0.01620
G1 X216.502 Y24.516 E0.02865
G1 X217.541 Y24.552 E0.03260
G1 X218.508 Y24.664 E0.03051
G1 X219.005 Y24.751 E0.01583
G1 X219.499 Y24.856 E0.01583
G1 X220.435 Y25.113 E0.03044
G1 X221.361 Y25.446 E0.03085
G1 X222.259 Y25.848 E0.03085
G1 X223.112 Y26.312 E0.03044
G1 X223.552 Y26.585 E0.01623
G1 X224.335 Y27.136 E0.03004
G1 X224.741 Y27.458 E0.01623
G1 X225.466 Y28.104 E0.03044
G1 X226.139 Y28.804 E0.03044
G1 X226.476 Y29.197 E0.01623
G1 X227.065 Y29.969 E0.03044
G1 X227.592 Y30.784 E0.03044
G1 X227.848 Y31.234 E0.01623
G1 X228.279 Y32.104 E0.03044
G1 X228.642 Y33.004 E0.03044
G1 X228.808 Y33.495 E0.01623
G1 X229.061 Y34.419 E0.03004
G1 X229.170 Y34.924 E0.01620
G1 X229.308 Y35.813 E0.02822
G1 X229.365 Y36.384 E0.01798
G1 X229.403 Y37.357 E0.03053
G1 X229.366 Y38.327 E0.03044
G1 X229.316 Y38.843 E0.01623
G1 X229.170 Y39.790 E0.03004
G1 X229.061 Y40.296 E0.01623
G1 X228.808 Y41.220 E0.03004
G1 X228.642 Y41.710 E0.01623
G1 X228.279 Y42.611 E0.03044
G1 X227.843 Y43.492 E0.03085
G1 X227.346 Y44.327 E0.03044
G1 X227.057 Y44.756 E0.01623
G1 X226.476 Y45.518 E0.03004
G1 X226.139 Y45.911 E0.01623
G1 X225.466 Y46.610 E0.03044
G1 X224.741 Y47.256 E0.03044
G1 X224.335 Y47.578 E0.01623
G1 X223.552 Y48.129 E0.03004
G1 X223.112 Y48.402 E0.01623
G1 X222.259 Y48.866 E0.03044
G1 X221.361 Y49.268 E0.03085
G1 X220.435 Y49.601 E0.03085
G1 X219.499 Y49.858 E0.03044
G1 X219.005 Y49.964 E0.01583
M73 Q6 S4
G1 X218.508 Y50.050 E0.01583
G1 X217.544 Y50.162 E0.03044
G1 X216.560 Y50.199 E0.03085
G1 X215.577 Y50.162 E0.03085
G1 X214.613 Y50.050 E0.03044
G1 X214.116 Y49.964 E0.01583
G1 X213.622 Y49.858 E0.01583
G1 X212.698 Y49.604 E0.03004
M73 P6 R4
G1 X212.208 Y49.439 E0.01620
G1 X211.361 Y49.099 E0.02864
G1 X210.427 Y48.640 E0.03260
G1 X209.591 Y48.143 E0.03051
G1 X209.162 Y47.853 E0.01623
G1 X208.390 Y47.265 E0.03044
G1 X207.665 Y46.619 E0.03044
G1 X207.299 Y46.253 E0.01623
G1 X206.653 Y45.528 E0.03044
G1 X206.064 Y44.756 E0.03044
G1 X205.516 Y43.908 E0.03165
G1 X205.052 Y43.056 E0.03044
G1 X204.649 Y42.158 E0.03085
G1 X204.317 Y41.232 E0.03085
G1 X204.059 Y40.296 E0.03044
G1 X203.951 Y39.790 E0.01620
G1 X203.813 Y38.901 E0.02822
G1 X203.756 Y38.330 E0.01798
G1 X203.718 Y37.357 E0.03053
G1 X203.755 Y36.387 E0.03044
G1 X203.805 Y35.872 E0.01623
G1 X203.935 Y35.033 E0.02662
G1 X204.307 Y35.090 F10800.000
G1 F1200.000
G1 X204.426 Y34.508 E0.01863
G1 X204.677 Y33.596 E0.02965
G1 X204.999 Y32.698 E0.02994
G1 X205.390 Y31.826 E0.02994
G1 X205.842 Y30.996 E0.02965
G1 X206.098 Y30.582 E0.01526
G1 X206.370 Y30.179 E0.01524
G1 X206.908 Y29.471 E0.02787
G1 X207.572 Y28.722 E0.03139
G1 X207.924 Y28.370 E0.01560
G1 X208.630 Y27.741 E0.02965
G1 X209.389 Y27.162 E0.02994
G1 X210.191 Y26.643 E0.02994
G1 X211.021 Y26.191 E0.02965
G1 X211.910 Y25.793 E0.03052
G1 X212.800 Y25.473 E0.02965
G1 X213.711 Y25.223 E0.02965
G1 X214.196 Y25.119 E0.01555
G1 X215.122 Y24.976 E0.02936
G1 X215.615 Y24.929 E0.01553
G1 X216.503 Y24.893 E0.02787
G1 X217.513 Y24.929 E0.03168
G1 X218.454 Y25.037 E0.02970
G1 X218.934 Y25.121 E0.01526
G1 X219.410 Y25.223 E0.01526
G1 X220.321 Y25.473 E0.02965
G1 X221.220 Y25.796 E0.02994
G1 X222.091 Y26.187 E0.02994
M73 Q7 S4
G1 X222.922 Y26.638 E0.02965
G1 X223.344 Y26.900 E0.01555
G1 X224.109 Y27.439 E0.02936
G1 X224.498 Y27.747 E0.01555
G1 X225.204 Y28.376 E0.02965
G1 X225.860 Y29.057 E0.02965
G1 X226.183 Y29.434 E0.01555
M73 P7 R4
G1 X226.756 Y30.186 E0.02965
G1 X227.270 Y30.980 E0.02965
G1 X227.515 Y31.411 E0.01555
G1 X227.935 Y32.258 E0.02965
G1 X228.288 Y33.135 E0.02965
G1 X228.447 Y33.605 E0.01555
G1 X228.695 Y34.508 E0.02936
G1 X228.799 Y34.993 E0.01553
G1 X228.934 Y35.861 E0.02757
G1 X228.989 Y36.410 E0.01730
G1 X229.025 Y37.357 E0.02971
G1 X228.989 Y38.302 E0.02965
G1 X228.942 Y38.796 E0.01555
G1 X228.799 Y39.721 E0.02936
G1 X228.695 Y40.206 E0.01555
G1 X228.447 Y41.109 E0.02936
G1 X228.288 Y41.579 E0.01555
G1 X227.935 Y42.456 E0.02965
G1 X227.511 Y43.312 E0.02994
G1 X227.028 Y44.125 E0.02965
G1 X226.750 Y44.536 E0.01555
G1 X226.183 Y45.280 E0.02936
G1 X225.860 Y45.657 E0.01555
G1 X225.204 Y46.338 E0.02965
G1 X224.498 Y46.968 E0.02965
G1 X224.109 Y47.276 E0.01555
G1 X223.344 Y47.814 E0.02936
G1 X222.922 Y48.076 E0.01555
G1 X222.091 Y48.528 E0.02965
G1 X221.220 Y48.918 E0.02994
G1 X220.321 Y49.241 E0.02994
G1 X219.410 Y49.492 E0.02965
G1 X218.934 Y49.594 E0.01526
G1 X218.454 Y49.677 E0.01526
G1 X217.515 Y49.785 E0.02965
G1 X216.560 Y49.822 E0.02994
G1 X215.606 Y49.785 E0.02994
G1 X214.667 Y49.677 E0.02965
G1 X214.187 Y49.594 E0.01526
G1 X213.711 Y49.492 E0.01526
G1 X212.808 Y49.244 E0.02936
G1 X212.339 Y49.085 E0.01553
G1 X211.514 Y48.754 E0.02787
G1 X210.607 Y48.309 E0.03168
G1 X209.793 Y47.824 E0.02970
G1 X209.382 Y47.547 E0.01555
G1 X208.630 Y46.974 E0.02965
G1 X207.924 Y46.345 E0.02965
G1 X207.573 Y45.994 E0.01555
G1 X206.944 Y45.288 E0.02965
G1 X206.371 Y44.536 E0.02965
G1 X205.842 Y43.719 E0.03052
G1 X205.390 Y42.888 E0.02965
G1 X204.999 Y42.017 E0.02994
M73 Q8 S4
G1 X204.677 Y41.118 E0.02994
G1 X204.426 Y40.206 E0.02965
G1 X204.322 Y39.722 E0.01553
G1 X204.187 Y38.853 E0.02757
G1 X204.132 Y38.304 E0.01730
G1 X204.096 Y37.357 E0.02971
G1 X204.132 Y36.412 E0.02965
M73 P8 R4
G1 X204.179 Y35.919 E0.01555
G1 X204.298 Y35.150 E0.02440
G1 X204.671 Y35.207 F10800.000
G1 F1200.000
G1 X204.792 Y34.598 E0.01949
G1 X205.036 Y33.710 E0.02886
G1 X205.349 Y32.839 E0.02903
G1 X205.728 Y31.994 E0.02903
G1 X206.168 Y31.185 E0.02886
G1 X206.415 Y30.787 E0.01470
G1 X206.677 Y30.399 E0.01468
G1 X207.200 Y29.711 E0.02710
G1 X207.847 Y28.980 E0.03059
G1 X208.183 Y28.644 E0.01490
G1 X208.870 Y28.032 E0.02886
G1 X209.606 Y27.470 E0.02903
G1 X210.384 Y26.967 E0.02903
G1 X211.192 Y26.527 E0.02886
G1 X212.047 Y26.144 E0.02938
G1 X212.913 Y25.833 E0.02886
G1 X213.801 Y25.589 E0.02886
G1 X214.265 Y25.490 E0.01487
G1 X215.169 Y25.350 E0.02868
G1 X215.640 Y25.305 E0.01486
G1 X216.504 Y25.271 E0.02710
G1 X217.485 Y25.305 E0.03077
G1 X218.400 Y25.411 E0.02889
G1 X218.862 Y25.491 E0.01470
G1 X219.320 Y25.589 E0.01470
G1 X220.208 Y25.833 E0.02886
G1 X221.079 Y26.146 E0.02903
G1 X221.924 Y26.525 E0.02903
G1 X222.732 Y26.964 E0.02886
G1 X223.135 Y27.215 E0.01487
G1 X223.884 Y27.741 E0.02868
G1 X224.255 Y28.036 E0.01487
G1 X224.942 Y28.648 E0.02886
G1 X225.581 Y29.311 E0.02886
G1 X225.889 Y29.671 E0.01487
G1 X226.447 Y30.403 E0.02886
G1 X226.947 Y31.176 E0.02886
G1 X227.182 Y31.588 E0.01487
G1 X227.590 Y32.413 E0.02886
G1 X227.934 Y33.266 E0.02886
G1 X228.086 Y33.716 E0.01487
G1 X228.329 Y34.598 E0.02868
G1 X228.428 Y35.061 E0.01486
G1 X228.560 Y35.909 E0.02691
G1 X228.613 Y36.436 E0.01661
G1 X228.648 Y37.357 E0.02890
G1 X228.613 Y38.277 E0.02886
G1 X228.567 Y38.749 E0.01487
G1 X228.428 Y39.653 E0.02868
G1 X228.329 Y40.117 E0.01487
G1 X228.086 Y40.999 E0.02868
G1 X227.934 Y41.448 E0.01487
G1 X227.590 Y42.302 E0.02886
M73 Q9 S4
G1 X227.180 Y43.132 E0.02903
G1 X226.709 Y43.923 E0.02886
G1 X226.444 Y44.316 E0.01487
G1 X225.889 Y45.043 E0.02868
G1 X225.581 Y45.403 E0.01487
G1 X224.942 Y46.066 E0.02886
M73 P9 R4
G1 X224.255 Y46.679 E0.02886
G1 X223.884 Y46.974 E0.01487
G1 X223.135 Y47.500 E0.02868
G1 X222.732 Y47.750 E0.01487
G1 X221.924 Y48.190 E0.02886
G1 X221.079 Y48.568 E0.02903
G1 X220.208 Y48.881 E0.02903
G1 X219.320 Y49.125 E0.02886
G1 X218.862 Y49.223 E0.01470
G1 X218.400 Y49.304 E0.01470
G1 X217.486 Y49.409 E0.02886
G1 X216.560 Y49.445 E0.02903
G1 X215.635 Y49.409 E0.02903
G1 X214.721 Y49.304 E0.02886
G1 X214.259 Y49.223 E0.01470
G1 X213.801 Y49.125 E0.01470
G1 X212.919 Y48.883 E0.02868
G1 X212.470 Y48.731 E0.01486
G1 X211.668 Y48.409 E0.02710
G1 X210.787 Y47.977 E0.03077
G1 X209.995 Y47.506 E0.02889
G1 X209.602 Y47.240 E0.01487
G1 X208.870 Y46.683 E0.02886
G1 X208.183 Y46.070 E0.02886
G1 X207.847 Y45.735 E0.01487
G1 X207.235 Y45.048 E0.02886
G1 X206.677 Y44.316 E0.02886
G1 X206.168 Y43.529 E0.02939
G1 X205.728 Y42.721 E0.02886
G1 X205.349 Y41.876 E0.02903
G1 X205.036 Y41.004 E0.02903
G1 X204.792 Y40.117 E0.02886
G1 X204.693 Y39.653 E0.01486
G1 X204.561 Y38.805 E0.02691
G1 X204.508 Y38.278 E0.01661
G1 X204.473 Y37.357 E0.02890
G1 X204.508 Y36.438 E0.02886
G1 X204.554 Y35.965 E0.01487
G1 X204.662 Y35.266 E0.02217
G1 X205.034 Y35.324 F10800.000
;TYPE:External perimeter
G1 F1200.000
G1 X205.159 Y34.687 E0.02035
G1 X205.396 Y33.824 E0.02806
G1 X205.699 Y32.980 E0.02813
G1 X206.066 Y32.161 E0.02813
G1 X206.494 Y31.375 E0.02806
G1 X206.731 Y30.992 E0.01413
G1 X206.984 Y30.619 E0.01412
G1 X207.492 Y29.950 E0.02633
G1 X208.121 Y29.239 E0.02979
G1 X208.442 Y28.918 E0.01420
G1 X209.110 Y28.323 E0.02806
G1 X209.823 Y27.779 E0.02813
G1 X210.576 Y27.291 E0.02813
G1 X211.363 Y26.864 E0.02806
G1 X212.185 Y26.495 E0.02825
G1 X213.027 Y26.193 E0.02806
M73 Q10 S4
G1 X213.890 Y25.956 E0.02806
G1 X214.333 Y25.861 E0.01419
G1 X215.216 Y25.725 E0.02800
G1 X215.666 Y25.681 E0.01419
G1 X216.505 Y25.648 E0.02633
G1 X217.457 Y25.681 E0.02985
M73 P10 R4
G1 X218.346 Y25.784 E0.02807
G1 X218.790 Y25.861 E0.01413
G1 X219.231 Y25.956 E0.01413
G1 X220.094 Y26.193 E0.02806
G1 X220.938 Y26.496 E0.02813
G1 X221.757 Y26.863 E0.02813
G1 X222.543 Y27.291 E0.02806
G1 X222.927 Y27.529 E0.01419
G1 X223.658 Y28.043 E0.02800
G1 X224.012 Y28.324 E0.01419
G1 X224.681 Y28.920 E0.02806
G1 X225.301 Y29.565 E0.02806
G1 X225.596 Y29.908 E0.01419
G1 X226.139 Y30.620 E0.02806
G1 X226.625 Y31.371 E0.02806
G1 X226.849 Y31.765 E0.01419
G1 X227.246 Y32.567 E0.02806
G1 X227.581 Y33.397 E0.02806
G1 X227.725 Y33.826 E0.01419
G1 X227.962 Y34.687 E0.02800
G1 X228.057 Y35.130 E0.01419
G1 X228.186 Y35.957 E0.02626
G1 X228.236 Y36.462 E0.01592
G1 X228.271 Y37.357 E0.02808
G1 X228.236 Y38.252 E0.02806
G1 X228.193 Y38.702 E0.01419
G1 X228.057 Y39.585 E0.02800
G1 X227.962 Y40.027 E0.01419
G1 X227.725 Y40.888 E0.02800
G1 X227.581 Y41.317 E0.01419
G1 X227.246 Y42.147 E0.02806
G1 X226.848 Y42.951 E0.02813
G1 X226.391 Y43.721 E0.02806
G1 X226.137 Y44.096 E0.01419
G1 X225.596 Y44.806 E0.02800
G1 X225.301 Y45.150 E0.01419
G1 X224.681 Y45.795 E0.02806
G1 X224.012 Y46.390 E0.02806
G1 X223.658 Y46.671 E0.01419
G1 X222.927 Y47.185 E0.02800
G1 X222.543 Y47.424 E0.01419
G1 X221.757 Y47.851 E0.02806
G1 X220.938 Y48.218 E0.02813
G1 X220.094 Y48.522 E0.02813
G1 X219.231 Y48.759 E0.02806
G1 X218.790 Y48.853 E0.01413
G1 X218.346 Y48.930 E0.01413
G1 X217.457 Y49.033 E0.02806
G1 X216.560 Y49.067 E0.02813
G1 X215.664 Y49.033 E0.02813
G1 X214.775 Y48.930 E0.02806
G1 X214.331 Y48.853 E0.01413
G1 X213.890 Y48.759 E0.01413
G1 X213.029 Y48.522 E0.02800
G1 X212.601 Y48.377 E0.01419
G1 X211.821 Y48.064 E0.02633
G1 X210.967 Y47.645 E0.02985
G1 X210.197 Y47.187 E0.02807
G1 X209.822 Y46.934 E0.01419
G1 X209.110 Y46.391 E0.02806
M73 Q11 S4
G1 X208.442 Y45.796 E0.02806
G1 X208.122 Y45.476 E0.01419
