; generated by PrusaSlicer 2.3.1+win64 on 2023-05-09 at 16:18:52 UTC

; 

; external perimeters extrusion width = 0.60mm
; perimeters extrusion width = 0.50mm
; infill extrusion width = 0.50mm
; solid infill extrusion width = 0.50mm
; top infill extrusion width = 0.45mm
; first layer extrusion width = 0.42mm

M73 P0 R10
M73 Q0 S10
M201 X1000 Y1000 Z200 E5000 ; sets maximum accelerations, mm/sec^2
M203 X200 Y200 Z12 E120 ; sets maximum feedrates, mm/sec
M204 P1250 R1250 T1250 ; sets acceleration (P, T) and retract acceleration (R), mm/sec^2
M205 X8.00 Y8.00 Z0.40 E4.50 ; sets the jerk limits, mm/sec
M205 S0 T0 ; sets the minimum extruding and travel feed rate, mm/sec
M107
;TYPE:Custom
M862.3 P "MK3S" ; printer model check
M862.1 P0.4 ; nozzle diameter check
M115 U3.9.3 ; tell printer latest fw version
G90 ; use absolute coordinates
M83 ; extruder relative mode
M104 S205 ; set extruder temp
M140 S67 ; set bed temp
M190 S67 ; wait for bed temp
M109 S205 ; wait for extruder temp
G28 W ; home all without mesh bed level
G80 ; mesh bed leveling
G1 Y-3.0 F1000.0 ; go outside print area
G92 E0.0
G1 X60.0 E9.0 F1000.0 ; intro line
G1 X100.0 E12.5 F1000.0 ; intro line
G92 E0.0
M221 S95

; Don't change E values below. Excessive value can damage the printer.

M907 E538 ; set extruder motor current
G21 ; set units to millimeters
G90 ; use absolute coordinates
M83 ; use relative distances for extrusion
M900 K0.05 ; Filament gcode LA 1.5
M900 K30 ; Filament gcode LA 1.0
;LAYER_CHANGE
;Z:0.2
;HEIGHT:0.2
;BEFORE_LAYER_CHANGE
G92 E0.0
;0.2


M73 P1 R10
G1 E-0.80000 F2100.000
M73 Q1 S10
G1 Z0.400 F10800.000
;AFTER_LAYER_CHANGE
;0.2
; printing object washer.stl id:7 copy 0
G1 X207.582 Y136.823
G1 Z0.200
G1 E0.80000 F2100.000
M204 S1000
;TYPE:Perimeter
;WIDTH:0.42
G1 F1200.000
G1 X207.874 Y136.391 E0.01636
G1 X208.442 Y135.644 E0.02942
G1 X209.140 Y134.856 E0.03299
G1 X209.523 Y134.473 E0.01700
G1 X210.267 Y133.810 E0.03124
G1 X211.072 Y133.196 E0.03175
G1 X211.922 Y132.645 E0.03175
G1 X212.797 Y132.169 E0.03124
G1 X213.751 Y131.742 E0.03278
G1 X214.689 Y131.405 E0.03124
G1 X215.650 Y131.141 E0.03124
G1 X216.177 Y131.028 E0.01691
G1 X217.145 Y130.879 E0.03072
G1 X217.681 Y130.827 E0.01688
G1 X218.618 Y130.790 E0.02942
G1 X219.687 Y130.827 E0.03351
G1 X220.679 Y130.942 E0.03133
G1 X221.194 Y131.032 E0.01639
G1 X221.706 Y131.141 E0.01639
G1 X222.666 Y131.405 E0.03124
G1 X223.619 Y131.747 E0.03175
G1 X224.543 Y132.162 E0.03175
G1 X225.419 Y132.637 E0.03124
G1 X225.877 Y132.922 E0.01691
G1 X226.678 Y133.486 E0.03072
G1 X227.101 Y133.821 E0.01691
G1 X227.844 Y134.484 E0.03124
G1 X228.535 Y135.201 E0.03124
G1 X228.886 Y135.611 E0.01691
G1 X229.490 Y136.403 E0.03124
G1 X230.032 Y137.239 E0.03124
G1 X230.298 Y137.708 E0.01691
G1 X230.740 Y138.601 E0.03124
G1 X231.113 Y139.525 E0.03124
G1 X231.285 Y140.036 E0.01691
G1 X231.545 Y140.980 E0.03072
G1 X231.658 Y141.507 E0.01688
G1 X231.799 Y142.417 E0.02888
G1 X231.859 Y143.009 E0.01867
G1 X231.897 Y144.009 E0.03135
G1 X231.859 Y145.004 E0.03124
G1 X231.807 Y145.541 E0.01691
G1 X231.658 Y146.509 E0.03072
G1 X231.545 Y147.037 E0.01691
G1 X231.285 Y147.981 E0.03072
G1 X231.113 Y148.492 E0.01691
G1 X230.740 Y149.416 E0.03124
G1 X230.291 Y150.324 E0.03175
G1 X229.782 Y151.180 E0.03124
G1 X229.480 Y151.627 E0.01691
G1 X228.886 Y152.406 E0.03072
G1 X228.535 Y152.816 E0.01691
G1 X227.844 Y153.533 E0.03124
G1 X227.101 Y154.196 E0.03124
G1 X226.678 Y154.531 E0.01691
G1 X225.877 Y155.095 E0.03072
G1 X225.419 Y155.380 E0.01691
G1 X224.543 Y155.855 E0.03124
G1 X223.619 Y156.270 E0.03175
G1 X222.666 Y156.612 E0.03175
G1 X221.706 Y156.876 E0.03124
G1 X220.679 Y157.075 E0.03278
G1 X219.690 Y157.189 E0.03124
G1 X218.678 Y157.228 E0.03175
G1 X217.666 Y157.189 E0.03175
G1 X216.676 Y157.075 E0.03124
G1 X215.650 Y156.876 E0.03278
G1 X214.705 Y156.616 E0.03072
G1 X214.195 Y156.444 E0.01688
G1 X213.324 Y156.095 E0.02942
G1 X212.365 Y155.624 E0.03351
G1 X211.506 Y155.113 E0.03133
G1 X211.059 Y154.811 E0.01691
G1 X210.267 Y154.207 E0.03124
G1 X209.523 Y153.544 E0.03124
G1 X209.142 Y153.163 E0.01691
G1 X208.479 Y152.419 E0.03124
G1 X207.875 Y151.627 E0.03124
G1 X207.307 Y150.749 E0.03278
G1 X206.831 Y149.874 E0.03124
G1 X206.416 Y148.950 E0.03175
G1 X206.074 Y147.997 E0.03175
G1 X205.810 Y147.037 E0.03124
G1 X205.697 Y146.510 E0.01688
G1 X205.556 Y145.600 E0.02888
G1 X205.496 Y145.008 E0.01867
G1 X205.458 Y144.009 E0.03135
G1 X205.496 Y143.013 E0.03124
G1 X205.548 Y142.476 E0.01691
G1 X205.697 Y141.508 E0.03072
G1 X205.810 Y140.981 E0.01691
G1 X206.074 Y140.020 E0.03124
G1 X206.416 Y139.067 E0.03175
G1 X206.831 Y138.143 E0.03175
G1 X207.307 Y137.268 E0.03124
G1 X207.551 Y136.874 E0.01451
G1 X207.871 Y137.073 F10800.000
G1 F1200.000
G1 X208.181 Y136.611 E0.01745
G1 X208.734 Y135.883 E0.02865
G1 X209.414 Y135.115 E0.03219
G1 X209.782 Y134.747 E0.01630
G1 X210.507 Y134.101 E0.03044
G1 X211.289 Y133.504 E0.03085
G1 X212.115 Y132.970 E0.03085
M73 Q2 S10
G1 X212.968 Y132.506 E0.03044
G1 X213.425 Y132.291 E0.01583
G1 X213.889 Y132.093 E0.01583
G1 X214.803 Y131.765 E0.03044
G1 X215.739 Y131.508 E0.03044
G1 X216.245 Y131.399 E0.01623
G1 X217.192 Y131.253 E0.03004
G1 X217.706 Y131.204 E0.01620
G1 X218.619 Y131.167 E0.02865
G1 X219.658 Y131.204 E0.03260
M73 P2 R10
G1 X220.625 Y131.315 E0.03051
G1 X221.122 Y131.402 E0.01583
G1 X221.616 Y131.508 E0.01583
G1 X222.552 Y131.765 E0.03044
G1 X223.478 Y132.097 E0.03085
G1 X224.376 Y132.500 E0.03085
G1 X225.229 Y132.964 E0.03044
G1 X225.669 Y133.237 E0.01623
G1 X226.452 Y133.788 E0.03004
G1 X226.858 Y134.109 E0.01623
G1 X227.583 Y134.755 E0.03044
G1 X228.256 Y135.455 E0.03044
G1 X228.593 Y135.848 E0.01623
G1 X229.182 Y136.620 E0.03044
G1 X229.709 Y137.435 E0.03044
G1 X229.965 Y137.885 E0.01623
G1 X230.396 Y138.755 E0.03044
G1 X230.759 Y139.656 E0.03044
G1 X230.925 Y140.146 E0.01623
G1 X231.179 Y141.070 E0.03004
G1 X231.287 Y141.575 E0.01620
G1 X231.425 Y142.465 E0.02822
G1 X231.482 Y143.035 E0.01798
G1 X231.520 Y144.009 E0.03053
G1 X231.483 Y144.979 E0.03044
G1 X231.433 Y145.494 E0.01623
G1 X231.287 Y146.441 E0.03004
G1 X231.179 Y146.947 E0.01623
G1 X230.925 Y147.871 E0.03004
G1 X230.759 Y148.361 E0.01623
G1 X230.396 Y149.262 E0.03044
G1 X229.960 Y150.143 E0.03085
G1 X229.463 Y150.978 E0.03044
G1 X229.174 Y151.407 E0.01623
G1 X228.593 Y152.169 E0.03004
G1 X228.256 Y152.562 E0.01623
G1 X227.583 Y153.262 E0.03044
G1 X226.858 Y153.908 E0.03044
G1 X226.452 Y154.229 E0.01623
G1 X225.669 Y154.780 E0.03004
G1 X225.229 Y155.053 E0.01623
G1 X224.376 Y155.517 E0.03044
G1 X223.478 Y155.920 E0.03085
G1 X222.552 Y156.252 E0.03085
G1 X221.616 Y156.510 E0.03044
G1 X220.625 Y156.702 E0.03165
G1 X219.661 Y156.813 E0.03044
G1 X218.678 Y156.851 E0.03085
G1 X217.694 Y156.813 E0.03085
G1 X216.730 Y156.702 E0.03044
G1 X215.739 Y156.510 E0.03165
G1 X214.815 Y156.256 E0.03004
G1 X214.326 Y156.090 E0.01620
G1 X213.478 Y155.750 E0.02864
G1 X212.545 Y155.292 E0.03260
G1 X211.708 Y154.794 E0.03051
G1 X211.279 Y154.505 E0.01623
G1 X210.507 Y153.916 E0.03044
G1 X209.782 Y153.270 E0.03044
G1 X209.416 Y152.904 E0.01623
G1 X208.770 Y152.179 E0.03044
G1 X208.181 Y151.407 E0.03044
G1 X207.633 Y150.560 E0.03165
G1 X207.169 Y149.707 E0.03044
G1 X206.766 Y148.809 E0.03085
G1 X206.434 Y147.883 E0.03085
G1 X206.177 Y146.947 E0.03044
G1 X206.068 Y146.442 E0.01620
G1 X205.930 Y145.552 E0.02822
G1 X205.873 Y144.982 E0.01798
G1 X205.835 Y144.009 E0.03053
G1 X205.873 Y143.038 E0.03044
G1 X205.922 Y142.523 E0.01623
G1 X206.068 Y141.576 E0.03004
G1 X206.177 Y141.070 E0.01623
G1 X206.434 Y140.134 E0.03044
G1 X206.766 Y139.208 E0.03085
G1 X207.169 Y138.310 E0.03085
G1 X207.633 Y137.457 E0.03044
G1 X207.839 Y137.124 E0.01229
G1 X208.160 Y137.323 F10800.000
G1 F1200.000
G1 X208.487 Y136.830 E0.01855
G1 X209.025 Y136.123 E0.02787
G1 X209.689 Y135.373 E0.03139
G1 X210.041 Y135.021 E0.01560
G1 X210.747 Y134.392 E0.02965
G1 X211.506 Y133.813 E0.02994
G1 X212.308 Y133.294 E0.02994
G1 X213.139 Y132.842 E0.02965
G1 X213.579 Y132.635 E0.01526
G1 X214.027 Y132.444 E0.01526
G1 X214.917 Y132.125 E0.02965
G1 X215.828 Y131.874 E0.02965
G1 X216.313 Y131.770 E0.01555
G1 X217.239 Y131.627 E0.02936
G1 X217.732 Y131.580 E0.01553
G1 X218.620 Y131.545 E0.02787
G1 X219.630 Y131.580 E0.03168
G1 X220.571 Y131.689 E0.02970
G1 X221.051 Y131.772 E0.01526
G1 X221.527 Y131.874 E0.01526
G1 X222.438 Y132.125 E0.02965
G1 X223.337 Y132.447 E0.02994
G1 X224.208 Y132.838 E0.02994
G1 X225.039 Y133.290 E0.02965
G1 X225.461 Y133.551 E0.01555
G1 X226.227 Y134.090 E0.02936
G1 X226.615 Y134.398 E0.01555
G1 X227.321 Y135.027 E0.02965
G1 X227.977 Y135.709 E0.02965
G1 X228.300 Y136.085 E0.01555
G1 X228.873 Y136.837 E0.02965
G1 X229.387 Y137.631 E0.02965
G1 X229.632 Y138.062 E0.01555
G1 X230.052 Y138.910 E0.02965
G1 X230.405 Y139.787 E0.02965
G1 X230.564 Y140.257 E0.01555
G1 X230.812 Y141.159 E0.02936
G1 X230.916 Y141.644 E0.01553
G1 X231.051 Y142.513 E0.02757
G1 X231.106 Y143.062 E0.01730
G1 X231.142 Y144.009 E0.02971
G1 X231.106 Y144.953 E0.02965
G1 X231.059 Y145.447 E0.01555
G1 X230.916 Y146.373 E0.02936
G1 X230.812 Y146.858 E0.01555
G1 X230.564 Y147.761 E0.02936
G1 X230.405 Y148.230 E0.01555
G1 X230.052 Y149.107 E0.02965
G1 X229.628 Y149.963 E0.02994
G1 X229.145 Y150.776 E0.02965
G1 X228.867 Y151.187 E0.01555
G1 X228.300 Y151.932 E0.02936
G1 X227.977 Y152.308 E0.01555
G1 X227.321 Y152.990 E0.02965
G1 X226.615 Y153.619 E0.02965
G1 X226.227 Y153.927 E0.01555
G1 X225.461 Y154.466 E0.02936
G1 X225.039 Y154.727 E0.01555
G1 X224.208 Y155.179 E0.02965
G1 X223.337 Y155.570 E0.02994
G1 X222.438 Y155.892 E0.02994
G1 X221.527 Y156.143 E0.02965
M73 Q3 S10
G1 X220.571 Y156.328 E0.03052
G1 X219.632 Y156.437 E0.02965
G1 X218.678 Y156.473 E0.02994
G1 X217.723 Y156.437 E0.02994
G1 X216.784 Y156.328 E0.02965
G1 X215.828 Y156.143 E0.03052
G1 X214.926 Y155.895 E0.02936
G1 X214.456 Y155.736 E0.01553
M73 P3 R10
G1 X213.631 Y155.405 E0.02787
G1 X212.724 Y154.960 E0.03168
G1 X211.910 Y154.476 E0.02970
G1 X211.499 Y154.198 E0.01555
G1 X210.747 Y153.625 E0.02965
G1 X210.041 Y152.996 E0.02965
G1 X209.690 Y152.645 E0.01555
G1 X209.061 Y151.939 E0.02965
G1 X208.488 Y151.187 E0.02965
G1 X207.959 Y150.370 E0.03052
G1 X207.507 Y149.539 E0.02965
G1 X207.116 Y148.668 E0.02994
G1 X206.794 Y147.769 E0.02994
G1 X206.543 Y146.858 E0.02965
G1 X206.439 Y146.373 E0.01553
G1 X206.304 Y145.504 E0.02757
G1 X206.249 Y144.955 E0.01730
G1 X206.213 Y144.009 E0.02971
G1 X206.249 Y143.064 E0.02965
G1 X206.296 Y142.570 E0.01555
G1 X206.439 Y141.644 E0.02936
G1 X206.543 Y141.159 E0.01555
G1 X206.794 Y140.248 E0.02965
G1 X207.116 Y139.349 E0.02994
G1 X207.507 Y138.478 E0.02994
G1 X207.959 Y137.647 E0.02965
G1 X208.128 Y137.374 E0.01007
G1 X208.448 Y137.573 F10800.000
G1 F1200.000
G1 X208.794 Y137.050 E0.01965
G1 X209.317 Y136.362 E0.02710
G1 X209.964 Y135.632 E0.03059
G1 X210.300 Y135.295 E0.01490
G1 X210.987 Y134.683 E0.02886
G1 X211.723 Y134.122 E0.02903
G1 X212.501 Y133.618 E0.02903
G1 X213.309 Y133.179 E0.02886
G1 X213.733 Y132.979 E0.01470
G1 X214.164 Y132.795 E0.01470
G1 X215.031 Y132.484 E0.02886
G1 X215.918 Y132.240 E0.02886
G1 X216.382 Y132.141 E0.01487
G1 X217.286 Y132.002 E0.02868
G1 X217.758 Y131.956 E0.01486
G1 X218.621 Y131.922 E0.02710
G1 X219.602 Y131.956 E0.03077
G1 X220.517 Y132.062 E0.02889
G1 X220.979 Y132.142 E0.01470
G1 X221.437 Y132.240 E0.01470
G1 X222.325 Y132.484 E0.02886
G1 X223.196 Y132.797 E0.02903
G1 X224.041 Y133.176 E0.02903
G1 X224.850 Y133.616 E0.02886
G1 X225.253 Y133.866 E0.01487
G1 X226.001 Y134.392 E0.02868
G1 X226.372 Y134.687 E0.01487
G1 X227.059 Y135.299 E0.02886
G1 X227.698 Y135.962 E0.02886
G1 X228.006 Y136.322 E0.01487
G1 X228.564 Y137.054 E0.02886
G1 X229.065 Y137.827 E0.02886
G1 X229.299 Y138.239 E0.01487
G1 X229.707 Y139.064 E0.02886
G1 X230.051 Y139.918 E0.02886
G1 X230.203 Y140.367 E0.01487
G1 X230.446 Y141.249 E0.02868
G1 X230.545 Y141.712 E0.01486
G1 X230.677 Y142.561 E0.02691
G1 X230.730 Y143.088 E0.01661
G1 X230.765 Y144.009 E0.02890
G1 X230.730 Y144.928 E0.02886
G1 X230.684 Y145.400 E0.01487
G1 X230.545 Y146.304 E0.02868
G1 X230.446 Y146.768 E0.01487
G1 X230.203 Y147.650 E0.02868
G1 X230.051 Y148.100 E0.01487
G1 X229.707 Y148.953 E0.02886
G1 X229.297 Y149.783 E0.02903
G1 X228.826 Y150.574 E0.02886
G1 X228.561 Y150.967 E0.01487
G1 X228.006 Y151.695 E0.02868
G1 X227.698 Y152.055 E0.01487
G1 X227.059 Y152.718 E0.02886
G1 X226.372 Y153.330 E0.02886
G1 X226.001 Y153.625 E0.01487
G1 X225.253 Y154.151 E0.02868
G1 X224.850 Y154.401 E0.01487
G1 X224.041 Y154.841 E0.02886
G1 X223.196 Y155.220 E0.02903
G1 X222.325 Y155.533 E0.02903
G1 X221.437 Y155.777 E0.02886
G1 X220.517 Y155.955 E0.02938
G1 X219.603 Y156.061 E0.02886
G1 X218.678 Y156.096 E0.02903
G1 X217.752 Y156.061 E0.02903
G1 X216.838 Y155.955 E0.02886
G1 X215.918 Y155.777 E0.02938
G1 X215.036 Y155.534 E0.02868
G1 X214.587 Y155.383 E0.01486
G1 X213.785 Y155.061 E0.02710
G1 X212.904 Y154.628 E0.03077
G1 X212.112 Y154.157 E0.02889
G1 X211.719 Y153.892 E0.01487
G1 X210.987 Y153.334 E0.02886
G1 X210.300 Y152.722 E0.02886
G1 X209.964 Y152.386 E0.01487
G1 X209.352 Y151.699 E0.02886
G1 X208.794 Y150.967 E0.02886
G1 X208.285 Y150.181 E0.02939
G1 X207.845 Y149.372 E0.02886
G1 X207.466 Y148.527 E0.02903
G1 X207.153 Y147.656 E0.02903
G1 X206.909 Y146.768 E0.02886
G1 X206.810 Y146.305 E0.01486
G1 X206.678 Y145.457 E0.02691
G1 X206.625 Y144.929 E0.01661
G1 X206.590 Y144.009 E0.02890
G1 X206.625 Y143.089 E0.02886
G1 X206.671 Y142.617 E0.01487
G1 X206.810 Y141.713 E0.02868
G1 X206.909 Y141.249 E0.01487
G1 X207.153 Y140.361 E0.02886
G1 X207.466 Y139.490 E0.02903
G1 X207.845 Y138.645 E0.02903
G1 X208.417 Y137.624 E0.03670
G1 X208.737 Y137.823 F10800.000
;TYPE:External perimeter
G1 F1200.000
G1 X209.101 Y137.270 E0.02074
G1 X209.609 Y136.602 E0.02633
G1 X210.239 Y135.890 E0.02979
G1 X210.559 Y135.570 E0.01420
G1 X211.227 Y134.974 E0.02806
G1 X211.940 Y134.430 E0.02813
G1 X212.693 Y133.943 E0.02813
G1 X213.480 Y133.515 E0.02806
G1 X213.887 Y133.323 E0.01413
G1 X214.302 Y133.147 E0.01413
G1 X215.144 Y132.844 E0.02806
G1 X216.007 Y132.607 E0.02806
G1 X216.450 Y132.512 E0.01419
G1 X217.333 Y132.376 E0.02800
G1 X217.783 Y132.333 E0.01419
G1 X218.622 Y132.299 E0.02633
G1 X219.574 Y132.333 E0.02985
G1 X220.463 Y132.435 E0.02807
G1 X220.907 Y132.513 E0.01413
G1 X221.348 Y132.607 E0.01413
G1 X222.211 Y132.844 E0.02806
G1 X223.055 Y133.147 E0.02813
G1 X223.874 Y133.514 E0.02813
M73 Q4 S10
G1 X224.660 Y133.942 E0.02806
G1 X225.044 Y134.181 E0.01419
G1 X225.775 Y134.694 E0.02800
G1 X226.130 Y134.976 E0.01419
G1 X226.798 Y135.571 E0.02806
G1 X227.418 Y136.216 E0.02806
G1 X227.713 Y136.560 E0.01419
G1 X228.256 Y137.271 E0.02806
G1 X228.742 Y138.023 E0.02806
M73 P4 R10
G1 X228.966 Y138.416 E0.01419
G1 X229.363 Y139.218 E0.02806
G1 X229.698 Y140.048 E0.02806
G1 X229.843 Y140.477 E0.01419
G1 X230.079 Y141.338 E0.02800
G1 X230.174 Y141.781 E0.01419
G1 X230.303 Y142.608 E0.02626
G1 X230.353 Y143.114 E0.01592
G1 X230.388 Y144.009 E0.02808
G1 X230.353 Y144.903 E0.02806
G1 X230.310 Y145.353 E0.01419
G1 X230.174 Y146.236 E0.02800
G1 X230.079 Y146.679 E0.01419
G1 X229.843 Y147.540 E0.02800
G1 X229.698 Y147.969 E0.01419
G1 X229.363 Y148.799 E0.02806
G1 X228.965 Y149.603 E0.02813
G1 X228.508 Y150.372 E0.02806
G1 X228.254 Y150.747 E0.01419
G1 X227.713 Y151.457 E0.02800
G1 X227.418 Y151.801 E0.01419
G1 X226.798 Y152.446 E0.02806
G1 X226.130 Y153.041 E0.02806
G1 X225.775 Y153.323 E0.01419
G1 X225.044 Y153.836 E0.02800
G1 X224.660 Y154.075 E0.01419
G1 X223.874 Y154.503 E0.02806
G1 X223.055 Y154.870 E0.02813
G1 X222.211 Y155.173 E0.02813
G1 X221.348 Y155.410 E0.02806
G1 X220.463 Y155.582 E0.02825
G1 X219.574 Y155.684 E0.02806
G1 X218.678 Y155.719 E0.02813
G1 X217.781 Y155.684 E0.02813
G1 X216.892 Y155.582 E0.02806
G1 X216.007 Y155.410 E0.02825
G1 X215.146 Y155.173 E0.02800
G1 X214.718 Y155.029 E0.01419
G1 X213.938 Y154.716 E0.02633
G1 X213.084 Y154.296 E0.02985
G1 X212.314 Y153.839 E0.02807
G1 X211.939 Y153.585 E0.01419
G1 X211.227 Y153.043 E0.02806
G1 X210.559 Y152.447 E0.02806
G1 X210.239 Y152.127 E0.01419
G1 X209.643 Y151.459 E0.02806
