; generated by PrusaSlicer 2.3.1+win64 on 2023-03-28 at 15:46:22 UTC

; 

; external perimeters extrusion width = 0.60mm
; perimeters extrusion width = 0.50mm
; infill extrusion width = 0.50mm
; solid infill extrusion width = 0.50mm
; top infill extrusion width = 0.45mm
; first layer extrusion width = 0.42mm

M73 P0 R5
M73 Q0 S5
M201 X1000 Y1000 Z200 E5000 ; sets maximum accelerations, mm/sec^2
M203 X200 Y200 Z12 E120 ; sets maximum feedrates, mm/sec
M204 P1250 R1250 T1250 ; sets acceleration (P, T) and retract acceleration (R), mm/sec^2
M205 X8.00 Y8.00 Z0.40 E4.50 ; sets the jerk limits, mm/sec
M205 S0 T0 ; sets the minimum extruding and travel feed rate, mm/sec
M107
;TYPE:Custom
M862.3 P "MK3S" ; printer model check
M862.1 P0.4 ; nozzle diameter check
M115 U3.9.3 ; tell printer latest fw version
G90 ; use absolute coordinates
M83 ; extruder relative mode
M104 S205 ; set extruder temp
M140 S67 ; set bed temp
M190 S67 ; wait for bed temp
M109 S205 ; wait for extruder temp
G28 W ; home all without mesh bed level
G80 ; mesh bed leveling
G1 Y-3.0 F1000.0 ; go outside print area
G92 E0.0
G1 X60.0 E9.0 F1000.0 ; intro line
M73 P1 R5
M73 Q1 S5
G1 X100.0 E12.5 F1000.0 ; intro line
G92 E0.0
M221 S95

; Don't change E values below. Excessive value can damage the printer.

M907 E538 ; set extruder motor current
G21 ; set units to millimeters
G90 ; use absolute coordinates
M83 ; use relative distances for extrusion
M900 K0.05 ; Filament gcode LA 1.5
M900 K30 ; Filament gcode LA 1.0
;LAYER_CHANGE
;Z:0.2
;HEIGHT:0.2
;BEFORE_LAYER_CHANGE
G92 E0.0
;0.2


G1 E-0.80000 F2100.000
M73 P2 R5
M73 Q2 S5
G1 Z0.400 F10800.000
;AFTER_LAYER_CHANGE
;0.2
G1 X184.247 Y37.653
G1 Z0.200
G1 E0.80000 F2100.000
M204 S1000
;TYPE:Skirt
;WIDTH:0.42
G1 F1200.000
G1 X184.521 Y37.379 E0.01215
G1 X184.590 Y37.350 E0.00235
G1 X197.477 Y37.350 E0.40408
G1 X197.547 Y37.379 E0.00235
G1 X197.821 Y37.653 E0.01215
G1 X197.849 Y37.722 E0.00235
G1 X197.849 Y50.610 E0.40408
G1 X197.821 Y50.679 E0.00235
G1 X197.547 Y50.953 E0.01215
G1 X197.477 Y50.982 E0.00235
G1 X184.590 Y50.982 E0.40408
M73 Q3 S5
G1 X184.521 Y50.953 E0.00235
G1 X184.247 Y50.679 E0.01215
G1 X184.218 Y50.610 E0.00235
G1 X184.224 Y37.708 E0.40451
M73 P3 R5
G1 X184.595 Y37.838 F10800.000
G1 F1200.000
G1 X184.706 Y37.727 E0.00490
G1 X197.362 Y37.727 E0.39683
G1 X197.472 Y37.838 E0.00490
G1 X197.472 Y50.494 E0.39683
G1 X197.362 Y50.605 E0.00490
G1 X184.706 Y50.605 E0.39683
G1 X184.595 Y50.494 E0.00490
G1 X184.595 Y37.898 E0.39494
; printing object wire_tie1.stl id:0 copy 0
M73 Q4 S5
G1 X185.194 Y38.326 F10800.000
;TYPE:External perimeter
G1 F1200.000
G1 X196.874 Y38.326 E0.36622
M73 P4 R5
G1 X196.874 Y50.006 E0.36622
G1 X190.281 Y50.008 E0.20670
G1 X189.771 Y50.020 E0.01599
G1 X189.254 Y50.068 E0.01628
G1 X188.755 Y50.163 E0.01594
G1 X188.274 Y50.206 E0.01512
G1 X187.293 Y50.206 E0.03077
G1 X186.813 Y50.163 E0.01512
G1 X186.313 Y50.068 E0.01594
G1 X185.795 Y50.020 E0.01631
G1 X185.194 Y50.010 E0.01886
G1 X185.194 Y38.386 E0.36446
G1 X185.543 Y38.520 F10800.000
G1 X185.571 Y38.703
;TYPE:Perimeter
G1 F1200.000
G1 X196.497 Y38.703 E0.34257
M73 Q5 S5
G1 X196.497 Y49.629 E0.34258
M73 P5 R5
G1 X190.277 Y49.631 E0.19503
G1 X189.749 Y49.643 E0.01654
G1 X189.447 Y49.672 E0.00951
G1 X189.597 Y49.493 E0.00730
G1 X189.818 Y49.065 E0.01510
G1 X189.914 Y48.598 E0.01495
G1 X189.917 Y48.269 E0.01032
G1 X189.868 Y47.934 E0.01063
G1 X189.725 Y47.514 E0.01392
G1 X189.487 Y47.122 E0.01437
G1 X189.254 Y46.862 E0.01093
G1 X188.903 Y46.591 E0.01390
G1 X188.489 Y46.396 E0.01437
G1 X188.151 Y46.308 E0.01093
G1 X187.707 Y46.277 E0.01396
G1 X187.253 Y46.343 E0.01437
G1 X186.925 Y46.456 E0.01088
G1 X186.539 Y46.675 E0.01392
G1 X186.198 Y46.979 E0.01433
G1 X185.994 Y47.244 E0.01048
G1 X185.789 Y47.641 E0.01400
G1 X185.693 Y47.961 E0.01050
G1 X185.643 Y48.420 E0.01447
G1 X185.700 Y48.882 E0.01459
G1 X185.808 Y49.209 E0.01079
G1 X185.975 Y49.497 E0.01044
G1 X186.120 Y49.672 E0.00712
G1 X185.571 Y49.639 E0.01725
G1 X185.571 Y38.763 E0.34101
;WIPE_START
G1 F8640.000
G1 X188.862 Y38.745 E-0.76000
;WIPE_END
G1 E-0.04000 F2100.000
G1 Z0.600 F10800.000
G1 X187.343 Y46.711
G1 Z0.200
G1 E0.80000 F2100.000
;TYPE:External perimeter
G1 F1200.000
G1 X187.721 Y46.656 E0.01197
G1 X188.090 Y46.682 E0.01160
G1 X188.360 Y46.752 E0.00874
G1 X188.705 Y46.915 E0.01198
G1 X188.997 Y47.140 E0.01154
G1 X189.183 Y47.347 E0.00874
G1 X189.381 Y47.674 E0.01198
G1 X189.500 Y48.022 E0.01155
G1 X189.540 Y48.295 E0.00863
G1 X189.538 Y48.558 E0.00825
G1 X189.459 Y48.938 E0.01217
G1 X189.281 Y49.283 E0.01217
G1 X189.106 Y49.492 E0.00855
G1 X188.803 Y49.702 E0.01156
G1 X188.177 Y49.926 E0.02085
G1 X187.846 Y49.976 E0.01049
G1 X187.611 Y49.967 E0.00739
G1 X187.290 Y49.896 E0.01031
G1 X186.770 Y49.705 E0.01735
G1 X186.457 Y49.487 E0.01198
G1 X186.286 Y49.281 E0.00841
G1 X186.154 Y49.053 E0.00824
G1 X186.070 Y48.799 E0.00841
G1 X186.023 Y48.417 E0.01204
G1 X186.064 Y48.037 E0.01201
G1 X186.141 Y47.783 E0.00832
G1 X186.313 Y47.447 E0.01183
G1 X186.475 Y47.237 E0.00831
G1 X186.760 Y46.983 E0.01196
G1 X187.081 Y46.802 E0.01157
G1 X187.286 Y46.731 E0.00681
G1 X187.449 Y46.344 F10800.000
;WIPE_START
G1 F8640.000
G1 X187.721 Y46.656 E-0.10180
M73 Q6 S5
G1 X188.090 Y46.682 E-0.08541
G1 X188.360 Y46.752 E-0.06437
G1 X188.705 Y46.915 E-0.08821
G1 X188.997 Y47.140 E-0.08501
G1 X189.183 Y47.347 E-0.06437
G1 X189.381 Y47.674 E-0.08820
G1 X189.500 Y48.022 E-0.08505
G1 X189.540 Y48.295 E-0.06358
G1 X189.539 Y48.442 E-0.03398
;WIPE_END
G1 E-0.04000 F2100.000
G1 Z0.600 F10800.000
G1 X185.889 Y47.034
M73 P6 R5
G1 Z0.200
G1 E0.80000 F2100.000
;TYPE:Gap fill
;WIDTH:0.11049
G1 F1200.000
G1 X185.796 Y47.136 E0.00077
G1 X185.779 Y47.208 E0.00042
G1 X185.684 Y46.260 F10800.000
;TYPE:Solid infill
;WIDTH:0.426675
G1 F1200.000
G1 X186.106 Y46.682 E0.01906
G1 X186.397 Y46.430 E0.01228
G1 X185.854 Y45.887 E0.02452
G1 X185.854 Y45.344 E0.01732
G1 X186.744 Y46.234 E0.04017
G1 X187.136 Y46.084 E0.01341
G1 X185.854 Y44.801 E0.05789
G1 X185.854 Y44.259 E0.01732
G1 X187.601 Y46.006 E0.07887
G1 X187.696 Y45.992 E0.00306
G1 X188.163 Y46.026 E0.01494
G1 X185.854 Y43.716 E0.10424
G1 X185.854 Y43.173 E0.01732
G1 X192.028 Y49.347 E0.27862
G1 X192.570 Y49.347 E0.01731
G1 X185.854 Y42.630 E0.30310
G1 X185.854 Y42.088 E0.01732
G1 X193.113 Y49.347 E0.32759
G1 X193.655 Y49.347 E0.01731
G1 X185.854 Y41.545 E0.35207
M73 Q7 S5
G1 X185.854 Y41.002 E0.01732
G1 X194.198 Y49.347 E0.37656
M73 P7 R5
G1 X194.741 Y49.347 E0.01731
G1 X185.854 Y40.460 E0.40104
G1 X185.854 Y39.917 E0.01732
G1 X195.283 Y49.347 E0.42553
G1 X195.826 Y49.346 E0.01731
G1 X185.854 Y39.374 E0.45001
G1 X185.854 Y38.986 E0.01239
G1 X186.008 Y38.986 E0.00493
G1 X196.214 Y49.192 E0.46056
M73 P8 R5
M73 Q8 S5
G1 X196.214 Y48.649 E0.01732
G1 X186.551 Y38.986 E0.43607
G1 X187.093 Y38.986 E0.01732
G1 X196.214 Y48.106 E0.41158
G1 X196.214 Y47.564 E0.01732
G1 X187.636 Y38.986 E0.38708
G1 X188.179 Y38.986 E0.01732
G1 X196.214 Y47.021 E0.36259
M73 Q9 S5
G1 X196.214 Y46.478 E0.01732
G1 X188.722 Y38.986 E0.33810
M73 P9 R5
G1 X189.264 Y38.986 E0.01732
G1 X196.214 Y45.935 E0.31361
G1 X196.214 Y45.393 E0.01732
G1 X189.807 Y38.986 E0.28912
G1 X190.350 Y38.986 E0.01732
G1 X196.214 Y44.850 E0.26463
G1 X196.214 Y44.307 E0.01732
G1 X190.892 Y38.986 E0.24014
G1 X191.435 Y38.986 E0.01732
G1 X196.214 Y43.765 E0.21565
G1 X196.214 Y43.222 E0.01732
G1 X191.978 Y38.986 E0.19116
M73 Q10 S5
G1 X192.521 Y38.986 E0.01732
G1 X196.214 Y42.679 E0.16667
M73 P10 R5
G1 X196.214 Y42.136 E0.01732
G1 X193.063 Y38.986 E0.14218
G1 X193.606 Y38.986 E0.01732
G1 X196.214 Y41.594 E0.11769
G1 X196.214 Y41.051 E0.01732
G1 X194.149 Y38.986 E0.09320
G1 X194.691 Y38.986 E0.01732
G1 X196.214 Y40.508 E0.06870
G1 X196.214 Y39.966 E0.01732
G1 X195.234 Y38.986 E0.04421
G1 X195.777 Y38.986 E0.01732
G1 X196.384 Y39.593 E0.02738
;WIPE_START
G1 F8640.000
G1 X195.777 Y38.986 E-0.19813
G1 X195.234 Y38.986 E-0.12531
G1 X196.214 Y39.966 E-0.31994
G1 X196.214 Y40.471 E-0.11662
;WIPE_END
G1 E-0.04000 F2100.000
G1 Z0.600 F10800.000
G1 X191.655 Y49.517
G1 Z0.200
G1 E0.80000 F2100.000
G1 F1200.000
G1 X190.168 Y48.030 E0.06709
G1 X190.200 Y48.250 E0.00708
G1 X190.197 Y48.602 E0.01124
G1 X190.943 Y49.348 E0.03364
G1 X190.400 Y49.348 E0.01731
G1 X189.965 Y48.913 E0.01963
;WIPE_START
G1 F8640.000
G1 X190.400 Y49.348 E-0.14204
G1 X190.943 Y49.348 E-0.12528
G1 X190.197 Y48.602 E-0.24344
G1 X190.200 Y48.250 E-0.08135
G1 X190.168 Y48.030 E-0.05122
G1 X190.525 Y48.388 E-0.11666
;WIPE_END
G1 E-0.04000 F2100.000
G1 Z0.600 F10800.000
G1 X189.113 Y49.743
G1 Z0.200
G1 E0.80000 F2100.000
;TYPE:Gap fill
;WIDTH:0.141536
G1 F1200.000
G1 X188.961 Y49.882 E0.00169
G1 X188.915 Y49.901 E0.00040
;WIDTH:0.120978
G1 X188.757 Y49.948 E0.00107
;WIPE_START
G1 F8640.000
G1 X188.915 Y49.901 E-0.03806
;WIPE_END
G1 E-0.76194 F2100.000
G1 Z0.600 F10800.000
G1 X186.820 Y49.949
G1 Z0.200
G1 E0.80000 F2100.000
;WIDTH:0.114716
G1 F1200.000
G1 X186.515 Y49.854 E0.00191
M73 Q11 S5
G1 X186.446 Y49.736 F10800.000
;WIDTH:0.11876
G1 F1200.000
G1 X186.559 Y49.840 E0.00097
;WIDTH:0.144201
G1 X186.673 Y49.945 E0.00130
; stop printing object wire_tie1.stl id:0 copy 0
M106 S84.15
;LAYER_CHANGE
;Z:0.5
;HEIGHT:0.3
;BEFORE_LAYER_CHANGE
G92 E0.0
;0.5


;WIPE_START
G1 F8640.000
G1 X186.559 Y49.840 E-0.03560
;WIPE_END
G1 E-0.76440 F2100.000
G1 Z0.600 F10800.000
;AFTER_LAYER_CHANGE
;0.5
M104 S200 ; set temperature
M140 S64 ; set bed temperature
; printing object wire_tie1.stl id:0 copy 0
G1 X186.926 Y49.828
M73 P11 R5
G1 Z0.500
G1 E0.80000 F2100.000
M204 S800
;TYPE:External perimeter
;WIDTH:0.6
G1 F1374
G1 X186.643 Y49.610 E0.02386
G1 X186.461 Y49.404 E0.01833
G1 X186.289 Y49.118 E0.02233
G1 X186.173 Y48.780 E0.02387
G1 X186.136 Y48.508 E0.01833
G1 X186.150 Y48.174 E0.02233
G1 X186.241 Y47.825 E0.02408
G1 X186.393 Y47.527 E0.02233
G1 X186.558 Y47.309 E0.01833
G1 X186.825 Y47.071 E0.02386
G1 X187.116 Y46.906 E0.02234
G1 X187.375 Y46.816 E0.01834
G1 X187.729 Y46.765 E0.02385
G1 X188.062 Y46.789 E0.02234
G1 X188.328 Y46.857 E0.01834
G1 X188.651 Y47.010 E0.02384
G1 X188.916 Y47.214 E0.02235
G1 X189.099 Y47.418 E0.01835
G1 X189.283 Y47.724 E0.02383
G1 X189.392 Y48.041 E0.02235
G1 X189.431 Y48.311 E0.01827
G1 X189.419 Y48.645 E0.02235
G1 X189.331 Y48.991 E0.02383
G1 X189.215 Y49.240 E0.01835
G1 X189.020 Y49.512 E0.02235
G1 X188.755 Y49.751 E0.02384
G1 X188.520 Y49.893 E0.01834
G1 X188.208 Y50.012 E0.02234
G1 X187.851 Y50.066 E0.02413
G1 X187.493 Y50.042 E0.02392
G1 X187.228 Y49.971 E0.01834
G1 X186.980 Y49.853 E0.01833
M204 S1000
G1 X186.611 Y49.996 F10800.000
G1 X186.031 Y49.630
M204 S800
;TYPE:Perimeter
;WIDTH:0.5
G1 F1374
G1 X185.569 Y49.630 E0.02507
G1 X185.569 Y38.702 E0.59379
G1 X196.498 Y38.702 E0.59379
G1 X196.498 Y49.630 E0.59379
G1 X189.532 Y49.630 E0.37849
G1 X189.635 Y49.487 E0.00961
G1 X189.791 Y49.156 E0.01987
G1 X189.903 Y48.715 E0.02472
G1 X189.918 Y48.284 E0.02341
G1 X189.865 Y47.926 E0.01970
G1 X189.726 Y47.518 E0.02341
G1 X189.492 Y47.128 E0.02473
G1 X189.247 Y46.856 E0.01986
G1 X188.906 Y46.594 E0.02339
G1 X188.494 Y46.398 E0.02475
G1 X188.140 Y46.307 E0.01985
G1 X187.711 Y46.277 E0.02338
G1 X187.260 Y46.342 E0.02477
G1 X186.915 Y46.462 E0.01984
G1 X186.541 Y46.674 E0.02337
G1 X186.200 Y46.978 E0.02479
G1 X185.979 Y47.269 E0.01983
G1 X185.785 Y47.652 E0.02336
G1 X185.667 Y48.101 E0.02525
G1 X185.649 Y48.531 E0.02335
G1 X185.698 Y48.892 E0.01983
G1 X185.846 Y49.324 E0.02481
G1 X186.000 Y49.579 E0.01616
M204 S1000
;WIPE_START
G1 F8640.000
G1 X185.569 Y49.630 E-0.10009
G1 X185.569 Y46.772 E-0.65991
;WIPE_END
M73 Q12 S5
G1 E-0.04000 F2100.000
G1 Z0.900 F10800.000
G1 X185.084 Y50.116
M73 P12 R5
G1 Z0.500
G1 E0.80000 F2100.000
M204 S800
;TYPE:External perimeter
;WIDTH:0.6
G1 F1374
G1 X185.084 Y38.216 E0.79498
G1 X196.984 Y38.216 E0.79498
G1 X196.984 Y50.116 E0.79498
G1 X185.144 Y50.116 E0.79098
M204 S1000
G1 X185.187 Y49.730 F10800.000
;WIPE_START
G1 F8640.000
G1 X185.127 Y46.825 E-0.76000
;WIPE_END
G1 E-0.04000 F2100.000
G1 Z0.900 F10800.000
G1 X185.700 Y39.734
G1 Z0.500
G1 E0.80000 F2100.000
;TYPE:Solid infill
;WIDTH:0.509897
G1 F1374
G1 X186.405 Y39.028 E0.05544
G1 X187.036 Y39.028 E0.03501
G1 X185.896 Y40.168 E0.08955
G1 X185.896 Y40.798 E0.03501
M73 Q13 S5
G1 X187.666 Y39.028 E0.13906
G1 X188.296 Y39.028 E0.03501
G1 X185.896 Y41.428 E0.18857
M73 P13 R5
G1 X185.896 Y42.058 E0.03501
G1 X188.926 Y39.028 E0.23808
G1 X189.556 Y39.028 E0.03501
G1 X185.896 Y42.688 E0.28759
M73 P13 R4
G1 X185.896 Y43.318 E0.03501
G1 X190.186 Y39.028 E0.33711
M73 Q13 S4
G1 X190.816 Y39.028 E0.03501
G1 X185.896 Y43.948 E0.38662
G1 X185.896 Y44.578 E0.03501
G1 X191.446 Y39.028 E0.43613
G1 X192.076 Y39.028 E0.03501
G1 X185.896 Y45.208 E0.48564
G1 X185.896 Y45.838 E0.03501
G1 X192.706 Y39.028 E0.53515
G1 X193.336 Y39.028 E0.03501
G1 X185.896 Y46.468 E0.58467
M73 Q14 S4
G1 X185.896 Y46.838 E0.02054
G1 X185.959 Y46.755 E0.00578
G1 X186.349 Y46.407 E0.02906
M73 P14 R4
G1 X186.780 Y46.163 E0.02749
G1 X186.859 Y46.136 E0.00466
G1 X193.966 Y39.028 E0.55852
G1 X194.596 Y39.028 E0.03501
G1 X187.672 Y45.953 E0.54415
G1 X188.255 Y46.000 E0.03251
G1 X195.226 Y39.028 E0.54783
G1 X195.856 Y39.028 E0.03501
G1 X188.734 Y46.150 E0.55969
G1 X189.077 Y46.313 E0.02111
G1 X189.147 Y46.367 E0.00491
G1 X196.171 Y39.343 E0.55198
G1 X196.171 Y39.973 E0.03501
G1 X189.498 Y46.647 E0.52443
G1 X189.788 Y46.987 E0.02483
G1 X196.171 Y40.603 E0.50164
M73 P15 R4
M73 Q15 S4
G1 X196.171 Y41.233 E0.03501
G1 X190.024 Y47.380 E0.48306
G1 X190.185 Y47.850 E0.02758
G1 X196.171 Y41.863 E0.47047
G1 X196.171 Y42.494 E0.03501
G1 X190.240 Y48.425 E0.46610
G1 X190.228 Y48.762 E0.01873
G1 X190.124 Y49.171 E0.02347
G1 X196.171 Y43.124 E0.47523
G1 X196.171 Y43.754 E0.03501
G1 X190.621 Y49.304 E0.43614
G1 X191.251 Y49.304 E0.03501
G1 X196.171 Y44.384 E0.38663
G1 X196.171 Y45.014 E0.03501
G1 X191.882 Y49.304 E0.33711
G1 X192.512 Y49.304 E0.03501
G1 X196.171 Y45.644 E0.28760
M73 P16 R4
M73 Q16 S4
G1 X196.171 Y46.274 E0.03501
G1 X193.142 Y49.304 E0.23809
G1 X193.772 Y49.304 E0.03501
G1 X196.171 Y46.904 E0.18858
G1 X196.171 Y47.534 E0.03501
G1 X194.402 Y49.304 E0.13907
G1 X195.032 Y49.304 E0.03501
G1 X196.171 Y48.164 E0.08955
G1 X196.171 Y48.794 E0.03501
G1 X195.466 Y49.500 E0.05545
; stop printing object wire_tie1.stl id:0 copy 0
M106 S170.85
;LAYER_CHANGE
;Z:0.8
;HEIGHT:0.3
;BEFORE_LAYER_CHANGE
G92 E0.0
;0.8


;WIPE_START
G1 F8640.000
G1 X196.171 Y48.794 E-0.23040
G1 X196.171 Y48.164 E-0.14548
G1 X195.032 Y49.304 E-0.37213
G1 X194.980 Y49.304 E-0.01199
;WIPE_END
G1 E-0.04000 F2100.000
G1 Z0.900 F10800.000
;AFTER_LAYER_CHANGE
;0.8
; printing object wire_tie1.stl id:0 copy 0
G1 X189.420 Y48.636
G1 Z0.800
G1 E0.80000 F2100.000
M204 S800
;TYPE:External perimeter
;WIDTH:0.6
G1 F1383
G1 X189.335 Y48.983 E0.02388
G1 X189.209 Y49.249 E0.01964
G1 X189.024 Y49.506 E0.02114
G1 X188.761 Y49.747 E0.02389
G1 X188.509 Y49.899 E0.01964
G1 X188.213 Y50.011 E0.02113
G1 X187.856 Y50.066 E0.02411
G1 X187.497 Y50.042 E0.02404
G1 X187.214 Y49.965 E0.01963
G1 X186.928 Y49.829 E0.02112
G1 X186.644 Y49.611 E0.02393
G1 X186.451 Y49.390 E0.01962
G1 X186.289 Y49.118 E0.02111
G1 X186.173 Y48.779 E0.02394
G1 X186.135 Y48.488 E0.01961
G1 X186.150 Y48.173 E0.02110
G1 X186.241 Y47.825 E0.02402
G1 X186.383 Y47.543 E0.02111
G1 X186.559 Y47.308 E0.01962
G1 X186.827 Y47.070 E0.02393
G1 X187.102 Y46.913 E0.02112
G1 X187.379 Y46.815 E0.01963
G1 X187.733 Y46.765 E0.02391
G1 X188.049 Y46.787 E0.02113
G1 X188.333 Y46.859 E0.01963
G1 X188.656 Y47.014 E0.02390
G1 X188.907 Y47.206 E0.02113
G1 X189.104 Y47.424 E0.01964
G1 X189.287 Y47.732 E0.02389
G1 X189.389 Y48.031 E0.02114
G1 X189.432 Y48.320 E0.01950
G1 X189.423 Y48.576 E0.01713
M204 S1000
G1 X189.701 Y48.857 F10800.000
G1 X189.629 Y49.496
M204 S800
;TYPE:Perimeter
;WIDTH:0.5
G1 F1383
G1 X189.794 Y49.147 E0.02102
G1 X189.904 Y48.704 E0.02477
G1 X189.919 Y48.293 E0.02235
G1 X189.863 Y47.916 E0.02071
G1 X189.730 Y47.527 E0.02234
G1 X189.497 Y47.135 E0.02479
G1 X189.238 Y46.848 E0.02101
G1 X188.912 Y46.598 E0.02233
G1 X188.500 Y46.400 E0.02482
G1 X188.125 Y46.305 E0.02100
G1 X187.716 Y46.277 E0.02231
